P3
400 225
255
163 200 255
163 200 255
163 200 255
163 200 255
163 200 255
163 200 255
163 200 255
163 200 255
163 200 255
163 200 255
163 200 255
162 200 255
162 200 255
162 200 255
162 199 255
162 199 255
162 199 255
162 199 255
162 199 255
162 199 255
162 199 255
162 199 255
161 199 255
161 199 255
161 199 255
161 199 255
161 199 255
161 199 255
161 199 255
161 199 255
161 199 255
161 199 255
160 198 255
160 198 255
160 198 255
160 198 255
160 198 255
160 198 255
160 198 255
160 198 255
160 198 255
160 198 255
159 198 255
159 198 255
159 198 255
159 198 255
159 198 255
159 198 255
159 197 255
159 197 255
159 197 255
159 197 255
158 197 255
158 197 255
158 197 255
158 197 255
158 197 255
158 197 255
158 197 255
158 197 255
158 197 255
157 197 255
157 197 255
157 197 255
157 196 255
157 196 255
157 196 255
157 196 255
157 196 255
157 196 255
157 196 255
156 196 255
156 196 255
156 196 255
156 196 255
156 196 255
156 196 255
156 196 255
156 196 255
156 196 255
155 195 255
155 195 255
155 195 255
155 195 255
155 195 255
155 195 255
155 195 255
155 195 255
155 195 255
154 195 255
154 195 255
154 195 255
154 195 255
154 195 255
154 195 255
154 194 255
154 194 255
154 194 255
153 194 255
153 194 255
153 194 255
153 194 255
153 194 255
153 194 255
153 194 255
153 194 255
153 194 255
152 194 255
152 194 255
152 194 255
152 193 255
152 193 255
152 193 255
152 193 255
152 193 255
152 193 255
152 193 255
151 193 255
151 193 255
151 193 255
151 193 255
151 193 255
151 193 255
151 193 255
151 193 255
151 193 255
151 193 255
150 192 255
150 192 255
150 192 255
150 192 255
150 192 255
150 192 255
150 192 255
150 192 255
150 192 255
150 192 255
149 192 255
149 192 255
149 192 255
149 192 255
149 192 255
149 192 255
149 192 255
149 192 255
149 191 255
149 191 255
149 191 255
149 191 255
148 191 255
148 191 255
148 191 255
148 191 255
148 191 255
148 191 255
148 191 255
148 191 255
148 191 255
148 191 255
148 191 255
148 191 255
148 191 255
148 191 255
147 191 255
147 191 255
147 191 255
147 191 255
147 191 255
147 191 255
147 191 255
147 190 255
147 190 255
147 190 255
147 190 255
147 190 255
147 190 255
147 190 255
147 190 255
147 190 255
147 190 255
147 190 255
147 190 255
147 190 255
147 190 255
147 190 255
147 190 255
147 190 255
146 190 255
146 190 255
146 190 255
146 190 255
146 190 255
146 190 255
146 190 255
146 190 255
146 190 255
146 190 255
146 190 255
146 190 255
146 190 255
146 190 255
146 190 255
146 190 255
146 190 255
146 190 255
146 190 255
146 190 255
146 190 255
146 190 255
146 190 255
146 190 255
146 190 255
146 190 255
147 190 255
147 190 255
147 190 255
147 190 255
147 190 255
147 190 255
147 190 255
147 190 255
147 190 255
147 190 255
147 190 255
147 190 255
147 190 255
147 190 255
147 190 255
147 190 255
147 190 255
147 190 255
147 191 255
147 191 255
147 191 255
147 191 255
147 191 255
147 191 255
148 191 255
148 191 255
148 191 255
148 191 255
148 191 255
148 191 255
148 191 255
148 191 255
148 191 255
148 191 255
148 191 255
148 191 255
148 191 255
148 191 255
149 191 255
149 191 255
149 191 255
149 191 255
149 192 255
149 192 255
149 192 255
149 192 255
149 192 255
149 192 255
149 192 255
149 192 255
150 192 255
150 192 255
150 192 255
150 192 255
150 192 255
150 192 255
150 192 255
150 192 255
150 192 255
150 192 255
151 193 255
151 193 255
151 193 255
151 193 255
151 193 255
151 193 255
151 193 255
151 193 255
151 193 255
151 193 255
152 193 255
152 193 255
152 193 255
152 193 255
152 193 255
152 193 255
152 194 255
152 194 255
152 194 255
152 194 255
153 194 255
153 194 255
153 194 255
153 194 255
153 194 255
153 194 255
153 194 255
153 194 255
153 194 255
154 194 255
154 194 255
154 194 255
154 195 255
154 195 255
154 195 255
154 195 255
154 195 255
154 195 255
155 195 255
155 195 255
155 195 255
155 195 255
155 195 255
155 195 255
155 195 255
155 195 255
155 195 255
156 196 255
156 196 255
156 196 255
156 196 255
156 196 255
156 196 255
156 196 255
156 196 255
156 196 255
157 196 255
157 196 255
157 196 255
157 196 255
157 196 255
157 196 255
157 196 255
157 197 255
157 197 255
157 197 255
158 197 255
158 197 255
158 197 255
158 197 255
158 197 255
158 197 255
158 197 255
158 197 255
158 197 255
159 197 255
159 197 255
159 197 255
159 197 255
159 198 255
159 198 255
159 198 255
159 198 255
159 198 255
159 198 255
160 198 255
160 198 255
160 198 255
160 198 255
160 198 255
160 198 255
160 198 255
160 198 255
160 198 255
160 198 255
161 199 255
161 199 255
161 199 255
161 199 255
161 199 255
161 199 255
161 199 255
161 199 255
161 199 255
161 199 255
161 199 255
162 199 255
162 199 255
162 199 255
162 199 255
162 199 255
162 199 255
162 199 255
162 200 255
162 200 255
162 200 255
163 200 255
163 200 255
163 200 255
163 200 255
163 200 255
163 200 255
163 200 255
163 200 255
163 200 255
163 200 255
163 200 255
164 200 255
163 200 255
163 200 255
163 200 255
163 200 255
163 200 255
163 200 255
163 200 255
163 200 255
163 200 255
163 200 255
163 200 255
163 200 255
162 200 255
162 200 255
162 200 255
162 200 255
162 199 255
162 199 255
162 199 255
162 199 255
162 199 255
162 199 255
162 199 255
161 199 255
161 199 255
161 199 255
161 199 255
161 199 255
161 199 255
161 199 255
161 199 255
161 199 255
161 199 255
160 198 255
160 198 255
160 198 255
160 198 255
160 198 255
160 198 255
160 198 255
160 198 255
160 198 255
160 198 255
159 198 255
159 198 255
159 198 255
159 198 255
159 198 255
159 198 255
159 198 255
159 197 255
159 197 255
159 197 255
158 197 255
158 197 255
158 197 255
158 197 255
158 197 255
158 197 255
158 197 255
158 197 255
158 197 255
157 197 255
157 197 255
157 197 255
157 197 255
157 196 255
157 196 255
157 196 255
157 196 255
157 196 255
157 196 255
156 196 255
156 196 255
156 196 255
156 196 255
156 196 255
156 196 255
156 196 255
156 196 255
156 196 255
155 195 255
155 195 255
155 195 255
155 195 255
155 195 255
155 195 255
155 195 255
155 195 255
155 195 255
154 195 255
154 195 255
154 195 255
154 195 255
154 195 255
154 195 255
154 194 255
154 194 255
154 194 255
153 194 255
153 194 255
153 194 255
153 194 255
153 194 255
153 194 255
153 194 255
153 194 255
153 194 255
152 194 255
152 194 255
152 194 255
152 194 255
152 193 255
152 193 255
152 193 255
152 193 255
152 193 255
152 193 255
151 193 255
151 193 255
151 193 255
151 193 255
151 193 255
151 193 255
151 193 255
151 193 255
151 193 255
151 193 255
150 192 255
150 192 255
150 192 255
150 192 255
150 192 255
150 192 255
150 192 255
150 192 255
150 192 255
150 192 255
150 192 255
149 192 255
149 192 255
149 192 255
149 192 255
149 192 255
149 192 255
149 192 255
149 192 255
149 191 255
149 191 255
149 191 255
149 191 255
148 191 255
148 191 255
148 191 255
148 191 255
148 191 255
148 191 255
148 191 255
148 191 255
148 191 255
148 191 255
148 191 255
148 191 255
148 191 255
148 191 255
148 191 255
147 191 255
147 191 255
147 191 255
147 191 255
147 191 255
147 191 255
147 190 255
147 190 255
147 190 255
147 190 255
147 190 255
147 190 255
147 190 255
147 190 255
147 190 255
147 190 255
147 190 255
147 190 255
147 190 255
147 190 255
147 190 255
147 190 255
147 190 255
147 190 255
147 190 255
147 190 255
147 190 255
147 190 255
147 190 255
147 190 255
147 190 255
147 190 255
147 190 255
147 190 255
147 190 255
147 190 255
147 190 255
147 190 255
147 190 255
147 190 255
147 190 255
147 190 255
147 190 255
147 190 255
147 190 255
147 190 255
147 190 255
147 190 255
147 190 255
147 190 255
147 190 255
147 190 255
147 190 255
147 190 255
147 190 255
147 190 255
147 190 255
147 190 255
147 190 255
147 191 255
147 191 255
147 191 255
147 191 255
147 191 255
147 191 255
147 191 255
148 191 255
148 191 255
148 191 255
148 191 255
148 191 255
148 191 255
148 191 255
148 191 255
148 191 255
148 191 255
148 191 255
148 191 255
148 191 255
148 191 255
148 191 255
149 191 255
149 191 255
149 191 255
149 191 255
149 192 255
149 192 255
149 192 255
149 192 255
149 192 255
149 192 255
149 192 255
149 192 255
150 192 255
150 192 255
150 192 255
150 192 255
150 192 255
150 192 255
150 192 255
150 192 255
150 192 255
150 192 255
150 192 255
151 193 255
151 193 255
151 193 255
151 193 255
151 193 255
151 193 255
151 193 255
151 193 255
151 193 255
151 193 255
152 193 255
152 193 255
152 193 255
152 193 255
152 193 255
152 193 255
152 194 255
152 194 255
152 194 255
152 194 255
153 194 255
153 194 255
153 194 255
153 194 255
153 194 255
153 194 255
153 194 255
153 194 255
153 194 255
154 194 255
154 194 255
154 194 255
154 195 255
154 195 255
154 195 255
154 195 255
154 195 255
154 195 255
155 195 255
155 195 255
155 195 255
155 195 255
155 195 255
155 195 255
155 195 255
155 195 255
155 195 255
156 196 255
156 196 255
156 196 255
156 196 255
156 196 255
156 196 255
156 196 255
156 196 255
156 196 255
157 196 255
157 196 255
157 196 255
157 196 255
157 196 255
157 196 255
157 196 255
157 197 255
157 197 255
157 197 255
158 197 255
158 197 255
158 197 255
158 197 255
158 197 255
158 197 255
158 197 255
158 197 255
158 197 255
159 197 255
159 197 255
159 197 255
159 198 255
159 198 255
159 198 255
159 198 255
159 198 255
159 198 255
159 198 255
160 198 255
160 198 255
160 198 255
160 198 255
160 198 255
160 198 255
160 198 255
160 198 255
160 198 255
160 198 255
161 199 255
161 199 255
161 199 255
161 199 255
161 199 255
161 199 255
161 199 255
161 199 255
161 199 255
161 199 255
162 199 255
162 199 255
162 199 255
162 199 255
162 199 255
162 199 255
162 199 255
162 199 255
162 200 255
162 200 255
162 200 255
163 200 255
163 200 255
163 200 255
163 200 255
163 200 255
163 200 255
163 200 255
163 200 255
163 200 255
163 200 255
163 200 255
164 200 255
164 200 255
164 200 255
164 200 255
164 200 255
164 200 255
163 200 255
163 200 255
163 200 255
163 200 255
163 200 255
163 200 255
163 200 255
163 200 255
163 200 255
163 200 255
163 200 255
162 200 255
162 200 255
162 200 255
162 200 255
162 199 255
162 199 255
162 199 255
162 199 255
162 199 255
162 199 255
162 199 255
161 199 255
161 199 255
161 199 255
161 199 255
161 199 255
161 199 255
161 199 255
161 199 255
161 199 255
161 199 255
160 198 255
160 198 255
160 198 255
160 198 255
160 198 255
160 198 255
160 198 255
160 198 255
160 198 255
160 198 255
159 198 255
159 198 255
159 198 255
159 198 255
159 198 255
159 198 255
159 198 255
159 197 255
159 197 255
159 197 255
158 197 255
158 197 255
158 197 255
158 197 255
158 197 255
158 197 255
158 197 255
158 197 255
158 197 255
157 197 255
157 197 255
157 197 255
157 197 255
157 196 255
157 196 255
157 196 255
157 196 255
157 196 255
157 196 255
156 196 255
156 196 255
156 196 255
156 196 255
156 196 255
156 196 255
156 196 255
156 196 255
156 196 255
155 195 255
155 195 255
155 195 255
155 195 255
155 195 255
155 195 255
155 195 255
155 195 255
155 195 255
154 195 255
154 195 255
154 195 255
154 195 255
154 195 255
154 195 255
154 194 255
154 194 255
154 194 255
153 194 255
153 194 255
153 194 255
153 194 255
153 194 255
153 194 255
153 194 255
153 194 255
153 194 255
152 194 255
152 194 255
152 194 255
152 194 255
152 193 255
152 193 255
152 193 255
152 193 255
152 193 255
152 193 255
151 193 255
151 193 255
151 193 255
151 193 255
151 193 255
151 193 255
151 193 255
151 193 255
151 193 255
151 193 255
150 192 255
150 192 255
150 192 255
150 192 255
150 192 255
150 192 255
150 192 255
150 192 255
150 192 255
150 192 255
150 192 255
149 192 255
149 192 255
149 192 255
149 192 255
149 192 255
149 192 255
149 192 255
149 192 255
149 191 255
149 191 255
149 191 255
149 191 255
149 191 255
148 191 255
148 191 255
148 191 255
148 191 255
148 191 255
148 191 255
148 191 255
148 191 255
148 191 255
148 191 255
148 191 255
148 191 255
148 191 255
148 191 255
148 191 255
148 191 255
147 191 255
147 191 255
147 191 255
147 191 255
147 191 255
147 191 255
147 191 255
147 190 255
147 190 255
147 190 255
147 190 255
147 190 255
147 190 255
147 190 255
147 190 255
147 190 255
147 190 255
147 190 255
147 190 255
147 190 255
147 190 255
147 190 255
147 190 255
147 190 255
147 190 255
147 190 255
147 190 255
147 190 255
147 190 255
147 190 255
147 190 255
147 190 255
147 190 255
147 190 255
147 190 255
147 190 255
147 190 255
147 190 255
147 190 255
147 190 255
147 190 255
147 190 255
147 190 255
147 190 255
147 190 255
147 190 255
147 190 255
147 190 255
147 190 255
147 190 255
147 191 255
147 191 255
147 191 255
147 191 255
147 191 255
147 191 255
147 191 255
147 191 255
148 191 255
148 191 255
148 191 255
148 191 255
148 191 255
148 191 255
148 191 255
148 191 255
148 191 255
148 191 255
148 191 255
148 191 255
148 191 255
148 191 255
148 191 255
148 191 255
149 191 255
149 191 255
149 191 255
149 191 255
149 191 255
149 192 255
149 192 255
149 192 255
149 192 255
149 192 255
149 192 255
149 192 255
149 192 255
150 192 255
150 192 255
150 192 255
150 192 255
150 192 255
150 192 255
150 192 255
150 192 255
150 192 255
150 192 255
150 192 255
151 193 255
151 193 255
151 193 255
151 193 255
151 193 255
151 193 255
151 193 255
151 193 255
151 193 255
151 193 255
152 193 255
152 193 255
152 193 255
152 193 255
152 193 255
152 193 255
152 194 255
152 194 255
152 194 255
153 194 255
153 194 255
153 194 255
153 194 255
153 194 255
153 194 255
153 194 255
153 194 255
153 194 255
153 194 255
154 194 255
154 194 255
154 194 255
154 195 255
154 195 255
154 195 255
154 195 255
154 195 255
154 195 255
155 195 255
155 195 255
155 195 255
155 195 255
155 195 255
155 195 255
155 195 255
155 195 255
155 195 255
156 196 255
156 196 255
156 196 255
156 196 255
156 196 255
156 196 255
156 196 255
156 196 255
156 196 255
157 196 255
157 196 255
157 196 255
157 196 255
157 196 255
157 196 255
157 196 255
157 197 255
157 197 255
157 197 255
158 197 255
158 197 255
158 197 255
158 197 255
158 197 255
158 197 255
158 197 255
158 197 255
158 197 255
159 197 255
159 197 255
159 197 255
159 198 255
159 198 255
159 198 255
159 198 255
159 198 255
159 198 255
159 198 255
160 198 255
160 198 255
160 198 255
160 198 255
160 198 255
160 198 255
160 198 255
160 198 255
160 198 255
160 198 255
161 199 255
161 199 255
161 199 255
161 199 255
161 199 255
161 199 255
161 199 255
161 199 255
161 199 255
161 199 255
162 199 255
162 199 255
162 199 255
162 199 255
162 199 255
162 199 255
162 199 255
162 200 255
162 200 255
162 200 255
162 200 255
163 200 255
163 200 255
163 200 255
163 200 255
163 200 255
163 200 255
163 200 255
163 200 255
163 200 255
163 200 255
163 200 255
164 200 255
164 200 255
164 200 255
164 200 255
164 201 255
164 201 255
164 200 255
164 200 255
164 200 255
164 200 255
163 200 255
163 200 255
163 200 255
163 200 255
163 200 255
163 200 255
163 200 255
163 200 255
163 200 255
163 200 255
163 200 255
162 200 255
162 200 255
162 200 255
162 200 255
162 199 255
162 199 255
162 199 255
162 199 255
162 199 255
162 199 255
162 199 255
161 199 255
161 199 255
161 199 255
161 199 255
161 199 255
161 199 255
161 199 255
161 199 255
161 199 255
161 199 255
160 198 255
160 198 255
160 198 255
160 198 255
160 198 255
160 198 255
160 198 255
160 198 255
160 198 255
160 198 255
159 198 255
159 198 255
159 198 255
159 198 255
159 198 255
159 198 255
159 198 255
159 197 255
159 197 255
159 197 255
158 197 255
158 197 255
158 197 255
158 197 255
158 197 255
158 197 255
158 197 255
158 197 255
158 197 255
158 197 255
157 197 255
157 197 255
157 197 255
157 196 255
157 196 255
157 196 255
157 196 255
157 196 255
157 196 255
156 196 255
156 196 255
156 196 255
156 196 255
156 196 255
156 196 255
156 196 255
156 196 255
156 196 255
155 195 255
155 195 255
155 195 255
155 195 255
155 195 255
155 195 255
155 195 255
155 195 255
155 195 255
154 195 255
154 195 255
154 195 255
154 195 255
154 195 255
154 195 255
154 194 255
154 194 255
154 194 255
153 194 255
153 194 255
153 194 255
153 194 255
153 194 255
153 194 255
153 194 255
153 194 255
153 194 255
153 194 255
152 194 255
152 194 255
152 194 255
152 193 255
152 193 255
152 193 255
152 193 255
152 193 255
152 193 255
151 193 255
151 193 255
151 193 255
151 193 255
151 193 255
151 193 255
151 193 255
151 193 255
151 193 255
151 193 255
151 193 255
150 192 255
150 192 255
150 192 255
150 192 255
150 192 255
150 192 255
150 192 255
150 192 255
150 192 255
150 192 255
150 192 255
149 192 255
149 192 255
149 192 255
149 192 255
149 192 255
149 192 255
149 192 255
149 192 255
149 191 255
149 191 255
149 191 255
149 191 255
149 191 255
148 191 255
148 191 255
148 191 255
148 191 255
148 191 255
148 191 255
148 191 255
148 191 255
148 191 255
148 191 255
148 191 255
148 191 255
148 191 255
148 191 255
148 191 255
148 191 255
148 191 255
147 191 255
147 191 255
147 191 255
147 191 255
147 191 255
147 191 255
147 191 255
147 191 255
147 191 255
147 191 255
147 190 255
147 190 255
147 190 255
147 190 255
147 190 255
147 190 255
147 190 255
147 190 255
147 190 255
147 190 255
147 190 255
147 190 255
147 190 255
147 190 255
147 190 255
147 190 255
147 190 255
147 190 255
147 190 255
147 190 255
147 190 255
147 190 255
147 190 255
147 190 255
147 190 255
147 190 255
147 190 255
147 190 255
147 190 255
147 191 255
147 191 255
147 191 255
147 191 255
147 191 255
147 191 255
147 191 255
147 191 255
147 191 255
147 191 255
148 191 255
148 191 255
148 191 255
148 191 255
148 191 255
148 191 255
148 191 255
148 191 255
148 191 255
148 191 255
148 191 255
148 191 255
148 191 255
148 191 255
148 191 255
148 191 255
148 191 255
148 191 255
149 191 255
149 191 255
149 191 255
149 191 255
149 191 255
149 192 255
149 192 255
149 192 255
149 192 255
149 192 255
149 192 255
149 192 255
149 192 255
150 192 255
150 192 255
150 192 255
150 192 255
150 192 255
150 192 255
150 192 255
150 192 255
150 192 255
150 192 255
150 192 255
151 193 255
151 193 255
151 193 255
151 193 255
151 193 255
151 193 255
151 193 255
151 193 255
151 193 255
151 193 255
151 193 255
152 193 255
152 193 255
152 193 255
152 193 255
152 193 255
152 193 255
152 194 255
152 194 255
152 194 255
153 194 255
153 194 255
153 194 255
153 194 255
153 194 255
153 194 255
153 194 255
153 194 255
153 194 255
153 194 255
154 194 255
154 194 255
154 194 255
154 195 255
154 195 255
154 195 255
154 195 255
154 195 255
154 195 255
155 195 255
155 195 255
155 195 255
155 195 255
155 195 255
155 195 255
155 195 255
155 195 255
155 195 255
156 196 255
156 196 255
156 196 255
156 196 255
156 196 255
156 196 255
156 196 255
156 196 255
156 196 255
157 196 255
157 196 255
157 196 255
157 196 255
157 196 255
157 196 255
157 197 255
157 197 255
157 197 255
157 197 255
158 197 255
158 197 255
158 197 255
158 197 255
158 197 255
158 197 255
158 197 255
158 197 255
158 197 255
159 197 255
159 197 255
159 197 255
159 198 255
159 198 255
159 198 255
159 198 255
159 198 255
159 198 255
159 198 255
160 198 255
160 198 255
160 198 255
160 198 255
160 198 255
160 198 255
160 198 255
160 198 255
160 198 255
160 198 255
161 199 255
161 199 255
161 199 255
161 199 255
161 199 255
161 199 255
161 199 255
161 199 255
161 199 255
161 199 255
162 199 255
162 199 255
162 199 255
162 199 255
162 199 255
162 199 255
162 199 255
162 200 255
162 200 255
162 200 255
162 200 255
163 200 255
163 200 255
163 200 255
163 200 255
163 200 255
163 200 255
163 200 255
163 200 255
163 200 255
163 200 255
163 200 255
164 200 255
164 200 255
164 200 255
164 200 255
164 201 255
164 201 255
164 201 255
164 201 255
164 201 255
164 201 255
164 201 255
164 200 255
164 200 255
164 200 255
164 200 255
163 200 255
163 200 255
163 200 255
163 200 255
163 200 255
163 200 255
163 200 255
163 200 255
163 200 255
163 200 255
163 200 255
162 200 255
162 200 255
162 200 255
162 199 255
162 199 255
162 199 255
162 199 255
162 199 255
162 199 255
162 199 255
161 199 255
161 199 255
161 199 255
161 199 255
161 199 255
161 199 255
161 199 255
161 199 255
161 199 255
161 199 255
161 199 255
160 198 255
160 198 255
160 198 255
160 198 255
160 198 255
160 198 255
160 198 255
160 198 255
160 198 255
159 198 255
159 198 255
159 198 255
159 198 255
159 198 255
159 198 255
159 198 255
159 197 255
159 197 255
159 197 255
158 197 255
158 197 255
158 197 255
158 197 255
158 197 255
158 197 255
158 197 255
158 197 255
158 197 255
158 197 255
157 197 255
157 197 255
157 197 255
157 196 255
157 196 255
157 196 255
157 196 255
157 196 255
157 196 255
156 196 255
156 196 255
156 196 255
156 196 255
156 196 255
156 196 255
156 196 255
156 196 255
156 196 255
155 195 255
155 195 255
155 195 255
155 195 255
155 195 255
155 195 255
155 195 255
155 195 255
155 195 255
154 195 255
154 195 255
154 195 255
154 195 255
154 195 255
154 195 255
154 194 255
154 194 255
154 194 255
153 194 255
153 194 255
153 194 255
153 194 255
153 194 255
153 194 255
153 194 255
153 194 255
153 194 255
153 194 255
152 194 255
152 194 255
152 194 255
152 193 255
152 193 255
152 193 255
152 193 255
152 193 255
152 193 255
152 193 255
151 193 255
151 193 255
151 193 255
151 193 255
151 193 255
151 193 255
151 193 255
151 193 255
151 193 255
151 193 255
150 192 255
150 192 255
150 192 255
150 192 255
150 192 255
150 192 255
150 192 255
150 192 255
150 192 255
150 192 255
150 192 255
149 192 255
149 192 255
149 192 255
149 192 255
149 192 255
149 192 255
149 192 255
149 192 255
149 192 255
149 191 255
149 191 255
149 191 255
149 191 255
149 191 255
148 191 255
148 191 255
148 191 255
148 191 255
148 191 255
148 191 255
148 191 255
148 191 255
148 191 255
148 191 255
148 191 255
148 191 255
148 191 255
148 191 255
148 191 255
148 191 255
148 191 255
148 191 255
148 191 255
148 191 255
147 191 255
147 191 255
147 191 255
147 191 255
147 191 255
147 191 255
147 191 255
147 191 255
147 191 255
147 191 255
147 191 255
147 191 255
147 191 255
147 191 255
147 191 255
147 191 255
147 191 255
147 191 255
147 191 255
147 191 255
147 191 255
147 191 255
147 191 255
147 191 255
147 191 255
147 191 255
147 191 255
147 191 255
147 191 255
147 191 255
147 191 255
147 191 255
147 191 255
147 191 255
147 191 255
147 191 255
147 191 255
147 191 255
148 191 255
148 191 255
148 191 255
148 191 255
148 191 255
148 191 255
148 191 255
148 191 255
148 191 255
148 191 255
148 191 255
148 191 255
148 191 255
148 191 255
148 191 255
148 191 255
148 191 255
148 191 255
148 191 255
148 191 255
149 191 255
149 191 255
149 191 255
149 191 255
149 191 255
149 192 255
149 192 255
149 192 255
149 192 255
149 192 255
149 192 255
149 192 255
149 192 255
150 192 255
150 192 255
150 192 255
150 192 255
150 192 255
150 192 255
150 192 255
150 192 255
150 192 255
150 192 255
150 192 255
150 192 255
151 193 255
151 193 255
151 193 255
151 193 255
151 193 255
151 193 255
151 193 255
151 193 255
151 193 255
151 193 255
152 193 255
152 193 255
152 193 255
152 193 255
152 193 255
152 193 255
152 193 255
152 194 255
152 194 255
152 194 255
153 194 255
153 194 255
153 194 255
153 194 255
153 194 255
153 194 255
153 194 255
153 194 255
153 194 255
153 194 255
154 194 255
154 194 255
154 194 255
154 195 255
154 195 255
154 195 255
154 195 255
154 195 255
154 195 255
155 195 255
155 195 255
155 195 255
155 195 255
155 195 255
155 195 255
155 195 255
155 195 255
155 195 255
156 196 255
156 196 255
156 196 255
156 196 255
156 196 255
156 196 255
156 196 255
156 196 255
156 196 255
157 196 255
157 196 255
157 196 255
157 196 255
157 196 255
157 196 255
157 197 255
157 197 255
157 197 255
158 197 255
158 197 255
158 197 255
158 197 255
158 197 255
158 197 255
158 197 255
158 197 255
158 197 255
158 197 255
159 197 255
159 197 255
159 197 255
159 198 255
159 198 255
159 198 255
159 198 255
159 198 255
159 198 255
160 198 255
160 198 255
160 198 255
160 198 255
160 198 255
160 198 255
160 198 255
160 198 255
160 198 255
160 198 255
161 199 255
161 199 255
161 199 255
161 199 255
161 199 255
161 199 255
161 199 255
161 199 255
161 199 255
161 199 255
161 199 255
162 199 255
162 199 255
162 199 255
162 199 255
162 199 255
162 199 255
162 199 255
162 200 255
162 200 255
162 200 255
163 200 255
163 200 255
163 200 255
163 200 255
163 200 255
163 200 255
163 200 255
163 200 255
163 200 255
163 200 255
163 200 255
164 200 255
164 200 255
164 200 255
164 200 255
164 201 255
164 201 255
164 201 255
164 201 255
164 201 255
164 201 255
164 201 255
164 201 255
164 201 255
164 201 255
164 201 255
164 201 255
164 200 255
164 200 255
164 200 255
164 200 255
163 200 255
163 200 255
163 200 255
163 200 255
163 200 255
163 200 255
163 200 255
163 200 255
163 200 255
163 200 255
163 200 255
162 200 255
162 200 255
162 200 255
162 200 255
162 199 255
162 199 255
162 199 255
162 199 255
162 199 255
162 199 255
162 199 255
161 199 255
161 199 255
161 199 255
161 199 255
161 199 255
161 199 255
161 199 255
161 199 255
161 199 255
161 199 255
160 198 255
160 198 255
160 198 255
160 198 255
160 198 255
160 198 255
160 198 255
160 198 255
160 198 255
160 198 255
159 198 255
159 198 255
159 198 255
159 198 255
159 198 255
159 198 255
159 197 255
159 197 255
159 197 255
158 197 255
158 197 255
158 197 255
158 197 255
158 197 255
158 197 255
158 197 255
158 197 255
158 197 255
158 197 255
157 197 255
157 197 255
157 197 255
157 196 255
157 196 255
157 196 255
157 196 255
157 196 255
157 196 255
156 196 255
156 196 255
156 196 255
156 196 255
156 196 255
156 196 255
156 196 255
156 196 255
156 196 255
155 195 255
155 195 255
155 195 255
155 195 255
155 195 255
155 195 255
155 195 255
155 195 255
155 195 255
154 195 255
154 195 255
154 195 255
154 195 255
154 195 255
154 195 255
154 194 255
154 194 255
154 194 255
153 194 255
153 194 255
153 194 255
153 194 255
153 194 255
153 194 255
153 194 255
153 194 255
153 194 255
153 194 255
152 194 255
152 194 255
152 194 255
152 193 255
152 193 255
152 193 255
152 193 255
152 193 255
152 193 255
152 193 255
151 193 255
151 193 255
151 193 255
151 193 255
151 193 255
151 193 255
151 193 255
151 193 255
151 193 255
151 193 255
150 192 255
150 192 255
150 192 255
150 192 255
150 192 255
150 192 255
150 192 255
150 192 255
150 192 255
150 192 255
150 192 255
150 192 255
149 192 255
149 192 255
149 192 255
149 192 255
149 192 255
149 192 255
149 192 255
149 192 255
149 192 255
149 191 255
149 191 255
149 191 255
149 191 255
149 191 255
149 191 255
148 191 255
148 191 255
148 191 255
148 191 255
148 191 255
148 191 255
148 191 255
148 191 255
148 191 255
148 191 255
148 191 255
148 191 255
148 191 255
148 191 255
148 191 255
148 191 255
148 191 255
148 191 255
148 191 255
148 191 255
148 191 255
148 191 255
148 191 255
148 191 255
147 191 255
147 191 255
147 191 255
147 191 255
147 191 255
147 191 255
147 191 255
147 191 255
147 191 255
147 191 255
147 191 255
147 191 255
147 191 255
147 191 255
147 191 255
147 191 255
147 191 255
147 191 255
147 191 255
147 191 255
147 191 255
147 191 255
148 191 255
148 191 255
148 191 255
148 191 255
148 191 255
148 191 255
148 191 255
148 191 255
148 191 255
148 191 255
148 191 255
148 191 255
148 191 255
148 191 255
148 191 255
148 191 255
148 191 255
148 191 255
148 191 255
148 191 255
148 191 255
148 191 255
148 191 255
148 191 255
149 191 255
149 191 255
149 191 255
149 191 255
149 191 255
149 191 255
149 192 255
149 192 255
149 192 255
149 192 255
149 192 255
149 192 255
149 192 255
149 192 255
149 192 255
150 192 255
150 192 255
150 192 255
150 192 255
150 192 255
150 192 255
150 192 255
150 192 255
150 192 255
150 192 255
150 192 255
150 192 255
151 193 255
151 193 255
151 193 255
151 193 255
151 193 255
151 193 255
151 193 255
151 193 255
151 193 255
151 193 255
152 193 255
152 193 255
152 193 255
152 193 255
152 193 255
152 193 255
152 193 255
152 194 255
152 194 255
152 194 255
153 194 255
153 194 255
153 194 255
153 194 255
153 194 255
153 194 255
153 194 255
153 194 255
153 194 255
154 194 255
154 194 255
154 194 255
154 194 255
154 195 255
154 195 255
154 195 255
154 195 255
154 195 255
154 195 255
155 195 255
155 195 255
155 195 255
155 195 255
155 195 255
155 195 255
155 195 255
155 195 255
155 195 255
156 196 255
156 196 255
156 196 255
156 196 255
156 196 255
156 196 255
156 196 255
156 196 255
156 196 255
157 196 255
157 196 255
157 196 255
157 196 255
157 196 255
157 196 255
157 197 255
157 197 255
157 197 255
158 197 255
158 197 255
158 197 255
158 197 255
158 197 255
158 197 255
158 197 255
158 197 255
158 197 255
158 197 255
159 197 255
159 197 255
159 197 255
159 198 255
159 198 255
159 198 255
159 198 255
159 198 255
159 198 255
160 198 255
160 198 255
160 198 255
160 198 255
160 198 255
160 198 255
160 198 255
160 198 255
160 198 255
160 198 255
161 199 255
161 199 255
161 199 255
161 199 255
161 199 255
161 199 255
161 199 255
161 199 255
161 199 255
161 199 255
162 199 255
162 199 255
162 199 255
162 199 255
162 199 255
162 199 255
162 199 255
162 200 255
162 200 255
162 200 255
162 200 255
163 200 255
163 200 255
163 200 255
163 200 255
163 200 255
163 200 255
163 200 255
163 200 255
163 200 255
163 200 255
163 200 255
164 200 255
164 200 255
164 200 255
164 200 255
164 201 255
164 201 255
164 201 255
164 201 255
164 201 255
164 201 255
164 201 255
165 201 255
165 201 255
164 201 255
164 201 255
164 201 255
164 201 255
164 201 255
164 201 255
164 201 255
164 201 255
164 200 255
164 200 255
164 200 255
163 200 255
163 200 255
163 200 255
163 200 255
163 200 255
163 200 255
163 200 255
163 200 255
163 200 255
163 200 255
163 200 255
162 200 255
162 200 255
162 200 255
162 200 255
162 199 255
162 199 255
162 199 255
162 199 255
162 199 255
162 199 255
162 199 255
161 199 255
161 199 255
161 199 255
161 199 255
161 199 255
161 199 255
161 199 255
161 199 255
161 199 255
161 199 255
160 198 255
160 198 255
160 198 255
160 198 255
160 198 255
160 198 255
160 198 255
160 198 255
160 198 255
160 198 255
159 198 255
159 198 255
159 198 255
159 198 255
159 198 255
159 198 255
159 197 255
159 197 255
159 197 255
158 197 255
158 197 255
158 197 255
158 197 255
158 197 255
158 197 255
158 197 255
158 197 255
158 197 255
158 197 255
157 197 255
157 197 255
157 197 255
157 196 255
157 196 255
157 196 255
157 196 255
157 196 255
157 196 255
156 196 255
156 196 255
156 196 255
156 196 255
156 196 255
156 196 255
156 196 255
156 196 255
156 196 255
155 195 255
155 195 255
155 195 255
155 195 255
155 195 255
155 195 255
155 195 255
155 195 255
155 195 255
154 195 255
154 195 255
154 195 255
154 195 255
154 195 255
154 195 255
154 195 255
154 194 255
154 194 255
154 194 255
153 194 255
153 194 255
153 194 255
153 194 255
153 194 255
153 194 255
153 194 255
153 194 255
153 194 255
152 194 255
152 194 255
152 194 255
152 193 255
152 193 255
152 193 255
152 193 255
152 193 255
152 193 255
152 193 255
151 193 255
151 193 255
151 193 255
151 193 255
151 193 255
151 193 255
151 193 255
151 193 255
151 193 255
151 193 255
151 193 255
150 192 255
150 192 255
150 192 255
150 192 255
150 192 255
150 192 255
150 192 255
150 192 255
150 192 255
150 192 255
150 192 255
150 192 255
149 192 255
149 192 255
149 192 255
149 192 255
149 192 255
149 192 255
149 192 255
149 192 255
149 192 255
149 192 255
149 191 255
149 191 255
149 191 255
149 191 255
149 191 255
148 191 255
148 191 255
148 191 255
148 191 255
148 191 255
148 191 255
148 191 255
148 191 255
148 191 255
148 191 255
148 191 255
148 191 255
148 191 255
148 191 255
148 191 255
148 191 255
148 191 255
148 191 255
148 191 255
148 191 255
148 191 255
148 191 255
148 191 255
148 191 255
148 191 255
148 191 255
148 191 255
148 191 255
148 191 255
148 191 255
148 191 255
148 191 255
148 191 255
148 191 255
148 191 255
148 191 255
148 191 255
148 191 255
148 191 255
148 191 255
148 191 255
148 191 255
148 191 255
148 191 255
148 191 255
148 191 255
148 191 255
148 191 255
148 191 255
148 191 255
148 191 255
148 191 255
148 191 255
148 191 255
148 191 255
148 191 255
148 191 255
148 191 255
148 191 255
148 191 255
148 191 255
148 191 255
148 191 255
148 191 255
149 191 255
149 191 255
149 191 255
149 191 255
149 191 255
149 192 255
149 192 255
149 192 255
149 192 255
149 192 255
149 192 255
149 192 255
149 192 255
149 192 255
149 192 255
150 192 255
150 192 255
150 192 255
150 192 255
150 192 255
150 192 255
150 192 255
150 192 255
150 192 255
150 192 255
150 192 255
150 192 255
151 193 255
151 193 255
151 193 255
151 193 255
151 193 255
151 193 255
151 193 255
151 193 255
151 193 255
151 193 255
151 193 255
152 193 255
152 193 255
152 193 255
152 193 255
152 193 255
152 193 255
152 193 255
152 194 255
152 194 255
152 194 255
153 194 255
153 194 255
153 194 255
153 194 255
153 194 255
153 194 255
153 194 255
153 194 255
153 194 255
154 194 255
154 194 255
154 194 255
154 195 255
154 195 255
154 195 255
154 195 255
154 195 255
154 195 255
154 195 255
155 195 255
155 195 255
155 195 255
155 195 255
155 195 255
155 195 255
155 195 255
155 195 255
155 195 255
156 196 255
156 196 255
156 196 255
156 196 255
156 196 255
156 196 255
156 196 255
156 196 255
156 196 255
157 196 255
157 196 255
157 196 255
157 196 255
157 196 255
157 196 255
157 197 255
157 197 255
157 197 255
158 197 255
158 197 255
158 197 255
158 197 255
158 197 255
158 197 255
158 197 255
158 197 255
158 197 255
158 197 255
159 197 255
159 197 255
159 197 255
159 198 255
159 198 255
159 198 255
159 198 255
159 198 255
159 198 255
160 198 255
160 198 255
160 198 255
160 198 255
160 198 255
160 198 255
160 198 255
160 198 255
160 198 255
160 198 255
161 199 255
161 199 255
161 199 255
161 199 255
161 199 255
161 199 255
161 199 255
161 199 255
161 199 255
161 199 255
162 199 255
162 199 255
162 199 255
162 199 255
162 199 255
162 199 255
162 199 255
162 200 255
162 200 255
162 200 255
162 200 255
163 200 255
163 200 255
163 200 255
163 200 255
163 200 255
163 200 255
163 200 255
163 200 255
163 200 255
163 200 255
163 200 255
164 200 255
164 200 255
164 200 255
164 201 255
164 201 255
164 201 255
164 201 255
164 201 255
164 201 255
164 201 255
164 201 255
165 201 255
165 201 255
165 201 255
165 201 255
165 201 255
165 201 255
164 201 255
164 201 255
164 201 255
164 201 255
164 201 255
164 201 255
164 201 255
164 201 255
164 200 255
164 200 255
164 200 255
164 200 255
163 200 255
163 200 255
163 200 255
163 200 255
163 200 255
163 200 255
163 200 255
163 200 255
163 200 255
163 200 255
163 200 255
162 200 255
162 200 255
162 200 255
162 199 255
162 199 255
162 199 255
162 199 255
162 199 255
162 199 255
162 199 255
161 199 255
161 199 255
161 199 255
161 199 255
161 199 255
161 199 255
161 199 255
161 199 255
161 199 255
161 199 255
160 198 255
160 198 255
160 198 255
160 198 255
160 198 255
160 198 255
160 198 255
160 198 255
160 198 255
160 198 255
159 198 255
159 198 255
159 198 255
159 198 255
159 198 255
159 198 255
159 197 255
159 197 255
159 197 255
159 197 255
158 197 255
158 197 255
158 197 255
158 197 255
158 197 255
158 197 255
158 197 255
158 197 255
158 197 255
157 197 255
157 197 255
157 197 255
157 196 255
157 196 255
157 196 255
157 196 255
157 196 255
157 196 255
156 196 255
156 196 255
156 196 255
156 196 255
156 196 255
156 196 255
156 196 255
156 196 255
156 196 255
155 195 255
155 195 255
155 195 255
155 195 255
155 195 255
155 195 255
155 195 255
155 195 255
155 195 255
155 195 255
154 195 255
154 195 255
154 195 255
154 195 255
154 195 255
154 195 255
154 194 255
154 194 255
154 194 255
153 194 255
153 194 255
153 194 255
153 194 255
153 194 255
153 194 255
153 194 255
153 194 255
153 194 255
152 194 255
152 194 255
152 194 255
152 194 255
152 193 255
152 193 255
152 193 255
152 193 255
152 193 255
152 193 255
152 193 255
151 193 255
151 193 255
151 193 255
151 193 255
151 193 255
151 193 255
151 193 255
151 193 255
151 193 255
151 193 255
150 192 255
150 192 255
150 192 255
150 192 255
150 192 255
150 192 255
150 192 255
150 192 255
150 192 255
150 192 255
150 192 255
150 192 255
150 192 255
149 192 255
149 192 255
149 192 255
149 192 255
149 192 255
149 192 255
149 192 255
149 192 255
149 192 255
149 192 255
149 192 255
149 191 255
149 191 255
149 191 255
149 191 255
149 191 255
149 191 255
148 191 255
148 191 255
148 191 255
148 191 255
148 191 255
148 191 255
148 191 255
148 191 255
148 191 255
148 191 255
148 191 255
148 191 255
148 191 255
148 191 255
148 191 255
148 191 255
148 191 255
148 191 255
148 191 255
148 191 255
148 191 255
148 191 255
148 191 255
148 191 255
148 191 255
148 191 255
148 191 255
148 191 255
148 191 255
148 191 255
148 191 255
148 191 255
148 191 255
148 191 255
148 191 255
148 191 255
148 191 255
148 191 255
148 191 255
148 191 255
148 191 255
148 191 255
148 191 255
148 191 255
148 191 255
148 191 255
148 191 255
148 191 255
148 191 255
148 191 255
148 191 255
148 191 255
148 191 255
148 191 255
149 191 255
149 191 255
149 191 255
149 191 255
149 191 255
149 191 255
149 191 255
149 192 255
149 192 255
149 192 255
149 192 255
149 192 255
149 192 255
149 192 255
149 192 255
149 192 255
149 192 255
150 192 255
150 192 255
150 192 255
150 192 255
150 192 255
150 192 255
150 192 255
150 192 255
150 192 255
150 192 255
150 192 255
150 192 255
151 193 255
151 193 255
151 193 255
151 193 255
151 193 255
151 193 255
151 193 255
151 193 255
151 193 255
151 193 255
151 193 255
151 193 255
152 193 255
152 193 255
152 193 255
152 193 255
152 193 255
152 193 255
152 194 255
152 194 255
152 194 255
152 194 255
153 194 255
153 194 255
153 194 255
153 194 255
153 194 255
153 194 255
153 194 255
153 194 255
153 194 255
154 194 255
154 194 255
154 194 255
154 195 255
154 195 255
154 195 255
154 195 255
154 195 255
154 195 255
155 195 255
155 195 255
155 195 255
155 195 255
155 195 255
155 195 255
155 195 255
155 195 255
155 195 255
155 195 255
156 196 255
156 196 255
156 196 255
156 196 255
156 196 255
156 196 255
156 196 255
156 196 255
156 196 255
157 196 255
157 196 255
157 196 255
157 196 255
157 196 255
157 196 255
157 197 255
157 197 255
157 197 255
158 197 255
158 197 255
158 197 255
158 197 255
158 197 255
158 197 255
158 197 255
158 197 255
158 197 255
159 197 255
159 197 255
159 197 255
159 198 255
159 198 255
159 198 255
159 198 255
159 198 255
159 198 255
159 198 255
160 198 255
160 198 255
160 198 255
160 198 255
160 198 255
160 198 255
160 198 255
160 198 255
160 198 255
160 198 255
161 199 255
161 199 255
161 199 255
161 199 255
161 199 255
161 199 255
161 199 255
161 199 255
161 199 255
161 199 255
162 199 255
162 199 255
162 199 255
162 199 255
162 199 255
162 199 255
162 199 255
162 200 255
162 200 255
162 200 255
163 200 255
163 200 255
163 200 255
163 200 255
163 200 255
163 200 255
163 200 255
163 200 255
163 200 255
163 200 255
163 200 255
164 200 255
164 200 255
164 200 255
164 200 255
164 201 255
164 201 255
164 201 255
164 201 255
164 201 255
164 201 255
164 201 255
164 201 255
165 201 255
165 201 255
165 201 255
165 201 255
165 201 255
165 201 255
165 201 255
165 201 255
165 201 255
165 201 255
165 201 255
164 201 255
164 201 255
164 201 255
164 201 255
164 201 255
164 201 255
164 201 255
164 201 255
164 200 255
164 200 255
164 200 255
163 200 255
163 200 255
163 200 255
163 200 255
163 200 255
163 200 255
163 200 255
163 200 255
163 200 255
163 200 255
163 200 255
162 200 255
162 200 255
162 200 255
162 200 255
162 199 255
162 199 255
162 199 255
162 199 255
162 199 255
162 199 255
162 199 255
161 199 255
161 199 255
161 199 255
161 199 255
161 199 255
161 199 255
161 199 255
161 199 255
161 199 255
161 199 255
160 198 255
160 198 255
160 198 255
160 198 255
160 198 255
160 198 255
160 198 255
160 198 255
160 198 255
159 198 255
159 198 255
159 198 255
159 198 255
159 198 255
159 198 255
159 198 255
159 197 255
159 197 255
159 197 255
158 197 255
158 197 255
158 197 255
158 197 255
158 197 255
158 197 255
158 197 255
158 197 255
158 197 255
157 197 255
157 197 255
157 197 255
157 196 255
157 196 255
157 196 255
157 196 255
157 196 255
157 196 255
156 196 255
156 196 255
156 196 255
156 196 255
156 196 255
156 196 255
156 196 255
156 196 255
156 196 255
156 195 255
155 195 255
155 195 255
155 195 255
155 195 255
155 195 255
155 195 255
155 195 255
155 195 255
155 195 255
154 195 255
154 195 255
154 195 255
154 195 255
154 195 255
154 195 255
154 194 255
154 194 255
154 194 255
153 194 255
153 194 255
153 194 255
153 194 255
153 194 255
153 194 255
153 194 255
153 194 255
153 194 255
153 194 255
152 194 255
152 194 255
152 194 255
152 193 255
152 193 255
152 193 255
152 193 255
152 193 255
152 193 255
152 193 255
151 193 255
151 193 255
151 193 255
151 193 255
151 193 255
151 193 255
151 193 255
151 193 255
151 193 255
151 193 255
151 193 255
150 192 255
150 192 255
150 192 255
150 192 255
150 192 255
150 192 255
150 192 255
150 192 255
150 192 255
150 192 255
150 192 255
150 192 255
150 192 255
150 192 255
149 192 255
149 192 255
149 192 255
149 192 255
149 192 255
149 192 255
149 192 255
149 192 255
149 192 255
149 192 255
149 191 255
149 191 255
149 191 255
149 191 255
149 191 255
149 191 255
149 191 255
149 191 255
148 191 255
148 191 255
148 191 255
148 191 255
148 191 255
148 191 255
148 191 255
148 191 255
148 191 255
148 191 255
148 191 255
148 191 255
148 191 255
148 191 255
148 191 255
148 191 255
148 191 255
148 191 255
148 191 255
148 191 255
148 191 255
148 191 255
148 191 255
148 191 255
148 191 255
148 191 255
148 191 255
148 191 255
148 191 255
148 191 255
148 191 255
148 191 255
148 191 255
148 191 255
148 191 255
148 191 255
148 191 255
148 191 255
148 191 255
148 191 255
148 191 255
148 191 255
148 191 255
148 191 255
149 191 255
149 191 255
149 191 255
149 191 255
149 191 255
149 191 255
149 191 255
149 192 255
149 192 255
149 192 255
149 192 255
149 192 255
149 192 255
149 192 255
149 192 255
149 192 255
149 192 255
149 192 255
149 192 255
150 192 255
150 192 255
150 192 255
150 192 255
150 192 255
150 192 255
150 192 255
150 192 255
150 192 255
150 192 255
150 192 255
150 192 255
150 192 255
151 193 255
151 193 255
151 193 255
151 193 255
151 193 255
151 193 255
151 193 255
151 193 255
151 193 255
151 193 255
151 193 255
152 193 255
152 193 255
152 193 255
152 193 255
152 193 255
152 193 255
152 193 255
152 194 255
152 194 255
152 194 255
153 194 255
153 194 255
153 194 255
153 194 255
153 194 255
153 194 255
153 194 255
153 194 255
153 194 255
153 194 255
154 194 255
154 194 255
154 194 255
154 195 255
154 195 255
154 195 255
154 195 255
154 195 255
154 195 255
155 195 255
155 195 255
155 195 255
155 195 255
155 195 255
155 195 255
155 195 255
155 195 255
155 195 255
155 195 255
156 196 255
156 196 255
156 196 255
156 196 255
156 196 255
156 196 255
156 196 255
156 196 255
156 196 255
157 196 255
157 196 255
157 196 255
157 196 255
157 196 255
157 196 255
157 197 255
157 197 255
157 197 255
158 197 255
158 197 255
158 197 255
158 197 255
158 197 255
158 197 255
158 197 255
158 197 255
158 197 255
159 197 255
159 197 255
159 197 255
159 198 255
159 198 255
159 198 255
159 198 255
159 198 255
159 198 255
159 198 255
160 198 255
160 198 255
160 198 255
160 198 255
160 198 255
160 198 255
160 198 255
160 198 255
160 198 255
161 199 255
161 199 255
161 199 255
161 199 255
161 199 255
161 199 255
161 199 255
161 199 255
161 199 255
161 199 255
161 199 255
162 199 255
162 199 255
162 199 255
162 199 255
162 199 255
162 199 255
162 200 255
162 200 255
162 200 255
162 200 255
163 200 255
163 200 255
163 200 255
163 200 255
163 200 255
163 200 255
163 200 255
163 200 255
163 200 255
163 200 255
163 200 255
164 200 255
164 200 255
164 200 255
164 200 255
164 201 255
164 201 255
164 201 255
164 201 255
164 201 255
164 201 255
164 201 255
165 201 255
165 201 255
165 201 255
165 201 255
165 201 255
165 201 255
165 201 255
165 201 255
165 201 255
165 201 255
165 201 255
165 201 255
165 201 255
165 201 255
165 201 255
165 201 255
164 201 255
164 201 255
164 201 255
164 201 255
164 201 255
164 201 255
164 201 255
164 201 255
164 200 255
164 200 255
164 200 255
164 200 255
163 200 255
163 200 255
163 200 255
163 200 255
163 200 255
163 200 255
163 200 255
163 200 255
163 200 255
163 200 255
162 200 255
162 200 255
162 200 255
162 200 255
162 199 255
162 199 255
162 199 255
162 199 255
162 199 255
162 199 255
162 199 255
161 199 255
161 199 255
161 199 255
161 199 255
161 199 255
161 199 255
161 199 255
161 199 255
161 199 255
161 199 255
160 198 255
160 198 255
160 198 255
160 198 255
160 198 255
160 198 255
160 198 255
160 198 255
160 198 255
160 198 255
159 198 255
159 198 255
159 198 255
159 198 255
159 198 255
159 198 255
159 197 255
159 197 255
159 197 255
158 197 255
158 197 255
158 197 255
158 197 255
158 197 255
158 197 255
158 197 255
158 197 255
158 197 255
157 197 255
157 197 255
157 197 255
157 196 255
157 196 255
157 196 255
157 196 255
157 196 255
157 196 255
157 196 255
156 196 255
156 196 255
156 196 255
156 196 255
156 196 255
156 196 255
156 196 255
156 196 255
156 196 255
155 195 255
155 195 255
155 195 255
155 195 255
155 195 255
155 195 255
155 195 255
155 195 255
155 195 255
154 195 255
154 195 255
154 195 255
154 195 255
154 195 255
154 195 255
154 194 255
154 194 255
154 194 255
154 194 255
153 194 255
153 194 255
153 194 255
153 194 255
153 194 255
153 194 255
153 194 255
153 194 255
153 194 255
152 194 255
152 194 255
152 194 255
152 194 255
152 193 255
152 193 255
152 193 255
152 193 255
152 193 255
152 193 255
152 193 255
151 193 255
151 193 255
151 193 255
151 193 255
151 193 255
151 193 255
151 193 255
151 193 255
151 193 255
151 193 255
151 193 255
150 192 255
150 192 255
150 192 255
150 192 255
150 192 255
150 192 255
150 192 255
150 192 255
150 192 255
150 192 255
150 192 255
150 192 255
150 192 255
150 192 255
149 192 255
149 192 255
149 192 255
149 192 255
149 192 255
149 192 255
149 192 255
149 192 255
149 192 255
149 192 255
149 192 255
149 192 255
149 192 255
149 191 255
149 191 255
149 191 255
149 191 255
149 191 255
149 191 255
149 191 255
149 191 255
149 191 255
148 191 255
148 191 255
148 191 255
148 191 255
148 191 255
148 191 255
148 191 255
148 191 255
148 191 255
148 191 255
148 191 255
148 191 255
148 191 255
148 191 255
148 191 255
148 191 255
148 191 255
148 191 255
148 191 255
148 191 255
148 191 255
148 191 255
148 191 255
148 191 255
148 191 255
148 191 255
148 191 255
148 191 255
148 191 255
148 191 255
149 191 255
149 191 255
149 191 255
149 191 255
149 191 255
149 191 255
149 191 255
149 191 255
149 191 255
149 191 255
149 192 255
149 192 255
149 192 255
149 192 255
149 192 255
149 192 255
149 192 255
149 192 255
149 192 255
149 192 255
149 192 255
149 192 255
150 192 255
150 192 255
150 192 255
150 192 255
150 192 255
150 192 255
150 192 255
150 192 255
150 192 255
150 192 255
150 192 255
150 192 255
150 192 255
150 192 255
151 193 255
151 193 255
151 193 255
151 193 255
151 193 255
151 193 255
151 193 255
151 193 255
151 193 255
151 193 255
151 193 255
152 193 255
152 193 255
152 193 255
152 193 255
152 193 255
152 193 255
152 193 255
152 194 255
152 194 255
152 194 255
152 194 255
153 194 255
153 194 255
153 194 255
153 194 255
153 194 255
153 194 255
153 194 255
153 194 255
153 194 255
153 194 255
154 194 255
154 194 255
154 194 255
154 195 255
154 195 255
154 195 255
154 195 255
154 195 255
154 195 255
155 195 255
155 195 255
155 195 255
155 195 255
155 195 255
155 195 255
155 195 255
155 195 255
155 195 255
156 196 255
156 196 255
156 196 255
156 196 255
156 196 255
156 196 255
156 196 255
156 196 255
156 196 255
156 196 255
157 196 255
157 196 255
157 196 255
157 196 255
157 196 255
157 196 255
157 197 255
157 197 255
157 197 255
158 197 255
158 197 255
158 197 255
158 197 255
158 197 255
158 197 255
158 197 255
158 197 255
158 197 255
159 197 255
159 197 255
159 197 255
159 198 255
159 198 255
159 198 255
159 198 255
159 198 255
159 198 255
160 198 255
160 198 255
160 198 255
160 198 255
160 198 255
160 198 255
160 198 255
160 198 255
160 198 255
160 198 255
161 199 255
161 199 255
161 199 255
161 199 255
161 199 255
161 199 255
161 199 255
161 199 255
161 199 255
161 199 255
162 199 255
162 199 255
162 199 255
162 199 255
162 199 255
162 199 255
162 199 255
162 200 255
162 200 255
162 200 255
163 200 255
163 200 255
163 200 255
163 200 255
163 200 255
163 200 255
163 200 255
163 200 255
163 200 255
163 200 255
163 200 255
164 200 255
164 200 255
164 200 255
164 200 255
164 201 255
164 201 255
164 201 255
164 201 255
164 201 255
164 201 255
164 201 255
164 201 255
165 201 255
165 201 255
165 201 255
165 201 255
165 201 255
165 201 255
165 201 255
165 201 255
165 201 255
165 201 255
165 201 255
165 201 255
165 201 255
165 201 255
165 201 255
165 201 255
165 201 255
165 201 255
165 201 255
165 201 255
165 201 255
164 201 255
164 201 255
164 201 255
164 201 255
164 201 255
164 201 255
164 201 255
164 200 255
164 200 255
164 200 255
164 200 255
163 200 255
163 200 255
163 200 255
163 200 255
163 200 255
163 200 255
163 200 255
163 200 255
163 200 255
163 200 255
163 200 255
162 200 255
162 200 255
162 200 255
162 199 255
162 199 255
162 199 255
162 199 255
162 199 255
162 199 255
162 199 255
161 199 255
161 199 255
161 199 255
161 199 255
161 199 255
161 199 255
161 199 255
161 199 255
161 199 255
161 199 255
160 198 255
160 198 255
160 198 255
160 198 255
160 198 255
160 198 255
160 198 255
160 198 255
160 198 255
160 198 255
159 198 255
159 198 255
159 198 255
159 198 255
159 198 255
159 198 255
159 197 255
159 197 255
159 197 255
158 197 255
158 197 255
158 197 255
158 197 255
158 197 255
158 197 255
158 197 255
158 197 255
158 197 255
157 197 255
157 197 255
157 197 255
157 196 255
157 196 255
157 196 255
157 196 255
157 196 255
157 196 255
157 196 255
156 196 255
156 196 255
156 196 255
156 196 255
156 196 255
156 196 255
156 196 255
156 196 255
156 196 255
155 195 255
155 195 255
155 195 255
155 195 255
155 195 255
155 195 255
155 195 255
155 195 255
155 195 255
154 195 255
154 195 255
154 195 255
154 195 255
154 195 255
154 195 255
154 195 255
154 194 255
154 194 255
154 194 255
153 194 255
153 194 255
153 194 255
153 194 255
153 194 255
153 194 255
153 194 255
153 194 255
153 194 255
153 194 255
152 194 255
152 194 255
152 194 255
152 193 255
152 193 255
152 193 255
152 193 255
152 193 255
152 193 255
152 193 255
151 193 255
151 193 255
151 193 255
151 193 255
151 193 255
151 193 255
151 193 255
151 193 255
151 193 255
151 193 255
151 193 255
151 193 255
150 192 255
150 192 255
150 192 255
150 192 255
150 192 255
150 192 255
150 192 255
150 192 255
150 192 255
150 192 255
150 192 255
150 192 255
150 192 255
150 192 255
150 192 255
149 192 255
149 192 255
149 192 255
149 192 255
149 192 255
149 192 255
149 192 255
149 192 255
149 192 255
149 192 255
149 192 255
149 192 255
149 192 255
149 192 255
149 191 255
149 191 255
149 191 255
149 191 255
149 191 255
149 191 255
149 191 255
149 191 255
149 191 255
149 191 255
149 191 255
149 191 255
149 191 255
149 191 255
149 191 255
149 191 255
149 191 255
149 191 255
149 191 255
149 191 255
148 191 255
149 191 255
149 191 255
149 191 255
149 191 255
149 191 255
149 191 255
149 191 255
149 191 255
149 191 255
149 191 255
149 191 255
149 191 255
149 191 255
149 191 255
149 191 255
149 191 255
149 191 255
149 192 255
149 192 255
149 192 255
149 192 255
149 192 255
149 192 255
149 192 255
149 192 255
149 192 255
149 192 255
149 192 255
149 192 255
149 192 255
149 192 255
150 192 255
150 192 255
150 192 255
150 192 255
150 192 255
150 192 255
150 192 255
150 192 255
150 192 255
150 192 255
150 192 255
150 192 255
150 192 255
150 192 255
150 192 255
151 193 255
151 193 255
151 193 255
151 193 255
151 193 255
151 193 255
151 193 255
151 193 255
151 193 255
151 193 255
151 193 255
151 193 255
152 193 255
152 193 255
152 193 255
152 193 255
152 193 255
152 193 255
152 193 255
152 194 255
152 194 255
152 194 255
153 194 255
153 194 255
153 194 255
153 194 255
153 194 255
153 194 255
153 194 255
153 194 255
153 194 255
153 194 255
154 194 255
154 194 255
154 194 255
154 195 255
154 195 255
154 195 255
154 195 255
154 195 255
154 195 255
154 195 255
155 195 255
155 195 255
155 195 255
155 195 255
155 195 255
155 195 255
155 195 255
155 195 255
155 195 255
156 196 255
156 196 255
156 196 255
156 196 255
156 196 255
156 196 255
156 196 255
156 196 255
156 196 255
157 196 255
157 196 255
157 196 255
157 196 255
157 196 255
157 196 255
157 197 255
157 197 255
157 197 255
157 197 255
158 197 255
158 197 255
158 197 255
158 197 255
158 197 255
158 197 255
158 197 255
158 197 255
158 197 255
159 197 255
159 197 255
159 197 255
159 198 255
159 198 255
159 198 255
159 198 255
159 198 255
159 198 255
160 198 255
160 198 255
160 198 255
160 198 255
160 198 255
160 198 255
160 198 255
160 198 255
160 198 255
160 198 255
161 199 255
161 199 255
161 199 255
161 199 255
161 199 255
161 199 255
161 199 255
161 199 255
161 199 255
161 199 255
162 199 255
162 199 255
162 199 255
162 199 255
162 199 255
162 199 255
162 199 255
162 200 255
162 200 255
162 200 255
163 200 255
163 200 255
163 200 255
163 200 255
163 200 255
163 200 255
163 200 255
163 200 255
163 200 255
163 200 255
163 200 255
164 200 255
164 200 255
164 200 255
164 201 255
164 201 255
164 201 255
164 201 255
164 201 255
164 201 255
164 201 255
164 201 255
165 201 255
165 201 255
165 201 255
165 201 255
165 201 255
165 201 255
165 201 255
165 201 255
165 201 255
165 201 255
165 201 255
165 201 255
166 202 255
166 202 255
166 202 255
165 201 255
165 201 255
165 201 255
165 201 255
165 201 255
165 201 255
165 201 255
165 201 255
165 201 255
165 201 255
165 201 255
164 201 255
164 201 255
164 201 255
164 201 255
164 201 255
164 201 255
164 201 255
164 201 255
164 200 255
164 200 255
164 200 255
164 200 255
163 200 255
163 200 255
163 200 255
163 200 255
163 200 255
163 200 255
163 200 255
163 200 255
163 200 255
163 200 255
162 200 255
162 200 255
162 200 255
162 200 255
162 199 255
162 199 255
162 199 255
162 199 255
162 199 255
162 199 255
161 199 255
161 199 255
161 199 255
161 199 255
161 199 255
161 199 255
161 199 255
161 199 255
161 199 255
161 199 255
160 198 255
160 198 255
160 198 255
160 198 255
160 198 255
160 198 255
160 198 255
160 198 255
160 198 255
160 198 255
159 198 255
159 198 255
159 198 255
159 198 255
159 198 255
159 198 255
159 197 255
159 197 255
159 197 255
158 197 255
158 197 255
158 197 255
158 197 255
158 197 255
158 197 255
158 197 255
158 197 255
158 197 255
158 197 255
157 197 255
157 197 255
157 197 255
157 196 255
157 196 255
157 196 255
157 196 255
157 196 255
157 196 255
156 196 255
156 196 255
156 196 255
156 196 255
156 196 255
156 196 255
156 196 255
156 196 255
156 196 255
155 195 255
155 195 255
155 195 255
155 195 255
155 195 255
155 195 255
155 195 255
155 195 255
155 195 255
154 195 255
154 195 255
154 195 255
154 195 255
154 195 255
154 195 255
154 195 255
154 194 255
154 194 255
154 194 255
153 194 255
153 194 255
153 194 255
153 194 255
153 194 255
153 194 255
153 194 255
153 194 255
153 194 255
153 194 255
152 194 255
152 194 255
152 194 255
152 194 255
152 193 255
152 193 255
152 193 255
152 193 255
152 193 255
152 193 255
152 193 255
151 193 255
151 193 255
151 193 255
151 193 255
151 193 255
151 193 255
151 193 255
151 193 255
151 193 255
151 193 255
151 193 255
151 193 255
150 192 255
150 192 255
150 192 255
150 192 255
150 192 255
150 192 255
150 192 255
150 192 255
150 192 255
150 192 255
150 192 255
150 192 255
150 192 255
150 192 255
150 192 255
150 192 255
149 192 255
149 192 255
149 192 255
149 192 255
149 192 255
149 192 255
149 192 255
149 192 255
149 192 255
149 192 255
149 192 255
149 192 255
149 192 255
149 192 255
149 192 255
149 192 255
149 192 255
149 192 255
149 192 255
149 191 255
149 191 255
149 191 255
149 191 255
149 191 255
149 191 255
149 191 255
149 191 255
149 191 255
149 191 255
149 191 255
149 191 255
149 191 255
149 191 255
149 191 255
149 191 255
149 191 255
149 191 255
149 191 255
149 191 255
149 192 255
149 192 255
149 192 255
149 192 255
149 192 255
149 192 255
149 192 255
149 192 255
149 192 255
149 192 255
149 192 255
149 192 255
149 192 255
149 192 255
149 192 255
149 192 255
149 192 255
149 192 255
149 192 255
150 192 255
150 192 255
150 192 255
150 192 255
150 192 255
150 192 255
150 192 255
150 192 255
150 192 255
150 192 255
150 192 255
150 192 255
150 192 255
150 192 255
150 192 255
150 192 255
151 193 255
151 193 255
151 193 255
151 193 255
151 193 255
151 193 255
151 193 255
151 193 255
151 193 255
151 193 255
151 193 255
151 193 255
152 193 255
152 193 255
152 193 255
152 193 255
152 193 255
152 193 255
152 193 255
152 194 255
152 194 255
152 194 255
152 194 255
153 194 255
153 194 255
153 194 255
153 194 255
153 194 255
153 194 255
153 194 255
153 194 255
153 194 255
153 194 255
154 194 255
154 194 255
154 194 255
154 195 255
154 195 255
154 195 255
154 195 255
154 195 255
154 195 255
154 195 255
155 195 255
155 195 255
155 195 255
155 195 255
155 195 255
155 195 255
155 195 255
155 195 255
155 195 255
156 196 255
156 196 255
156 196 255
156 196 255
156 196 255
156 196 255
156 196 255
156 196 255
156 196 255
157 196 255
157 196 255
157 196 255
157 196 255
157 196 255
157 196 255
157 197 255
157 197 255
157 197 255
158 197 255
158 197 255
158 197 255
158 197 255
158 197 255
158 197 255
158 197 255
158 197 255
158 197 255
158 197 255
159 197 255
159 197 255
159 197 255
159 198 255
159 198 255
159 198 255
159 198 255
159 198 255
159 198 255
160 198 255
160 198 255
160 198 255
160 198 255
160 198 255
160 198 255
160 198 255
160 198 255
160 198 255
160 198 255
161 199 255
161 199 255
161 199 255
161 199 255
161 199 255
161 199 255
161 199 255
161 199 255
161 199 255
162 199 255
162 199 255
162 199 255
162 199 255
162 199 255
162 199 255
162 199 255
162 200 255
162 200 255
162 200 255
162 200 255
163 200 255
163 200 255
163 200 255
163 200 255
163 200 255
163 200 255
163 200 255
163 200 255
163 200 255
163 200 255
164 200 255
164 200 255
164 200 255
164 200 255
164 201 255
164 201 255
164 201 255
164 201 255
164 201 255
164 201 255
164 201 255
164 201 255
165 201 255
165 201 255
165 201 255
165 201 255
165 201 255
165 201 255
165 201 255
165 201 255
165 201 255
165 201 255
165 201 255
166 202 255
166 202 255
166 202 255
166 202 255
166 202 255
166 202 255
166 202 255
166 202 255
165 201 255
165 201 255
165 201 255
165 201 255
165 201 255
165 201 255
165 201 255
165 201 255
165 201 255
165 201 255
165 201 255
165 201 255
164 201 255
164 201 255
164 201 255
164 201 255
164 201 255
164 201 255
164 201 255
164 200 255
164 200 255
164 200 255
164 200 255
163 200 255
163 200 255
163 200 255
163 200 255
163 200 255
163 200 255
163 200 255
163 200 255
163 200 255
163 200 255
163 200 255
162 200 255
162 200 255
162 200 255
162 199 255
162 199 255
162 199 255
162 199 255
162 199 255
162 199 255
162 199 255
161 199 255
161 199 255
161 199 255
161 199 255
161 199 255
161 199 255
161 199 255
161 199 255
161 199 255
161 199 255
160 198 255
160 198 255
160 198 255
160 198 255
160 198 255
160 198 255
160 198 255
160 198 255
160 198 255
159 198 255
159 198 255
159 198 255
159 198 255
159 198 255
159 198 255
159 198 255
159 197 255
159 197 255
159 197 255
158 197 255
158 197 255
158 197 255
158 197 255
158 197 255
158 197 255
158 197 255
158 197 255
158 197 255
157 197 255
157 197 255
157 197 255
157 196 255
157 196 255
157 196 255
157 196 255
157 196 255
157 196 255
156 196 255
156 196 255
156 196 255
156 196 255
156 196 255
156 196 255
156 196 255
156 196 255
156 196 255
155 195 255
155 195 255
155 195 255
155 195 255
155 195 255
155 195 255
155 195 255
155 195 255
155 195 255
155 195 255
154 195 255
154 195 255
154 195 255
154 195 255
154 195 255
154 195 255
154 194 255
154 194 255
154 194 255
153 194 255
153 194 255
153 194 255
153 194 255
153 194 255
153 194 255
153 194 255
153 194 255
153 194 255
153 194 255
153 194 255
152 194 255
152 194 255
152 194 255
152 193 255
152 193 255
152 193 255
152 193 255
152 193 255
152 193 255
152 193 255
152 193 255
151 193 255
151 193 255
151 193 255
151 193 255
151 193 255
151 193 255
151 193 255
151 193 255
151 193 255
151 193 255
151 193 255
151 193 255
151 193 255
150 192 255
150 192 255
150 192 255
150 192 255
150 192 255
150 192 255
150 192 255
150 192 255
150 192 255
150 192 255
150 192 255
150 192 255
150 192 255
150 192 255
150 192 255
150 192 255
150 192 255
149 192 255
149 192 255
149 192 255
149 192 255
149 192 255
149 192 255
149 192 255
149 192 255
149 192 255
149 192 255
149 192 255
149 192 255
149 192 255
149 192 255
149 192 255
149 192 255
149 192 255
149 192 255
149 192 255
149 192 255
149 192 255
149 192 255
149 192 255
149 192 255
149 192 255
149 192 255
149 192 255
149 192 255
149 192 255
149 192 255
149 192 255
149 192 255
149 192 255
149 192 255
149 192 255
149 192 255
149 192 255
149 192 255
149 192 255
149 192 255
149 192 255
149 192 255
149 192 255
149 192 255
149 192 255
149 192 255
149 192 255
149 192 255
150 192 255
150 192 255
150 192 255
150 192 255
150 192 255
150 192 255
150 192 255
150 192 255
150 192 255
150 192 255
150 192 255
150 192 255
150 192 255
150 192 255
150 192 255
150 192 255
150 192 255
151 193 255
151 193 255
151 193 255
151 193 255
151 193 255
151 193 255
151 193 255
151 193 255
151 193 255
151 193 255
151 193 255
151 193 255
151 193 255
152 193 255
152 193 255
152 193 255
152 193 255
152 193 255
152 193 255
152 193 255
152 193 255
152 194 255
152 194 255
152 194 255
153 194 255
153 194 255
153 194 255
153 194 255
153 194 255
153 194 255
153 194 255
153 194 255
153 194 255
153 194 255
153 194 255
154 194 255
154 194 255
154 194 255
154 195 255
154 195 255
154 195 255
154 195 255
154 195 255
154 195 255
155 195 255
155 195 255
155 195 255
155 195 255
155 195 255
155 195 255
155 195 255
155 195 255
155 195 255
155 195 255
156 196 255
156 196 255
156 196 255
156 196 255
156 196 255
156 196 255
156 196 255
156 196 255
156 196 255
157 196 255
157 196 255
157 196 255
157 196 255
157 196 255
157 196 255
157 197 255
157 197 255
157 197 255
158 197 255
158 197 255
158 197 255
158 197 255
158 197 255
158 197 255
158 197 255
158 197 255
158 197 255
159 197 255
159 197 255
159 197 255
159 198 255
159 198 255
159 198 255
159 198 255
159 198 255
159 198 255
159 198 255
160 198 255
160 198 255
160 198 255
160 198 255
160 198 255
160 198 255
160 198 255
160 198 255
160 198 255
161 199 255
161 199 255
161 199 255
161 199 255
161 199 255
161 199 255
161 199 255
161 199 255
161 199 255
161 199 255
162 199 255
162 199 255
162 199 255
162 199 255
162 199 255
162 199 255
162 199 255
162 200 255
162 200 255
162 200 255
162 200 255
163 200 255
163 200 255
163 200 255
163 200 255
163 200 255
163 200 255
163 200 255
163 200 255
163 200 255
163 200 255
164 200 255
164 200 255
164 200 255
164 200 255
164 201 255
164 201 255
164 201 255
164 201 255
164 201 255
164 201 255
164 201 255
165 201 255
165 201 255
165 201 255
165 201 255
165 201 255
165 201 255
165 201 255
165 201 255
165 201 255
165 201 255
165 201 255
165 201 255
166 202 255
166 202 255
166 202 255
166 202 255
166 202 255
166 202 255
166 202 255
166 202 255
166 202 255
166 202 255
166 202 255
166 202 255
166 202 255
165 201 255
165 201 255
165 201 255
165 201 255
165 201 255
165 201 255
165 201 255
165 201 255
165 201 255
165 201 255
165 201 255
164 201 255
164 201 255
164 201 255
164 201 255
164 201 255
164 201 255
164 201 255
164 201 255
164 200 255
164 200 255
164 200 255
163 200 255
163 200 255
163 200 255
163 200 255
163 200 255
163 200 255
163 200 255
163 200 255
163 200 255
163 200 255
163 200 255
162 200 255
162 200 255
162 200 255
162 199 255
162 199 255
162 199 255
162 199 255
162 199 255
162 199 255
162 199 255
161 199 255
161 199 255
161 199 255
161 199 255
161 199 255
161 199 255
161 199 255
161 199 255
161 199 255
161 199 255
160 198 255
160 198 255
160 198 255
160 198 255
160 198 255
160 198 255
160 198 255
160 198 255
160 198 255
160 198 255
159 198 255
159 198 255
159 198 255
159 198 255
159 198 255
159 198 255
159 197 255
159 197 255
159 197 255
158 197 255
158 197 255
158 197 255
158 197 255
158 197 255
158 197 255
158 197 255
158 197 255
158 197 255
157 197 255
157 197 255
157 197 255
157 196 255
157 196 255
157 196 255
157 196 255
157 196 255
157 196 255
156 196 255
156 196 255
156 196 255
156 196 255
156 196 255
156 196 255
156 196 255
156 196 255
156 196 255
156 196 255
155 195 255
155 195 255
155 195 255
155 195 255
155 195 255
155 195 255
155 195 255
155 195 255
155 195 255
154 195 255
154 195 255
154 195 255
154 195 255
154 195 255
154 195 255
154 195 255
154 194 255
154 194 255
154 194 255
153 194 255
153 194 255
153 194 255
153 194 255
153 194 255
153 194 255
153 194 255
153 194 255
153 194 255
153 194 255
152 194 255
152 194 255
152 194 255
152 194 255
152 193 255
152 193 255
152 193 255
152 193 255
152 193 255
152 193 255
152 193 255
152 193 255
151 193 255
151 193 255
151 193 255
151 193 255
151 193 255
151 193 255
151 193 255
151 193 255
151 193 255
151 193 255
151 193 255
151 193 255
151 193 255
150 192 255
150 192 255
150 192 255
150 192 255
150 192 255
150 192 255
150 192 255
150 192 255
150 192 255
150 192 255
150 192 255
150 192 255
150 192 255
150 192 255
150 192 255
150 192 255
150 192 255
150 192 255
150 192 255
150 192 255
150 192 255
149 192 255
149 192 255
149 192 255
149 192 255
149 192 255
149 192 255
149 192 255
149 192 255
149 192 255
149 192 255
149 192 255
149 192 255
149 192 255
149 192 255
149 192 255
149 192 255
149 192 255
149 192 255
149 192 255
149 192 255
149 192 255
149 192 255
149 192 255
149 192 255
149 192 255
149 192 255
149 192 255
149 192 255
149 192 255
149 192 255
149 192 255
149 192 255
149 192 255
149 192 255
149 192 255
150 192 255
150 192 255
150 192 255
150 192 255
150 192 255
150 192 255
150 192 255
150 192 255
150 192 255
150 192 255
150 192 255
150 192 255
150 192 255
150 192 255
150 192 255
150 192 255
150 192 255
150 192 255
150 192 255
150 192 255
151 193 255
151 193 255
151 193 255
151 193 255
151 193 255
151 193 255
151 193 255
151 193 255
151 193 255
151 193 255
151 193 255
151 193 255
151 193 255
152 193 255
152 193 255
152 193 255
152 193 255
152 193 255
152 193 255
152 193 255
152 193 255
152 194 255
152 194 255
152 194 255
152 194 255
153 194 255
153 194 255
153 194 255
153 194 255
153 194 255
153 194 255
153 194 255
153 194 255
153 194 255
153 194 255
154 194 255
154 194 255
154 194 255
154 195 255
154 195 255
154 195 255
154 195 255
154 195 255
154 195 255
154 195 255
155 195 255
155 195 255
155 195 255
155 195 255
155 195 255
155 195 255
155 195 255
155 195 255
155 195 255
156 196 255
156 196 255
156 196 255
156 196 255
156 196 255
156 196 255
156 196 255
156 196 255
156 196 255
156 196 255
157 196 255
157 196 255
157 196 255
157 196 255
157 196 255
157 196 255
157 197 255
157 197 255
157 197 255
158 197 255
158 197 255
158 197 255
158 197 255
158 197 255
158 197 255
158 197 255
158 197 255
158 197 255
159 197 255
159 197 255
159 197 255
159 198 255
159 198 255
159 198 255
159 198 255
159 198 255
159 198 255
160 198 255
160 198 255
160 198 255
160 198 255
160 198 255
160 198 255
160 198 255
160 198 255
160 198 255
160 198 255
161 199 255
161 199 255
161 199 255
161 199 255
161 199 255
161 199 255
161 199 255
161 199 255
161 199 255
161 199 255
162 199 255
162 199 255
162 199 255
162 199 255
162 199 255
162 199 255
162 199 255
162 200 255
162 200 255
162 200 255
163 200 255
163 200 255
163 200 255
163 200 255
163 200 255
163 200 255
163 200 255
163 200 255
163 200 255
163 200 255
163 200 255
164 200 255
164 200 255
164 200 255
164 201 255
164 201 255
164 201 255
164 201 255
164 201 255
164 201 255
164 201 255
164 201 255
165 201 255
165 201 255
165 201 255
165 201 255
165 201 255
165 201 255
165 201 255
165 201 255
165 201 255
165 201 255
165 201 255
166 202 255
166 202 255
166 202 255
166 202 255
166 202 255
166 202 255
166 202 255
166 202 255
166 202 255
166 202 255
166 202 255
166 202 255
166 202 255
166 202 255
166 202 255
166 202 255
166 202 255
166 202 255
166 202 255
165 201 255
165 201 255
165 201 255
165 201 255
165 201 255
165 201 255
165 201 255
165 201 255
165 201 255
165 201 255
165 201 255
164 201 255
164 201 255
164 201 255
164 201 255
164 201 255
164 201 255
164 201 255
164 200 255
164 200 255
164 200 255
164 200 255
163 200 255
163 200 255
163 200 255
163 200 255
163 200 255
163 200 255
163 200 255
163 200 255
163 200 255
163 200 255
162 200 255
162 200 255
162 200 255
162 200 255
162 199 255
162 199 255
162 199 255
162 199 255
162 199 255
162 199 255
162 199 255
161 199 255
161 199 255
161 199 255
161 199 255
161 199 255
161 199 255
161 199 255
161 199 255
161 199 255
160 198 255
160 198 255
160 198 255
160 198 255
160 198 255
160 198 255
160 198 255
160 198 255
160 198 255
160 198 255
159 198 255
159 198 255
159 198 255
159 198 255
159 198 255
159 198 255
159 197 255
159 197 255
159 197 255
158 197 255
158 197 255
158 197 255
158 197 255
158 197 255
158 197 255
158 197 255
158 197 255
158 197 255
158 197 255
157 197 255
157 197 255
157 196 255
157 196 255
157 196 255
157 196 255
157 196 255
157 196 255
157 196 255
156 196 255
156 196 255
156 196 255
156 196 255
156 196 255
156 196 255
156 196 255
156 196 255
156 196 255
155 195 255
155 195 255
155 195 255
155 195 255
155 195 255
155 195 255
155 195 255
155 195 255
155 195 255
154 195 255
154 195 255
154 195 255
154 195 255
154 195 255
154 195 255
154 195 255
154 194 255
154 194 255
154 194 255
153 194 255
153 194 255
153 194 255
153 194 255
153 194 255
153 194 255
153 194 255
153 194 255
153 194 255
153 194 255
153 194 255
152 194 255
152 194 255
152 194 255
152 194 255
152 193 255
152 193 255
152 193 255
152 193 255
152 193 255
152 193 255
152 193 255
152 193 255
151 193 255
151 193 255
151 193 255
151 193 255
151 193 255
151 193 255
151 193 255
151 193 255
151 193 255
151 193 255
151 193 255
151 193 255
151 193 255
151 193 255
150 192 255
150 192 255
150 192 255
150 192 255
150 192 255
150 192 255
150 192 255
150 192 255
150 192 255
150 192 255
150 192 255
150 192 255
150 192 255
150 192 255
150 192 255
150 192 255
150 192 255
150 192 255
150 192 255
150 192 255
150 192 255
150 192 255
150 192 255
150 192 255
150 192 255
150 192 255
150 192 255
149 192 255
149 192 255
149 192 255
149 192 255
149 192 255
149 192 255
149 192 255
149 192 255
149 192 255
149 192 255
149 192 255
149 192 255
149 192 255
150 192 255
150 192 255
150 192 255
150 192 255
150 192 255
150 192 255
150 192 255
150 192 255
150 192 255
150 192 255
150 192 255
150 192 255
150 192 255
150 192 255
150 192 255
150 192 255
150 192 255
150 192 255
150 192 255
150 192 255
150 192 255
150 192 255
150 192 255
150 192 255
150 192 255
150 192 255
150 192 255
150 192 255
151 193 255
151 193 255
151 193 255
151 193 255
151 193 255
151 193 255
151 193 255
151 193 255
151 193 255
151 193 255
151 193 255
151 193 255
151 193 255
151 193 255
152 193 255
152 193 255
152 193 255
152 193 255
152 193 255
152 193 255
152 193 255
152 193 255
152 194 255
152 194 255
152 194 255
152 194 255
153 194 255
153 194 255
153 194 255
153 194 255
153 194 255
153 194 255
153 194 255
153 194 255
153 194 255
153 194 255
153 194 255
154 194 255
154 194 255
154 194 255
154 195 255
154 195 255
154 195 255
154 195 255
154 195 255
154 195 255
154 195 255
155 195 255
155 195 255
155 195 255
155 195 255
155 195 255
155 195 255
155 195 255
155 195 255
155 195 255
156 196 255
156 196 255
156 196 255
156 196 255
156 196 255
156 196 255
156 196 255
156 196 255
156 196 255
157 196 255
157 196 255
157 196 255
157 196 255
157 196 255
157 196 255
157 196 255
157 197 255
157 197 255
157 197 255
158 197 255
158 197 255
158 197 255
158 197 255
158 197 255
158 197 255
158 197 255
158 197 255
158 197 255
159 197 255
159 197 255
159 197 255
159 198 255
159 198 255
159 198 255
159 198 255
159 198 255
159 198 255
160 198 255
160 198 255
160 198 255
160 198 255
160 198 255
160 198 255
160 198 255
160 198 255
160 198 255
160 198 255
161 199 255
161 199 255
161 199 255
161 199 255
161 199 255
161 199 255
161 199 255
161 199 255
161 199 255
161 199 255
162 199 255
162 199 255
162 199 255
162 199 255
162 199 255
162 199 255
162 200 255
162 200 255
162 200 255
162 200 255
163 200 255
163 200 255
163 200 255
163 200 255
163 200 255
163 200 255
163 200 255
163 200 255
163 200 255
163 200 255
164 200 255
164 200 255
164 200 255
164 200 255
164 201 255
164 201 255
164 201 255
164 201 255
164 201 255
164 201 255
164 201 255
165 201 255
165 201 255
165 201 255
165 201 255
165 201 255
165 201 255
165 201 255
165 201 255
165 201 255
165 201 255
165 201 255
165 201 255
166 202 255
166 202 255
166 202 255
166 202 255
166 202 255
166 202 255
166 202 255
166 202 255
166 202 255
166 202 255
167 202 255
166 202 255
166 202 255
166 202 255
166 202 255
166 202 255
166 202 255
166 202 255
166 202 255
166 202 255
166 202 255
166 202 255
166 202 255
165 201 255
165 201 255
165 201 255
165 201 255
165 201 255
165 201 255
165 201 255
165 201 255
165 201 255
165 201 255
165 201 255
165 201 255
164 201 255
164 201 255
164 201 255
164 201 255
164 201 255
164 201 255
164 201 255
164 200 255
164 200 255
164 200 255
163 200 255
163 200 255
163 200 255
163 200 255
163 200 255
163 200 255
163 200 255
163 200 255
163 200 255
163 200 255
163 200 255
162 200 255
162 200 255
162 200 255
162 199 255
162 199 255
162 199 255
162 199 255
162 199 255
162 199 255
162 199 255
161 199 255
161 199 255
161 199 255
161 199 255
161 199 255
161 199 255
161 199 255
161 199 255
161 199 255
161 199 255
160 198 255
160 198 255
160 198 255
160 198 255
160 198 255
160 198 255
160 198 255
160 198 255
160 198 255
159 198 255
159 198 255
159 198 255
159 198 255
159 198 255
159 198 255
159 197 255
159 197 255
159 197 255
159 197 255
158 197 255
158 197 255
158 197 255
158 197 255
158 197 255
158 197 255
158 197 255
158 197 255
158 197 255
157 197 255
157 197 255
157 197 255
157 196 255
157 196 255
157 196 255
157 196 255
157 196 255
157 196 255
156 196 255
156 196 255
156 196 255
156 196 255
156 196 255
156 196 255
156 196 255
156 196 255
156 196 255
155 195 255
155 195 255
155 195 255
155 195 255
155 195 255
155 195 255
155 195 255
155 195 255
155 195 255
155 195 255
154 195 255
154 195 255
154 195 255
154 195 255
154 195 255
154 195 255
154 195 255
154 194 255
154 194 255
154 194 255
153 194 255
153 194 255
153 194 255
153 194 255
153 194 255
153 194 255
153 194 255
153 194 255
153 194 255
153 194 255
153 194 255
152 194 255
152 194 255
152 194 255
152 194 255
152 193 255
152 193 255
152 193 255
152 193 255
152 193 255
152 193 255
152 193 255
152 193 255
151 193 255
151 193 255
151 193 255
151 193 255
151 193 255
151 193 255
151 193 255
151 193 255
151 193 255
151 193 255
151 193 255
151 193 255
151 193 255
151 193 255
151 193 255
151 193 255
150 192 255
150 192 255
150 192 255
150 192 255
150 192 255
150 192 255
150 192 255
150 192 255
150 192 255
150 192 255
150 192 255
150 192 255
150 192 255
150 192 255
150 192 255
150 192 255
150 192 255
150 192 255
150 192 255
150 192 255
150 192 255
150 192 255
150 192 255
150 192 255
150 192 255
150 192 255
150 192 255
150 192 255
150 192 255
150 192 255
150 192 255
150 192 255
150 192 255
150 192 255
150 192 255
150 192 255
150 192 255
150 192 255
150 192 255
150 192 255
150 192 255
150 192 255
150 192 255
150 192 255
150 192 255
150 192 255
150 192 255
150 192 255
150 192 255
150 192 255
150 192 255
150 192 255
150 192 255
150 192 255
150 192 255
150 192 255
150 192 255
150 192 255
151 193 255
151 193 255
151 193 255
151 193 255
151 193 255
151 193 255
151 193 255
151 193 255
151 193 255
151 193 255
151 193 255
151 193 255
151 193 255
151 193 255
151 193 255
151 193 255
152 193 255
152 193 255
152 193 255
152 193 255
152 193 255
152 193 255
152 193 255
152 193 255
152 194 255
152 194 255
152 194 255
152 194 255
153 194 255
153 194 255
153 194 255
153 194 255
153 194 255
153 194 255
153 194 255
153 194 255
153 194 255
153 194 255
153 194 255
154 194 255
154 194 255
154 194 255
154 195 255
154 195 255
154 195 255
154 195 255
154 195 255
154 195 255
154 195 255
155 195 255
155 195 255
155 195 255
155 195 255
155 195 255
155 195 255
155 195 255
155 195 255
155 195 255
155 195 255
156 196 255
156 196 255
156 196 255
156 196 255
156 196 255
156 196 255
156 196 255
156 196 255
156 196 255
157 196 255
157 196 255
157 196 255
157 196 255
157 196 255
157 196 255
157 197 255
157 197 255
157 197 255
158 197 255
158 197 255
158 197 255
158 197 255
158 197 255
158 197 255
158 197 255
158 197 255
158 197 255
159 197 255
159 197 255
159 197 255
159 197 255
159 198 255
159 198 255
159 198 255
159 198 255
159 198 255
159 198 255
160 198 255
160 198 255
160 198 255
160 198 255
160 198 255
160 198 255
160 198 255
160 198 255
160 198 255
161 199 255
161 199 255
161 199 255
161 199 255
161 199 255
161 199 255
161 199 255
161 199 255
161 199 255
161 199 255
162 199 255
162 199 255
162 199 255
162 199 255
162 199 255
162 199 255
162 199 255
162 200 255
162 200 255
162 200 255
163 200 255
163 200 255
163 200 255
163 200 255
163 200 255
163 200 255
163 200 255
163 200 255
163 200 255
163 200 255
164 200 255
164 200 255
164 200 255
164 200 255
164 201 255
164 201 255
164 201 255
164 201 255
164 201 255
164 201 255
164 201 255
165 201 255
165 201 255
165 201 255
165 201 255
165 201 255
165 201 255
165 201 255
165 201 255
165 201 255
165 201 255
165 201 255
165 201 255
166 202 255
166 202 255
166 202 255
166 202 255
166 202 255
166 202 255
166 202 255
166 202 255
166 202 255
166 202 255
166 202 255
166 202 255
167 202 255
167 202 255
167 202 255
167 202 255
167 202 255
166 202 255
166 202 255
166 202 255
166 202 255
166 202 255
166 202 255
166 202 255
166 202 255
166 202 255
166 202 255
166 202 255
166 202 255
165 201 255
165 201 255
165 201 255
165 201 255
165 201 255
165 201 255
165 201 255
165 201 255
165 201 255
165 201 255
165 201 255
164 201 255
164 201 255
164 201 255
164 201 255
164 201 255
164 201 255
164 201 255
164 200 255
164 200 255
164 200 255
164 200 255
163 200 255
163 200 255
163 200 255
163 200 255
163 200 255
163 200 255
163 200 255
163 200 255
163 200 255
163 200 255
162 200 255
162 200 255
162 200 255
162 200 255
162 199 255
162 199 255
162 199 255
162 199 255
162 199 255
162 199 255
161 199 255
161 199 255
161 199 255
161 199 255
161 199 255
161 199 255
161 199 255
161 199 255
161 199 255
161 199 255
160 198 255
160 198 255
160 198 255
160 198 255
160 198 255
160 198 255
160 198 255
160 198 255
160 198 255
160 198 255
159 198 255
159 198 255
159 198 255
159 198 255
159 198 255
159 198 255
159 197 255
159 197 255
159 197 255
158 197 255
158 197 255
158 197 255
158 197 255
158 197 255
158 197 255
158 197 255
158 197 255
158 197 255
157 197 255
157 197 255
157 197 255
157 196 255
157 196 255
157 196 255
157 196 255
157 196 255
157 196 255
156 196 255
156 196 255
156 196 255
156 196 255
156 196 255
156 196 255
156 196 255
156 196 255
156 196 255
156 196 255
155 195 255
155 195 255
155 195 255
155 195 255
155 195 255
155 195 255
155 195 255
155 195 255
155 195 255
155 195 255
154 195 255
154 195 255
154 195 255
154 195 255
154 195 255
154 195 255
154 194 255
154 194 255
154 194 255
154 194 255
153 194 255
153 194 255
153 194 255
153 194 255
153 194 255
153 194 255
153 194 255
153 194 255
153 194 255
153 194 255
153 194 255
152 194 255
152 194 255
152 194 255
152 194 255
152 193 255
152 193 255
152 193 255
152 193 255
152 193 255
152 193 255
152 193 255
152 193 255
152 193 255
151 193 255
151 193 255
151 193 255
151 193 255
151 193 255
151 193 255
151 193 255
151 193 255
151 193 255
151 193 255
151 193 255
151 193 255
151 193 255
151 193 255
151 193 255
151 193 255
151 193 255
150 192 255
150 192 255
150 192 255
150 192 255
150 192 255
150 192 255
150 192 255
150 192 255
150 192 255
150 192 255
150 192 255
150 192 255
150 192 255
150 192 255
150 192 255
150 192 255
150 192 255
150 192 255
150 192 255
150 192 255
150 192 255
150 192 255
150 192 255
150 192 255
150 192 255
150 192 255
150 192 255
150 192 255
150 192 255
150 192 255
150 192 255
150 192 255
150 192 255
150 192 255
150 192 255
150 192 255
150 192 255
150 192 255
150 192 255
150 192 255
150 192 255
150 192 255
150 192 255
150 192 255
150 192 255
150 192 255
150 192 255
150 192 255
151 193 255
151 193 255
151 193 255
151 193 255
151 193 255
151 193 255
151 193 255
151 193 255
151 193 255
151 193 255
151 193 255
151 193 255
151 193 255
151 193 255
151 193 255
151 193 255
151 193 255
152 193 255
152 193 255
152 193 255
152 193 255
152 193 255
152 193 255
152 193 255
152 193 255
152 193 255
152 194 255
152 194 255
152 194 255
152 194 255
153 194 255
153 194 255
153 194 255
153 194 255
153 194 255
153 194 255
153 194 255
153 194 255
153 194 255
153 194 255
153 194 255
154 194 255
154 194 255
154 194 255
154 194 255
154 195 255
154 195 255
154 195 255
154 195 255
154 195 255
154 195 255
154 195 255
155 195 255
155 195 255
155 195 255
155 195 255
155 195 255
155 195 255
155 195 255
155 195 255
155 195 255
156 196 255
156 196 255
156 196 255
156 196 255
156 196 255
156 196 255
156 196 255
156 196 255
156 196 255
156 196 255
157 196 255
157 196 255
157 196 255
157 196 255
157 196 255
157 196 255
157 197 255
157 197 255
157 197 255
158 197 255
158 197 255
158 197 255
158 197 255
158 197 255
158 197 255
158 197 255
158 197 255
158 197 255
159 197 255
159 197 255
159 197 255
159 198 255
159 198 255
159 198 255
159 198 255
159 198 255
159 198 255
160 198 255
160 198 255
160 198 255
160 198 255
160 198 255
160 198 255
160 198 255
160 198 255
160 198 255
160 198 255
161 199 255
161 199 255
161 199 255
161 199 255
161 199 255
161 199 255
161 199 255
161 199 255
161 199 255
161 199 255
162 199 255
162 199 255
162 199 255
162 199 255
162 199 255
162 199 255
162 200 255
162 200 255
162 200 255
162 200 255
163 200 255
163 200 255
163 200 255
163 200 255
163 200 255
163 200 255
163 200 255
163 200 255
163 200 255
163 200 255
164 200 255
164 200 255
164 200 255
164 200 255
164 201 255
164 201 255
164 201 255
164 201 255
164 201 255
164 201 255
164 201 255
165 201 255
165 201 255
165 201 255
165 201 255
165 201 255
165 201 255
165 201 255
165 201 255
165 201 255
165 201 255
165 201 255
166 202 255
166 202 255
166 202 255
166 202 255
166 202 255
166 202 255
166 202 255
166 202 255
166 202 255
166 202 255
166 202 255
166 202 255
167 202 255
167 202 255
167 202 255
167 202 255
167 202 255
167 202 255
167 202 255
167 202 255
167 202 255
167 202 255
166 202 255
166 202 255
166 202 255
166 202 255
166 202 255
166 202 255
166 202 255
166 202 255
166 202 255
166 202 255
166 202 255
166 202 255
165 201 255
165 201 255
165 201 255
165 201 255
165 201 255
165 201 255
165 201 255
165 201 255
165 201 255
165 201 255
165 201 255
165 201 255
164 201 255
164 201 255
164 201 255
164 201 255
164 201 255
164 201 255
164 201 255
164 200 255
164 200 255
164 200 255
163 200 255
163 200 255
163 200 255
163 200 255
163 200 255
163 200 255
163 200 255
163 200 255
163 200 255
163 200 255
163 200 255
162 200 255
162 200 255
162 200 255
162 199 255
162 199 255
162 199 255
162 199 255
162 199 255
162 199 255
162 199 255
161 199 255
161 199 255
161 199 255
161 199 255
161 199 255
161 199 255
161 199 255
161 199 255
161 199 255
161 199 255
160 198 255
160 198 255
160 198 255
160 198 255
160 198 255
160 198 255
160 198 255
160 198 255
160 198 255
159 198 255
159 198 255
159 198 255
159 198 255
159 198 255
159 198 255
159 197 255
159 197 255
159 197 255
158 197 255
158 197 255
158 197 255
158 197 255
158 197 255
158 197 255
158 197 255
158 197 255
158 197 255
158 197 255
157 197 255
157 197 255
157 197 255
157 196 255
157 196 255
157 196 255
157 196 255
157 196 255
157 196 255
156 196 255
156 196 255
156 196 255
156 196 255
156 196 255
156 196 255
156 196 255
156 196 255
156 196 255
155 195 255
155 195 255
155 195 255
155 195 255
155 195 255
155 195 255
155 195 255
155 195 255
155 195 255
155 195 255
154 195 255
154 195 255
154 195 255
154 195 255
154 195 255
154 195 255
154 195 255
154 194 255
154 194 255
154 194 255
153 194 255
153 194 255
153 194 255
153 194 255
153 194 255
153 194 255
153 194 255
153 194 255
153 194 255
153 194 255
153 194 255
153 194 255
152 194 255
152 194 255
152 194 255
152 194 255
152 193 255
152 193 255
152 193 255
152 193 255
152 193 255
152 193 255
152 193 255
152 193 255
152 193 255
151 193 255
151 193 255
151 193 255
151 193 255
151 193 255
151 193 255
151 193 255
151 193 255
151 193 255
151 193 255
151 193 255
151 193 255
151 193 255
151 193 255
151 193 255
151 193 255
151 193 255
151 193 255
151 193 255
151 193 255
150 192 255
150 192 255
150 192 255
150 192 255
150 192 255
150 192 255
150 192 255
150 192 255
150 192 255
150 192 255
150 192 255
150 192 255
150 192 255
150 192 255
150 192 255
150 192 255
150 192 255
150 192 255
150 192 255
150 192 255
150 192 255
150 192 255
150 192 255
150 192 255
150 192 255
150 192 255
150 192 255
150 192 255
150 192 255
150 192 255
150 192 255
150 192 255
150 192 255
150 192 255
150 192 255
150 192 255
151 193 255
151 193 255
151 193 255
151 193 255
151 193 255
151 193 255
151 193 255
151 193 255
151 193 255
151 193 255
151 193 255
151 193 255
151 193 255
151 193 255
151 193 255
151 193 255
151 193 255
151 193 255
151 193 255
151 193 255
152 193 255
152 193 255
152 193 255
152 193 255
152 193 255
152 193 255
152 193 255
152 193 255
152 193 255
152 194 255
152 194 255
152 194 255
152 194 255
153 194 255
153 194 255
153 194 255
153 194 255
153 194 255
153 194 255
153 194 255
153 194 255
153 194 255
153 194 255
153 194 255
153 194 255
154 194 255
154 194 255
154 194 255
154 195 255
154 195 255
154 195 255
154 195 255
154 195 255
154 195 255
154 195 255
155 195 255
155 195 255
155 195 255
155 195 255
155 195 255
155 195 255
155 195 255
155 195 255
155 195 255
155 195 255
156 196 255
156 196 255
156 196 255
156 196 255
156 196 255
156 196 255
156 196 255
156 196 255
156 196 255
157 196 255
157 196 255
157 196 255
157 196 255
157 196 255
157 196 255
157 197 255
157 197 255
157 197 255
158 197 255
158 197 255
158 197 255
158 197 255
158 197 255
158 197 255
158 197 255
158 197 255
158 197 255
158 197 255
159 197 255
159 197 255
159 197 255
159 198 255
159 198 255
159 198 255
159 198 255
159 198 255
159 198 255
160 198 255
160 198 255
160 198 255
160 198 255
160 198 255
160 198 255
160 198 255
160 198 255
160 198 255
160 198 255
161 199 255
161 199 255
161 199 255
161 199 255
161 199 255
161 199 255
161 199 255
161 199 255
161 199 255
162 199 255
162 199 255
162 199 255
162 199 255
162 199 255
162 199 255
162 199 255
162 200 255
162 200 255
162 200 255
163 200 255
163 200 255
163 200 255
163 200 255
163 200 255
163 200 255
163 200 255
163 200 255
163 200 255
163 200 255
163 200 255
164 200 255
164 200 255
164 200 255
164 201 255
164 201 255
164 201 255
164 201 255
164 201 255
164 201 255
164 201 255
165 201 255
165 201 255
165 201 255
165 201 255
165 201 255
165 201 255
165 201 255
165 201 255
165 201 255
165 201 255
165 201 255
165 201 255
166 202 255
166 202 255
166 202 255
166 202 255
166 202 255
166 202 255
166 202 255
166 202 255
166 202 255
166 202 255
166 202 255
166 202 255
167 202 255
167 202 255
167 202 255
167 202 255
167 202 255
167 202 255
167 203 255
167 202 255
167 202 255
167 202 255
167 202 255
167 202 255
167 202 255
167 202 255
167 202 255
166 202 255
166 202 255
166 202 255
166 202 255
166 202 255
166 202 255
166 202 255
166 202 255
166 202 255
166 202 255
166 202 255
166 202 255
165 201 255
165 201 255
165 201 255
165 201 255
165 201 255
165 201 255
165 201 255
165 201 255
165 201 255
165 201 255
165 201 255
164 201 255
164 201 255
164 201 255
164 201 255
164 201 255
164 201 255
164 201 255
164 200 255
164 200 255
164 200 255
164 200 255
163 200 255
163 200 255
163 200 255
163 200 255
163 200 255
163 200 255
163 200 255
163 200 255
163 200 255
163 200 255
162 200 255
162 200 255
162 200 255
162 200 255
162 199 255
162 199 255
162 199 255
162 199 255
162 199 255
162 199 255
161 199 255
161 199 255
161 199 255
161 199 255
161 199 255
161 199 255
161 199 255
161 199 255
161 199 255
161 199 255
160 198 255
160 198 255
160 198 255
160 198 255
160 198 255
160 198 255
160 198 255
160 198 255
160 198 255
159 198 255
159 198 255
159 198 255
159 198 255
159 198 255
159 198 255
159 198 255
159 197 255
159 197 255
158 197 255
158 197 255
158 197 255
158 197 255
158 197 255
158 197 255
158 197 255
158 197 255
158 197 255
158 197 255
157 197 255
157 197 255
157 197 255
157 196 255
157 196 255
157 196 255
157 196 255
157 196 255
157 196 255
156 196 255
156 196 255
156 196 255
156 196 255
156 196 255
156 196 255
156 196 255
156 196 255
156 196 255
156 196 255
155 195 255
155 195 255
155 195 255
155 195 255
155 195 255
155 195 255
155 195 255
155 195 255
155 195 255
155 195 255
154 195 255
154 195 255
154 195 255
154 195 255
154 195 255
154 195 255
154 195 255
154 194 255
154 194 255
154 194 255
153 194 255
153 194 255
153 194 255
153 194 255
153 194 255
153 194 255
153 194 255
153 194 255
153 194 255
153 194 255
153 194 255
153 194 255
152 194 255
152 194 255
152 194 255
152 194 255
152 193 255
152 193 255
152 193 255
152 193 255
152 193 255
152 193 255
152 193 255
152 193 255
152 193 255
152 193 255
151 193 255
151 193 255
151 193 255
151 193 255
151 193 255
151 193 255
151 193 255
151 193 255
151 193 255
151 193 255
151 193 255
151 193 255
151 193 255
151 193 255
151 193 255
151 193 255
151 193 255
151 193 255
151 193 255
151 193 255
151 193 255
151 193 255
151 193 255
151 193 255
151 193 255
151 193 255
151 193 255
150 192 255
150 192 255
150 192 255
150 192 255
150 192 255
150 192 255
150 192 255
150 192 255
150 192 255
150 192 255
150 192 255
150 192 255
150 192 255
151 193 255
151 193 255
151 193 255
151 193 255
151 193 255
151 193 255
151 193 255
151 193 255
151 193 255
151 193 255
151 193 255
151 193 255
151 193 255
151 193 255
151 193 255
151 193 255
151 193 255
151 193 255
151 193 255
151 193 255
151 193 255
151 193 255
151 193 255
151 193 255
151 193 255
151 193 255
151 193 255
151 193 255
152 193 255
152 193 255
152 193 255
152 193 255
152 193 255
152 193 255
152 193 255
152 193 255
152 193 255
152 193 255
152 194 255
152 194 255
152 194 255
152 194 255
153 194 255
153 194 255
153 194 255
153 194 255
153 194 255
153 194 255
153 194 255
153 194 255
153 194 255
153 194 255
153 194 255
153 194 255
154 194 255
154 194 255
154 194 255
154 195 255
154 195 255
154 195 255
154 195 255
154 195 255
154 195 255
154 195 255
155 195 255
155 195 255
155 195 255
155 195 255
155 195 255
155 195 255
155 195 255
155 195 255
155 195 255
155 195 255
156 196 255
156 196 255
156 196 255
156 196 255
156 196 255
156 196 255
156 196 255
156 196 255
156 196 255
156 196 255
157 196 255
157 196 255
157 196 255
157 196 255
157 196 255
157 196 255
157 197 255
157 197 255
157 197 255
158 197 255
158 197 255
158 197 255
158 197 255
158 197 255
158 197 255
158 197 255
158 197 255
158 197 255
159 197 255
159 197 255
159 197 255
159 198 255
159 198 255
159 198 255
159 198 255
159 198 255
159 198 255
159 198 255
160 198 255
160 198 255
160 198 255
160 198 255
160 198 255
160 198 255
160 198 255
160 198 255
160 198 255
161 199 255
161 199 255
161 199 255
161 199 255
161 199 255
161 199 255
161 199 255
161 199 255
161 199 255
161 199 255
162 199 255
162 199 255
162 199 255
162 199 255
162 199 255
162 199 255
162 200 255
162 200 255
162 200 255
162 200 255
163 200 255
163 200 255
163 200 255
163 200 255
163 200 255
163 200 255
163 200 255
163 200 255
163 200 255
163 200 255
164 200 255
164 200 255
164 200 255
164 200 255
164 201 255
164 201 255
164 201 255
164 201 255
164 201 255
164 201 255
164 201 255
165 201 255
165 201 255
165 201 255
165 201 255
165 201 255
165 201 255
165 201 255
165 201 255
165 201 255
165 201 255
165 201 255
166 202 255
166 202 255
166 202 255
166 202 255
166 202 255
166 202 255
166 202 255
166 202 255
166 202 255
166 202 255
166 202 255
166 202 255
167 202 255
167 202 255
167 202 255
167 202 255
167 202 255
167 202 255
167 202 255
167 202 255
167 203 255
167 203 255
167 203 255
167 203 255
167 203 255
167 202 255
167 202 255
167 202 255
167 202 255
167 202 255
167 202 255
167 202 255
167 202 255
166 202 255
166 202 255
166 202 255
166 202 255
166 202 255
166 202 255
166 202 255
166 202 255
166 202 255
166 202 255
166 202 255
166 202 255
165 201 255
165 201 255
165 201 255
165 201 255
165 201 255
165 201 255
165 201 255
165 201 255
165 201 255
165 201 255
165 201 255
164 201 255
164 201 255
164 201 255
164 201 255
164 201 255
164 201 255
164 201 255
164 200 255
164 200 255
164 200 255
163 200 255
163 200 255
163 200 255
163 200 255
163 200 255
163 200 255
163 200 255
163 200 255
163 200 255
163 200 255
163 200 255
162 200 255
162 200 255
162 200 255
162 199 255
162 199 255
162 199 255
162 199 255
162 199 255
162 199 255
162 199 255
161 199 255
161 199 255
161 199 255
161 199 255
161 199 255
161 199 255
161 199 255
161 199 255
161 199 255
160 198 255
160 198 255
160 198 255
160 198 255
160 198 255
160 198 255
160 198 255
160 198 255
160 198 255
160 198 255
159 198 255
159 198 255
159 198 255
159 198 255
159 198 255
159 198 255
159 197 255
159 197 255
159 197 255
158 197 255
158 197 255
158 197 255
158 197 255
158 197 255
158 197 255
158 197 255
158 197 255
158 197 255
157 197 255
157 197 255
157 197 255
157 196 255
157 196 255
157 196 255
157 196 255
157 196 255
157 196 255
157 196 255
156 196 255
156 196 255
156 196 255
156 196 255
156 196 255
156 196 255
156 196 255
156 196 255
156 196 255
155 195 255
155 195 255
155 195 255
155 195 255
155 195 255
155 195 255
155 195 255
155 195 255
155 195 255
155 195 255
154 195 255
154 195 255
154 195 255
154 195 255
154 195 255
154 195 255
154 195 255
154 194 255
154 194 255
154 194 255
154 194 255
153 194 255
153 194 255
153 194 255
153 194 255
153 194 255
153 194 255
153 194 255
153 194 255
153 194 255
153 194 255
153 194 255
153 194 255
152 194 255
152 194 255
152 194 255
152 194 255
152 194 255
152 193 255
152 193 255
152 193 255
152 193 255
152 193 255
152 193 255
152 193 255
152 193 255
152 193 255
152 193 255
152 193 255
151 193 255
151 193 255
151 193 255
151 193 255
151 193 255
151 193 255
151 193 255
151 193 255
151 193 255
151 193 255
151 193 255
151 193 255
151 193 255
151 193 255
151 193 255
151 193 255
151 193 255
151 193 255
151 193 255
151 193 255
151 193 255
151 193 255
151 193 255
151 193 255
151 193 255
151 193 255
151 193 255
151 193 255
151 193 255
151 193 255
151 193 255
151 193 255
151 193 255
151 193 255
151 193 255
151 193 255
151 193 255
151 193 255
151 193 255
151 193 255
151 193 255
151 193 255
151 193 255
151 193 255
151 193 255
151 193 255
151 193 255
151 193 255
151 193 255
151 193 255
151 193 255
151 193 255
151 193 255
151 193 255
151 193 255
151 193 255
151 193 255
151 193 255
152 193 255
152 193 255
152 193 255
152 193 255
152 193 255
152 193 255
152 193 255
152 193 255
152 193 255
152 193 255
152 193 255
152 194 255
152 194 255
152 194 255
152 194 255
152 194 255
153 194 255
153 194 255
153 194 255
153 194 255
153 194 255
153 194 255
153 194 255
153 194 255
153 194 255
153 194 255
153 194 255
153 194 255
154 194 255
154 194 255
154 194 255
154 194 255
154 195 255
154 195 255
154 195 255
154 195 255
154 195 255
154 195 255
154 195 255
155 195 255
155 195 255
155 195 255
155 195 255
155 195 255
155 195 255
155 195 255
155 195 255
155 195 255
155 195 255
156 196 255
156 196 255
156 196 255
156 196 255
156 196 255
156 196 255
156 196 255
156 196 255
156 196 255
157 196 255
157 196 255
157 196 255
157 196 255
157 196 255
157 196 255
157 197 255
157 197 255
157 197 255
157 197 255
158 197 255
158 197 255
158 197 255
158 197 255
158 197 255
158 197 255
158 197 255
158 197 255
158 197 255
159 197 255
159 197 255
159 197 255
159 198 255
159 198 255
159 198 255
159 198 255
159 198 255
159 198 255
159 198 255
160 198 255
160 198 255
160 198 255
160 198 255
160 198 255
160 198 255
160 198 255
160 198 255
160 198 255
161 199 255
161 199 255
161 199 255
161 199 255
161 199 255
161 199 255
161 199 255
161 199 255
161 199 255
162 199 255
162 199 255
162 199 255
162 199 255
162 199 255
162 199 255
162 199 255
162 200 255
162 200 255
162 200 255
163 200 255
163 200 255
163 200 255
163 200 255
163 200 255
163 200 255
163 200 255
163 200 255
163 200 255
163 200 255
163 200 255
164 200 255
164 200 255
164 200 255
164 201 255
164 201 255
164 201 255
164 201 255
164 201 255
164 201 255
164 201 255
165 201 255
165 201 255
165 201 255
165 201 255
165 201 255
165 201 255
165 201 255
165 201 255
165 201 255
165 201 255
165 201 255
166 202 255
166 202 255
166 202 255
166 202 255
166 202 255
166 202 255
166 202 255
166 202 255
166 202 255
166 202 255
166 202 255
166 202 255
167 202 255
167 202 255
167 202 255
167 202 255
167 202 255
167 202 255
167 202 255
167 202 255
167 203 255
167 203 255
167 203 255
167 203 255
168 203 255
168 203 255
167 203 255
167 203 255
167 203 255
167 203 255
167 203 255
167 202 255
167 202 255
167 202 255
167 202 255
167 202 255
167 202 255
167 202 255
167 202 255
166 202 255
166 202 255
166 202 255
166 202 255
166 202 255
166 202 255
166 202 255
166 202 255
166 202 255
166 202 255
166 202 255
165 201 255
165 201 255
165 201 255
165 201 255
165 201 255
165 201 255
165 201 255
165 201 255
165 201 255
165 201 255
165 201 255
164 201 255
164 201 255
164 201 255
164 201 255
164 201 255
164 201 255
164 201 255
164 201 255
164 200 255
164 200 255
164 200 255
163 200 255
163 200 255
163 200 255
163 200 255
163 200 255
163 200 255
163 200 255
163 200 255
163 200 255
163 200 255
162 200 255
162 200 255
162 200 255
162 199 255
162 199 255
162 199 255
162 199 255
162 199 255
162 199 255
162 199 255
161 199 255
161 199 255
161 199 255
161 199 255
161 199 255
161 199 255
161 199 255
161 199 255
161 199 255
161 199 255
160 198 255
160 198 255
160 198 255
160 198 255
160 198 255
160 198 255
160 198 255
160 198 255
160 198 255
159 198 255
159 198 255
159 198 255
159 198 255
159 198 255
159 198 255
159 197 255
159 197 255
159 197 255
159 197 255
158 197 255
158 197 255
158 197 255
158 197 255
158 197 255
158 197 255
158 197 255
158 197 255
158 197 255
157 197 255
157 197 255
157 197 255
157 196 255
157 196 255
157 196 255
157 196 255
157 196 255
157 196 255
156 196 255
156 196 255
156 196 255
156 196 255
156 196 255
156 196 255
156 196 255
156 196 255
156 196 255
156 196 255
155 195 255
155 195 255
155 195 255
155 195 255
155 195 255
155 195 255
155 195 255
155 195 255
155 195 255
155 195 255
154 195 255
154 195 255
154 195 255
154 195 255
154 195 255
154 195 255
154 195 255
154 195 255
154 194 255
154 194 255
154 194 255
153 194 255
153 194 255
153 194 255
153 194 255
153 194 255
153 194 255
153 194 255
153 194 255
153 194 255
153 194 255
153 194 255
153 194 255
153 194 255
152 194 255
152 194 255
152 194 255
152 194 255
152 194 255
152 193 255
152 193 255
152 193 255
152 193 255
152 193 255
152 193 255
152 193 255
152 193 255
152 193 255
152 193 255
152 193 255
152 193 255
152 193 255
151 193 255
151 193 255
151 193 255
151 193 255
151 193 255
151 193 255
151 193 255
151 193 255
151 193 255
151 193 255
151 193 255
151 193 255
151 193 255
151 193 255
151 193 255
151 193 255
151 193 255
151 193 255
151 193 255
151 193 255
151 193 255
151 193 255
151 193 255
151 193 255
151 193 255
151 193 255
151 193 255
151 193 255
151 193 255
151 193 255
151 193 255
151 193 255
151 193 255
151 193 255
151 193 255
151 193 255
151 193 255
151 193 255
151 193 255
151 193 255
151 193 255
151 193 255
151 193 255
151 193 255
151 193 255
151 193 255
152 193 255
152 193 255
152 193 255
152 193 255
152 193 255
152 193 255
152 193 255
152 193 255
152 193 255
152 193 255
152 193 255
152 193 255
152 193 255
152 194 255
152 194 255
152 194 255
152 194 255
152 194 255
153 194 255
153 194 255
153 194 255
153 194 255
153 194 255
153 194 255
153 194 255
153 194 255
153 194 255
153 194 255
153 194 255
153 194 255
153 194 255
154 194 255
154 194 255
154 194 255
154 194 255
154 195 255
154 195 255
154 195 255
154 195 255
154 195 255
154 195 255
154 195 255
155 195 255
155 195 255
155 195 255
155 195 255
155 195 255
155 195 255
155 195 255
155 195 255
155 195 255
155 195 255
156 196 255
156 196 255
156 196 255
156 196 255
156 196 255
156 196 255
156 196 255
156 196 255
156 196 255
156 196 255
157 196 255
157 196 255
157 196 255
157 196 255
157 196 255
157 196 255
157 197 255
157 197 255
157 197 255
158 197 255
158 197 255
158 197 255
158 197 255
158 197 255
158 197 255
158 197 255
158 197 255
158 197 255
159 197 255
159 197 255
159 197 255
159 197 255
159 198 255
159 198 255
159 198 255
159 198 255
159 198 255
159 198 255
160 198 255
160 198 255
160 198 255
160 198 255
160 198 255
160 198 255
160 198 255
160 198 255
160 198 255
161 199 255
161 199 255
161 199 255
161 199 255
161 199 255
161 199 255
161 199 255
161 199 255
161 199 255
161 199 255
162 199 255
162 199 255
162 199 255
162 199 255
162 199 255
162 199 255
162 199 255
162 200 255
162 200 255
162 200 255
163 200 255
163 200 255
163 200 255
163 200 255
163 200 255
163 200 255
163 200 255
163 200 255
163 200 255
163 200 255
164 200 255
164 200 255
164 200 255
164 201 255
164 201 255
164 201 255
164 201 255
164 201 255
164 201 255
164 201 255
164 201 255
165 201 255
165 201 255
165 201 255
165 201 255
165 201 255
165 201 255
165 201 255
165 201 255
165 201 255
165 201 255
165 201 255
166 202 255
166 202 255
166 202 255
166 202 255
166 202 255
166 202 255
166 202 255
166 202 255
166 202 255
166 202 255
166 202 255
167 202 255
167 202 255
167 202 255
167 202 255
167 202 255
167 202 255
167 202 255
167 202 255
167 203 255
167 203 255
167 203 255
167 203 255
167 203 255
168 203 255
168 203 255
168 203 255
168 203 255
168 203 255
168 203 255
168 203 255
167 203 255
167 203 255
167 203 255
167 203 255
167 202 255
167 202 255
167 202 255
167 202 255
167 202 255
167 202 255
167 202 255
167 202 255
166 202 255
166 202 255
166 202 255
166 202 255
166 202 255
166 202 255
166 202 255
166 202 255
166 202 255
166 202 255
166 202 255
166 202 255
165 201 255
165 201 255
165 201 255
165 201 255
165 201 255
165 201 255
165 201 255
165 201 255
165 201 255
165 201 255
165 201 255
164 201 255
164 201 255
164 201 255
164 201 255
164 201 255
164 201 255
164 201 255
164 200 255
164 200 255
164 200 255
164 200 255
163 200 255
163 200 255
163 200 255
163 200 255
163 200 255
163 200 255
163 200 255
163 200 255
163 200 255
163 200 255
162 200 255
162 200 255
162 200 255
162 199 255
162 199 255
162 199 255
162 199 255
162 199 255
162 199 255
161 199 255
161 199 255
161 199 255
161 199 255
161 199 255
161 199 255
161 199 255
161 199 255
161 199 255
161 199 255
160 198 255
160 198 255
160 198 255
160 198 255
160 198 255
160 198 255
160 198 255
160 198 255
160 198 255
160 198 255
159 198 255
159 198 255
159 198 255
159 198 255
159 198 255
159 198 255
159 197 255
159 197 255
159 197 255
158 197 255
158 197 255
158 197 255
158 197 255
158 197 255
158 197 255
158 197 255
158 197 255
158 197 255
157 197 255
157 197 255
157 197 255
157 196 255
157 196 255
157 196 255
157 196 255
157 196 255
157 196 255
157 196 255
156 196 255
156 196 255
156 196 255
156 196 255
156 196 255
156 196 255
156 196 255
156 196 255
156 196 255
156 196 255
155 195 255
155 195 255
155 195 255
155 195 255
155 195 255
155 195 255
155 195 255
155 195 255
155 195 255
155 195 255
154 195 255
154 195 255
154 195 255
154 195 255
154 195 255
154 195 255
154 195 255
154 195 255
154 194 255
154 194 255
154 194 255
153 194 255
153 194 255
153 194 255
153 194 255
153 194 255
153 194 255
153 194 255
153 194 255
153 194 255
153 194 255
153 194 255
153 194 255
153 194 255
153 194 255
152 194 255
152 194 255
152 194 255
152 194 255
152 194 255
152 194 255
152 193 255
152 193 255
152 193 255
152 193 255
152 193 255
152 193 255
152 193 255
152 193 255
152 193 255
152 193 255
152 193 255
152 193 255
152 193 255
152 193 255
152 193 255
151 193 255
151 193 255
151 193 255
151 193 255
151 193 255
151 193 255
151 193 255
151 193 255
151 193 255
151 193 255
151 193 255
151 193 255
151 193 255
151 193 255
151 193 255
151 193 255
151 193 255
151 193 255
151 193 255
151 193 255
151 193 255
151 193 255
151 193 255
151 193 255
151 193 255
151 193 255
151 193 255
151 193 255
151 193 255
151 193 255
151 193 255
151 193 255
152 193 255
152 193 255
152 193 255
152 193 255
152 193 255
152 193 255
152 193 255
152 193 255
152 193 255
152 193 255
152 193 255
152 193 255
152 193 255
152 193 255
152 193 255
152 194 255
152 194 255
152 194 255
152 194 255
152 194 255
152 194 255
153 194 255
153 194 255
153 194 255
153 194 255
153 194 255
153 194 255
153 194 255
153 194 255
153 194 255
153 194 255
153 194 255
153 194 255
153 194 255
154 194 255
154 194 255
154 194 255
154 194 255
154 194 255
154 195 255
154 195 255
154 195 255
154 195 255
154 195 255
154 195 255
154 195 255
155 195 255
155 195 255
155 195 255
155 195 255
155 195 255
155 195 255
155 195 255
155 195 255
155 195 255
155 195 255
156 196 255
156 196 255
156 196 255
156 196 255
156 196 255
156 196 255
156 196 255
156 196 255
156 196 255
156 196 255
157 196 255
157 196 255
157 196 255
157 196 255
157 196 255
157 196 255
157 196 255
157 197 255
157 197 255
157 197 255
158 197 255
158 197 255
158 197 255
158 197 255
158 197 255
158 197 255
158 197 255
158 197 255
158 197 255
159 197 255
159 197 255
159 197 255
159 198 255
159 198 255
159 198 255
159 198 255
159 198 255
159 198 255
160 198 255
160 198 255
160 198 255
160 198 255
160 198 255
160 198 255
160 198 255
160 198 255
160 198 255
160 198 255
161 199 255
161 199 255
161 199 255
161 199 255
161 199 255
161 199 255
161 199 255
161 199 255
161 199 255
161 199 255
162 199 255
162 199 255
162 199 255
162 199 255
162 199 255
162 199 255
162 200 255
162 200 255
162 200 255
163 200 255
163 200 255
163 200 255
163 200 255
163 200 255
163 200 255
163 200 255
163 200 255
163 200 255
163 200 255
163 200 255
164 200 255
164 200 255
164 200 255
164 201 255
164 201 255
164 201 255
164 201 255
164 201 255
164 201 255
164 201 255
165 201 255
165 201 255
165 201 255
165 201 255
165 201 255
165 201 255
165 201 255
165 201 255
165 201 255
165 201 255
165 201 255
166 202 255
166 202 255
166 202 255
166 202 255
166 202 255
166 202 255
166 202 255
166 202 255
166 202 255
166 202 255
166 202 255
166 202 255
167 202 255
167 202 255
167 202 255
167 202 255
167 202 255
167 202 255
167 202 255
167 202 255
167 203 255
167 203 255
167 203 255
167 203 255
168 203 255
168 203 255
168 203 255
168 203 255
168 203 255
168 203 255
168 203 255
168 203 255
168 203 255
168 203 255
168 203 255
168 203 255
168 203 255
167 203 255
167 203 255
167 203 255
167 203 255
167 202 255
167 202 255
167 202 255
167 202 255
167 202 255
167 202 255
167 202 255
167 202 255
166 202 255
166 202 255
166 202 255
166 202 255
166 202 255
166 202 255
166 202 255
166 202 255
166 202 255
166 202 255
166 202 255
166 202 255
165 201 255
165 201 255
165 201 255
165 201 255
165 201 255
165 201 255
165 201 255
165 201 255
165 201 255
165 201 255
164 201 255
164 201 255
164 201 255
164 201 255
164 201 255
164 201 255
164 201 255
164 201 255
164 200 255
164 200 255
164 200 255
163 200 255
163 200 255
163 200 255
163 200 255
163 200 255
163 200 255
163 200 255
163 200 255
163 200 255
163 200 255
162 200 255
162 200 255
162 200 255
162 200 255
162 199 255
162 199 255
162 199 255
162 199 255
162 199 255
162 199 255
161 199 255
161 199 255
161 199 255
161 199 255
161 199 255
161 199 255
161 199 255
161 199 255
161 199 255
161 199 255
160 198 255
160 198 255
160 198 255
160 198 255
160 198 255
160 198 255
160 198 255
160 198 255
160 198 255
159 198 255
159 198 255
159 198 255
159 198 255
159 198 255
159 198 255
159 197 255
159 197 255
159 197 255
159 197 255
158 197 255
158 197 255
158 197 255
158 197 255
158 197 255
158 197 255
158 197 255
158 197 255
158 197 255
157 197 255
157 197 255
157 197 255
157 196 255
157 196 255
157 196 255
157 196 255
157 196 255
157 196 255
156 196 255
156 196 255
156 196 255
156 196 255
156 196 255
156 196 255
156 196 255
156 196 255
156 196 255
156 196 255
155 195 255
155 195 255
155 195 255
155 195 255
155 195 255
155 195 255
155 195 255
155 195 255
155 195 255
155 195 255
155 195 255
154 195 255
154 195 255
154 195 255
154 195 255
154 195 255
154 195 255
154 195 255
154 195 255
154 194 255
154 194 255
154 194 255
154 194 255
153 194 255
153 194 255
153 194 255
153 194 255
153 194 255
153 194 255
153 194 255
153 194 255
153 194 255
153 194 255
153 194 255
153 194 255
153 194 255
153 194 255
152 194 255
152 194 255
152 194 255
152 194 255
152 194 255
152 194 255
152 194 255
152 193 255
152 193 255
152 193 255
152 193 255
152 193 255
152 193 255
152 193 255
152 193 255
152 193 255
152 193 255
152 193 255
152 193 255
152 193 255
152 193 255
152 193 255
152 193 255
152 193 255
152 193 255
152 193 255
152 193 255
152 193 255
152 193 255
152 193 255
152 193 255
152 193 255
152 193 255
152 193 255
152 193 255
152 193 255
152 193 255
152 193 255
152 193 255
152 193 255
152 193 255
152 193 255
152 193 255
152 193 255
152 193 255
152 193 255
152 193 255
152 193 255
152 193 255
152 193 255
152 193 255
152 193 255
152 193 255
152 193 255
152 193 255
152 193 255
152 193 255
152 193 255
152 193 255
152 194 255
152 194 255
152 194 255
152 194 255
152 194 255
152 194 255
152 194 255
153 194 255
153 194 255
153 194 255
153 194 255
153 194 255
153 194 255
153 194 255
153 194 255
153 194 255
153 194 255
153 194 255
153 194 255
153 194 255
153 194 255
154 194 255
154 194 255
154 194 255
154 194 255
154 195 255
154 195 255
154 195 255
154 195 255
154 195 255
154 195 255
154 195 255
154 195 255
155 195 255
155 195 255
155 195 255
155 195 255
155 195 255
155 195 255
155 195 255
155 195 255
155 195 255
155 195 255
156 196 255
156 196 255
156 196 255
156 196 255
156 196 255
156 196 255
156 196 255
156 196 255
156 196 255
156 196 255
156 196 255
157 196 255
157 196 255
157 196 255
157 196 255
157 196 255
157 196 255
157 197 255
157 197 255
157 197 255
158 197 255
158 197 255
158 197 255
158 197 255
158 197 255
158 197 255
158 197 255
158 197 255
158 197 255
158 197 255
159 197 255
159 197 255
159 197 255
159 198 255
159 198 255
159 198 255
159 198 255
159 198 255
159 198 255
160 198 255
160 198 255
160 198 255
160 198 255
160 198 255
160 198 255
160 198 255
160 198 255
160 198 255
161 199 255
161 199 255
161 199 255
161 199 255
161 199 255
161 199 255
161 199 255
161 199 255
161 199 255
161 199 255
162 199 255
162 199 255
162 199 255
162 199 255
162 199 255
162 199 255
162 199 255
162 200 255
162 200 255
162 200 255
163 200 255
163 200 255
163 200 255
163 200 255
163 200 255
163 200 255
163 200 255
163 200 255
163 200 255
163 200 255
164 200 255
164 200 255
164 200 255
164 201 255
164 201 255
164 201 255
164 201 255
164 201 255
164 201 255
164 201 255
165 201 255
165 201 255
165 201 255
165 201 255
165 201 255
165 201 255
165 201 255
165 201 255
165 201 255
165 201 255
165 201 255
166 202 255
166 202 255
166 202 255
166 202 255
166 202 255
166 202 255
166 202 255
166 202 255
166 202 255
166 202 255
166 202 255
166 202 255
167 202 255
167 202 255
167 202 255
167 202 255
167 202 255
167 202 255
167 202 255
167 202 255
167 203 255
167 203 255
167 203 255
167 203 255
168 203 255
168 203 255
168 203 255
168 203 255
168 203 255
168 203 255
168 203 255
168 203 255
168 203 255
168 203 255
168 203 255
168 203 255
168 203 255
168 203 255
168 203 255
168 203 255
168 203 255
168 203 255
168 203 255
167 203 255
167 203 255
167 203 255
167 203 255
167 202 255
167 202 255
167 202 255
167 202 255
167 202 255
167 202 255
167 202 255
167 202 255
166 202 255
166 202 255
166 202 255
166 202 255
166 202 255
166 202 255
166 202 255
166 202 255
166 202 255
166 202 255
166 202 255
165 201 255
165 201 255
165 201 255
165 201 255
165 201 255
165 201 255
165 201 255
165 201 255
165 201 255
165 201 255
165 201 255
164 201 255
164 201 255
164 201 255
164 201 255
164 201 255
164 201 255
164 201 255
164 200 255
164 200 255
164 200 255
164 200 255
163 200 255
163 200 255
163 200 255
163 200 255
163 200 255
163 200 255
163 200 255
163 200 255
163 200 255
163 200 255
162 200 255
162 200 255
162 200 255
162 199 255
162 199 255
162 199 255
162 199 255
162 199 255
162 199 255
162 199 255
161 199 255
161 199 255
161 199 255
161 199 255
161 199 255
161 199 255
161 199 255
161 199 255
161 199 255
160 198 255
160 198 255
160 198 255
160 198 255
160 198 255
160 198 255
160 198 255
160 198 255
160 198 255
159 198 255
159 198 255
159 198 255
159 198 255
159 198 255
159 198 255
159 198 255
159 197 255
159 197 255
159 197 255
158 197 255
158 197 255
158 197 255
158 197 255
158 197 255
158 197 255
158 197 255
158 197 255
158 197 255
157 197 255
157 197 255
157 197 255
157 197 255
157 196 255
157 196 255
157 196 255
157 196 255
157 196 255
157 196 255
156 196 255
156 196 255
156 196 255
156 196 255
156 196 255
156 196 255
156 196 255
156 196 255
156 196 255
156 196 255
155 195 255
155 195 255
155 195 255
155 195 255
155 195 255
155 195 255
155 195 255
155 195 255
155 195 255
155 195 255
155 195 255
154 195 255
154 195 255
154 195 255
154 195 255
154 195 255
154 195 255
154 195 255
154 195 255
154 194 255
154 194 255
154 194 255
154 194 255
153 194 255
153 194 255
153 194 255
153 194 255
153 194 255
153 194 255
153 194 255
153 194 255
153 194 255
153 194 255
153 194 255
153 194 255
153 194 255
153 194 255
153 194 255
153 194 255
152 194 255
152 194 255
152 194 255
152 194 255
152 194 255
152 194 255
152 194 255
152 194 255
152 193 255
152 193 255
152 193 255
152 193 255
152 193 255
152 193 255
152 193 255
152 193 255
152 193 255
152 193 255
152 193 255
152 193 255
152 193 255
152 193 255
152 193 255
152 193 255
152 193 255
152 193 255
152 193 255
152 193 255
152 193 255
152 193 255
152 193 255
152 193 255
152 193 255
152 193 255
152 193 255
152 193 255
152 193 255
152 193 255
152 193 255
152 193 255
152 193 255
152 193 255
152 193 255
152 193 255
152 193 255
152 193 255
152 193 255
152 194 255
152 194 255
152 194 255
152 194 255
152 194 255
152 194 255
152 194 255
152 194 255
152 194 255
153 194 255
153 194 255
153 194 255
153 194 255
153 194 255
153 194 255
153 194 255
153 194 255
153 194 255
153 194 255
153 194 255
153 194 255
153 194 255
153 194 255
153 194 255
154 194 255
154 194 255
154 194 255
154 194 255
154 194 255
154 195 255
154 195 255
154 195 255
154 195 255
154 195 255
154 195 255
154 195 255
154 195 255
155 195 255
155 195 255
155 195 255
155 195 255
155 195 255
155 195 255
155 195 255
155 195 255
155 195 255
155 195 255
155 195 255
156 196 255
156 196 255
156 196 255
156 196 255
156 196 255
156 196 255
156 196 255
156 196 255
156 196 255
156 196 255
157 196 255
157 196 255
157 196 255
157 196 255
157 196 255
157 196 255
157 197 255
157 197 255
157 197 255
158 197 255
158 197 255
158 197 255
158 197 255
158 197 255
158 197 255
158 197 255
158 197 255
158 197 255
158 197 255
159 197 255
159 197 255
159 197 255
159 198 255
159 198 255
159 198 255
159 198 255
159 198 255
159 198 255
160 198 255
160 198 255
160 198 255
160 198 255
160 198 255
160 198 255
160 198 255
160 198 255
160 198 255
160 198 255
161 199 255
161 199 255
161 199 255
161 199 255
161 199 255
161 199 255
161 199 255
161 199 255
161 199 255
162 199 255
162 199 255
162 199 255
162 199 255
162 199 255
162 199 255
162 199 255
162 200 255
162 200 255
162 200 255
163 200 255
163 200 255
163 200 255
163 200 255
163 200 255
163 200 255
163 200 255
163 200 255
163 200 255
163 200 255
164 200 255
164 200 255
164 200 255
164 200 255
164 201 255
164 201 255
164 201 255
164 201 255
164 201 255
164 201 255
164 201 255
165 201 255
165 201 255
165 201 255
165 201 255
165 201 255
165 201 255
165 201 255
165 201 255
165 201 255
165 201 255
165 201 255
166 202 255
166 202 255
166 202 255
166 202 255
166 202 255
166 202 255
166 202 255
166 202 255
166 202 255
166 202 255
166 202 255
167 202 255
167 202 255
167 202 255
167 202 255
167 202 255
167 202 255
167 202 255
167 202 255
167 203 255
167 203 255
167 203 255
167 203 255
168 203 255
168 203 255
168 203 255
168 203 255
168 203 255
168 203 255
168 203 255
168 203 255
168 203 255
168 203 255
168 203 255
169 203 255
168 203 255
168 203 255
168 203 255
168 203 255
168 203 255
168 203 255
168 203 255
168 203 255
168 203 255
168 203 255
168 203 255
168 203 255
168 203 255
167 203 255
167 203 255
167 203 255
167 203 255
167 202 255
167 202 255
167 202 255
167 202 255
167 202 255
167 202 255
167 202 255
167 202 255
166 202 255
166 202 255
166 202 255
166 202 255
166 202 255
166 202 255
166 202 255
166 202 255
166 202 255
166 202 255
166 202 255
165 201 255
165 201 255
165 201 255
165 201 255
165 201 255
165 201 255
165 201 255
165 201 255
165 201 255
165 201 255
165 201 255
164 201 255
164 201 255
164 201 255
164 201 255
164 201 255
164 201 255
164 201 255
164 200 255
164 200 255
164 200 255
163 200 255
163 200 255
163 200 255
163 200 255
163 200 255
163 200 255
163 200 255
163 200 255
163 200 255
163 200 255
162 200 255
162 200 255
162 200 255
162 200 255
162 199 255
162 199 255
162 199 255
162 199 255
162 199 255
162 199 255
161 199 255
161 199 255
161 199 255
161 199 255
161 199 255
161 199 255
161 199 255
161 199 255
161 199 255
161 199 255
160 198 255
160 198 255
160 198 255
160 198 255
160 198 255
160 198 255
160 198 255
160 198 255
160 198 255
159 198 255
159 198 255
159 198 255
159 198 255
159 198 255
159 198 255
159 197 255
159 197 255
159 197 255
159 197 255
158 197 255
158 197 255
158 197 255
158 197 255
158 197 255
158 197 255
158 197 255
158 197 255
158 197 255
157 197 255
157 197 255
157 197 255
157 196 255
157 196 255
157 196 255
157 196 255
157 196 255
157 196 255
157 196 255
156 196 255
156 196 255
156 196 255
156 196 255
156 196 255
156 196 255
156 196 255
156 196 255
156 196 255
156 196 255
155 195 255
155 195 255
155 195 255
155 195 255
155 195 255
155 195 255
155 195 255
155 195 255
155 195 255
155 195 255
155 195 255
155 195 255
154 195 255
154 195 255
154 195 255
154 195 255
154 195 255
154 195 255
154 195 255
154 195 255
154 194 255
154 194 255
154 194 255
154 194 255
153 194 255
153 194 255
153 194 255
153 194 255
153 194 255
153 194 255
153 194 255
153 194 255
153 194 255
153 194 255
153 194 255
153 194 255
153 194 255
153 194 255
153 194 255
153 194 255
153 194 255
153 194 255
153 194 255
152 194 255
152 194 255
152 194 255
152 194 255
152 194 255
152 194 255
152 194 255
152 194 255
152 194 255
152 194 255
152 193 255
152 194 255
152 193 255
152 193 255
152 193 255
152 193 255
152 193 255
152 193 255
152 193 255
152 193 255
152 193 255
152 193 255
152 193 255
152 193 255
152 193 255
152 193 255
152 193 255
152 193 255
152 193 255
152 193 255
152 193 255
152 193 255
152 194 255
152 194 255
152 194 255
152 194 255
152 194 255
152 194 255
152 194 255
152 194 255
152 194 255
152 194 255
153 194 255
153 194 255
153 194 255
153 194 255
153 194 255
153 194 255
153 194 255
153 194 255
153 194 255
153 194 255
153 194 255
153 194 255
153 194 255
153 194 255
153 194 255
153 194 255
153 194 255
153 194 255
153 194 255
154 194 255
154 194 255
154 194 255
154 194 255
154 195 255
154 195 255
154 195 255
154 195 255
154 195 255
154 195 255
154 195 255
154 195 255
154 195 255
155 195 255
155 195 255
155 195 255
155 195 255
155 195 255
155 195 255
155 195 255
155 195 255
155 195 255
155 195 255
155 195 255
156 196 255
156 196 255
156 196 255
156 196 255
156 196 255
156 196 255
156 196 255
156 196 255
156 196 255
156 196 255
157 196 255
157 196 255
157 196 255
157 196 255
157 196 255
157 196 255
157 196 255
157 197 255
157 197 255
157 197 255
158 197 255
158 197 255
158 197 255
158 197 255
158 197 255
158 197 255
158 197 255
158 197 255
158 197 255
159 197 255
159 197 255
159 197 255
159 197 255
159 198 255
159 198 255
159 198 255
159 198 255
159 198 255
159 198 255
160 198 255
160 198 255
160 198 255
160 198 255
160 198 255
160 198 255
160 198 255
160 198 255
160 198 255
161 199 255
161 199 255
161 199 255
161 199 255
161 199 255
161 199 255
161 199 255
161 199 255
161 199 255
161 199 255
162 199 255
162 199 255
162 199 255
162 199 255
162 199 255
162 199 255
162 200 255
162 200 255
162 200 255
162 200 255
163 200 255
163 200 255
163 200 255
163 200 255
163 200 255
163 200 255
163 200 255
163 200 255
163 200 255
163 200 255
164 200 255
164 200 255
164 200 255
164 201 255
164 201 255
164 201 255
164 201 255
164 201 255
164 201 255
164 201 255
165 201 255
165 201 255
165 201 255
165 201 255
165 201 255
165 201 255
165 201 255
165 201 255
165 201 255
165 201 255
165 201 255
166 202 255
166 202 255
166 202 255
166 202 255
166 202 255
166 202 255
166 202 255
166 202 255
166 202 255
166 202 255
166 202 255
167 202 255
167 202 255
167 202 255
167 202 255
167 202 255
167 202 255
167 202 255
167 202 255
167 203 255
167 203 255
167 203 255
167 203 255
168 203 255
168 203 255
168 203 255
168 203 255
168 203 255
168 203 255
168 203 255
168 203 255
168 203 255
168 203 255
168 203 255
168 203 255
168 203 255
169 203 255
169 203 255
169 203 255
169 203 255
169 203 255
168 203 255
168 203 255
168 203 255
168 203 255
168 203 255
168 203 255
168 203 255
168 203 255
168 203 255
168 203 255
168 203 255
168 203 255
168 203 255
167 203 255
167 203 255
167 203 255
167 203 255
167 202 255
167 202 255
167 202 255
167 202 255
167 202 255
167 202 255
167 202 255
167 202 255
166 202 255
166 202 255
166 202 255
166 202 255
166 202 255
166 202 255
166 202 255
166 202 255
166 202 255
166 202 255
166 202 255
165 201 255
165 201 255
165 201 255
165 201 255
165 201 255
165 201 255
165 201 255
165 201 255
165 201 255
165 201 255
165 201 255
164 201 255
164 201 255
164 201 255
164 201 255
164 201 255
164 201 255
164 200 255
164 200 255
164 200 255
164 200 255
163 200 255
163 200 255
163 200 255
163 200 255
163 200 255
163 200 255
163 200 255
163 200 255
163 200 255
163 200 255
162 200 255
162 200 255
162 200 255
162 199 255
162 199 255
162 199 255
162 199 255
162 199 255
162 199 255
162 199 255
161 199 255
161 199 255
161 199 255
161 199 255
161 199 255
161 199 255
161 199 255
161 199 255
161 199 255
160 198 255
160 198 255
160 198 255
160 198 255
160 198 255
160 198 255
160 198 255
160 198 255
160 198 255
160 198 255
159 198 255
159 198 255
159 198 255
159 198 255
159 198 255
159 198 255
159 197 255
159 197 255
159 197 255
158 197 255
158 197 255
158 197 255
158 197 255
158 197 255
158 197 255
158 197 255
158 197 255
158 197 255
158 197 255
157 197 255
157 197 255
157 197 255
157 196 255
157 196 255
157 196 255
157 196 255
157 196 255
157 196 255
157 196 255
156 196 255
156 196 255
156 196 255
156 196 255
156 196 255
156 196 255
156 196 255
156 196 255
156 196 255
156 196 255
155 195 255
155 195 255
155 195 255
155 195 255
155 195 255
155 195 255
155 195 255
155 195 255
155 195 255
155 195 255
155 195 255
155 195 255
154 195 255
154 195 255
154 195 255
154 195 255
154 195 255
154 195 255
154 195 255
154 195 255
154 195 255
154 194 255
154 194 255
154 194 255
154 194 255
154 194 255
153 194 255
153 194 255
153 194 255
153 194 255
153 194 255
153 194 255
153 194 255
153 194 255
153 194 255
153 194 255
153 194 255
153 194 255
153 194 255
153 194 255
153 194 255
153 194 255
153 194 255
153 194 255
153 194 255
153 194 255
153 194 255
153 194 255
153 194 255
152 194 255
152 194 255
152 194 255
152 194 255
152 194 255
152 194 255
152 194 255
152 194 255
152 194 255
152 194 255
152 194 255
152 194 255
152 194 255
152 194 255
152 194 255
152 194 255
152 194 255
152 194 255
152 194 255
152 194 255
152 194 255
152 194 255
152 194 255
152 194 255
152 194 255
153 194 255
153 194 255
153 194 255
153 194 255
153 194 255
153 194 255
153 194 255
153 194 255
153 194 255
153 194 255
153 194 255
153 194 255
153 194 255
153 194 255
153 194 255
153 194 255
153 194 255
153 194 255
153 194 255
153 194 255
153 194 255
153 194 255
154 194 255
154 194 255
154 194 255
154 194 255
154 194 255
154 195 255
154 195 255
154 195 255
154 195 255
154 195 255
154 195 255
154 195 255
154 195 255
154 195 255
155 195 255
155 195 255
155 195 255
155 195 255
155 195 255
155 195 255
155 195 255
155 195 255
155 195 255
155 195 255
155 195 255
155 195 255
156 196 255
156 196 255
156 196 255
156 196 255
156 196 255
156 196 255
156 196 255
156 196 255
156 196 255
156 196 255
157 196 255
157 196 255
157 196 255
157 196 255
157 196 255
157 196 255
157 196 255
157 197 255
157 197 255
157 197 255
158 197 255
158 197 255
158 197 255
158 197 255
158 197 255
158 197 255
158 197 255
158 197 255
158 197 255
158 197 255
159 197 255
159 197 255
159 197 255
159 198 255
159 198 255
159 198 255
159 198 255
159 198 255
159 198 255
160 198 255
160 198 255
160 198 255
160 198 255
160 198 255
160 198 255
160 198 255
160 198 255
160 198 255
160 198 255
161 199 255
161 199 255
161 199 255
161 199 255
161 199 255
161 199 255
161 199 255
161 199 255
161 199 255
162 199 255
162 199 255
162 199 255
162 199 255
162 199 255
162 199 255
162 199 255
162 200 255
162 200 255
162 200 255
163 200 255
163 200 255
163 200 255
163 200 255
163 200 255
163 200 255
163 200 255
163 200 255
163 200 255
163 200 255
164 200 255
164 200 255
164 200 255
164 200 255
164 201 255
164 201 255
164 201 255
164 201 255
164 201 255
164 201 255
165 201 255
165 201 255
165 201 255
165 201 255
165 201 255
165 201 255
165 201 255
165 201 255
165 201 255
165 201 255
165 201 255
166 202 255
166 202 255
166 202 255
166 202 255
166 202 255
166 202 255
166 202 255
166 202 255
166 202 255
166 202 255
166 202 255
167 202 255
167 202 255
167 202 255
167 202 255
167 202 255
167 202 255
167 202 255
167 202 255
167 203 255
167 203 255
167 203 255
167 203 255
168 203 255
168 203 255
168 203 255
168 203 255
168 203 255
168 203 255
168 203 255
168 203 255
168 203 255
168 203 255
168 203 255
168 203 255
168 203 255
169 203 255
169 203 255
169 203 255
169 203 255
169 204 255
169 204 255
169 204 255
169 203 255
169 203 255
169 203 255
169 203 255
168 203 255
168 203 255
168 203 255
168 203 255
168 203 255
168 203 255
168 203 255
168 203 255
168 203 255
168 203 255
168 203 255
168 203 255
168 203 255
167 203 255
167 203 255
167 203 255
167 203 255
167 202 255
167 202 255
167 202 255
167 202 255
167 202 255
167 202 255
167 202 255
166 202 255
166 202 255
166 202 255
166 202 255
166 202 255
166 202 255
166 202 255
166 202 255
166 202 255
166 202 255
166 202 255
166 202 255
165 201 255
165 201 255
165 201 255
165 201 255
165 201 255
165 201 255
165 201 255
165 201 255
165 201 255
165 201 255
164 201 255
164 201 255
164 201 255
164 201 255
164 201 255
164 201 255
164 201 255
164 200 255
164 200 255
164 200 255
164 200 255
163 200 255
163 200 255
163 200 255
163 200 255
163 200 255
163 200 255
163 200 255
163 200 255
163 200 255
163 200 255
162 200 255
162 200 255
162 200 255
162 199 255
162 199 255
162 199 255
162 199 255
162 199 255
162 199 255
161 199 255
161 199 255
161 199 255
161 199 255
161 199 255
161 199 255
161 199 255
161 199 255
161 199 255
161 199 255
160 198 255
160 198 255
160 198 255
160 198 255
160 198 255
160 198 255
160 198 255
160 198 255
160 198 255
159 198 255
159 198 255
159 198 255
159 198 255
159 198 255
159 198 255
159 198 255
159 197 255
159 197 255
159 197 255
158 197 255
158 197 255
158 197 255
158 197 255
158 197 255
158 197 255
158 197 255
158 197 255
158 197 255
158 197 255
157 197 255
157 197 255
157 197 255
157 196 255
157 196 255
157 196 255
157 196 255
157 196 255
157 196 255
157 196 255
156 196 255
156 196 255
156 196 255
156 196 255
156 196 255
156 196 255
156 196 255
156 196 255
156 196 255
156 196 255
155 195 255
155 195 255
155 195 255
155 195 255
155 195 255
155 195 255
155 195 255
155 195 255
155 195 255
155 195 255
155 195 255
155 195 255
154 195 255
154 195 255
154 195 255
154 195 255
154 195 255
154 195 255
154 195 255
154 195 255
154 195 255
154 195 255
154 194 255
154 194 255
154 194 255
154 194 255
154 194 255
154 194 255
153 194 255
153 194 255
153 194 255
153 194 255
153 194 255
153 194 255
153 194 255
153 194 255
153 194 255
153 194 255
153 194 255
153 194 255
153 194 255
153 194 255
153 194 255
153 194 255
153 194 255
153 194 255
153 194 255
153 194 255
153 194 255
153 194 255
153 194 255
153 194 255
153 194 255
153 194 255
153 194 255
153 194 255
153 194 255
153 194 255
153 194 255
153 194 255
153 194 255
153 194 255
153 194 255
153 194 255
153 194 255
153 194 255
153 194 255
153 194 255
153 194 255
153 194 255
153 194 255
153 194 255
153 194 255
153 194 255
153 194 255
153 194 255
153 194 255
153 194 255
153 194 255
153 194 255
153 194 255
153 194 255
153 194 255
153 194 255
153 194 255
153 194 255
153 194 255
153 194 255
154 194 255
154 194 255
154 194 255
154 194 255
154 194 255
154 194 255
154 195 255
154 195 255
154 195 255
154 195 255
154 195 255
154 195 255
154 195 255
154 195 255
154 195 255
154 195 255
155 195 255
155 195 255
155 195 255
155 195 255
155 195 255
155 195 255
155 195 255
155 195 255
155 195 255
155 195 255
155 195 255
155 195 255
156 196 255
156 196 255
156 196 255
156 196 255
156 196 255
156 196 255
156 196 255
156 196 255
156 196 255
156 196 255
157 196 255
157 196 255
157 196 255
157 196 255
157 196 255
157 196 255
157 196 255
157 197 255
157 197 255
157 197 255
158 197 255
158 197 255
158 197 255
158 197 255
158 197 255
158 197 255
158 197 255
158 197 255
158 197 255
158 197 255
159 197 255
159 197 255
159 197 255
159 198 255
159 198 255
159 198 255
159 198 255
159 198 255
159 198 255
159 198 255
160 198 255
160 198 255
160 198 255
160 198 255
160 198 255
160 198 255
160 198 255
160 198 255
160 198 255
161 199 255
161 199 255
161 199 255
161 199 255
161 199 255
161 199 255
161 199 255
161 199 255
161 199 255
161 199 255
162 199 255
162 199 255
162 199 255
162 199 255
162 199 255
162 199 255
162 200 255
162 200 255
162 200 255
163 200 255
163 200 255
163 200 255
163 200 255
163 200 255
163 200 255
163 200 255
163 200 255
163 200 255
163 200 255
164 200 255
164 200 255
164 200 255
164 200 255
164 201 255
164 201 255
164 201 255
164 201 255
164 201 255
164 201 255
164 201 255
165 201 255
165 201 255
165 201 255
165 201 255
165 201 255
165 201 255
165 201 255
165 201 255
165 201 255
165 201 255
166 202 255
166 202 255
166 202 255
166 202 255
166 202 255
166 202 255
166 202 255
166 202 255
166 202 255
166 202 255
166 202 255
167 202 255
167 202 255
167 202 255
167 202 255
167 202 255
167 202 255
167 202 255
167 202 255
167 203 255
167 203 255
167 203 255
167 203 255
168 203 255
168 203 255
168 203 255
168 203 255
168 203 255
168 203 255
168 203 255
168 203 255
168 203 255
168 203 255
168 203 255
168 203 255
168 203 255
169 203 255
169 203 255
169 203 255
169 203 255
169 204 255
169 204 255
169 204 255
169 204 255
169 204 255
169 204 255
169 204 255
169 204 255
169 204 255
169 203 255
169 203 255
169 203 255
169 203 255
168 203 255
168 203 255
168 203 255
168 203 255
168 203 255
168 203 255
168 203 255
168 203 255
168 203 255
168 203 255
168 203 255
168 203 255
167 203 255
167 203 255
167 203 255
167 203 255
167 202 255
167 202 255
167 202 255
167 202 255
167 202 255
167 202 255
167 202 255
167 202 255
166 202 255
166 202 255
166 202 255
166 202 255
166 202 255
166 202 255
166 202 255
166 202 255
166 202 255
166 202 255
166 202 255
165 201 255
165 201 255
165 201 255
165 201 255
165 201 255
165 201 255
165 201 255
165 201 255
165 201 255
165 201 255
165 201 255
164 201 255
164 201 255
164 201 255
164 201 255
164 201 255
164 201 255
164 201 255
164 200 255
164 200 255
164 200 255
163 200 255
163 200 255
163 200 255
163 200 255
163 200 255
163 200 255
163 200 255
163 200 255
163 200 255
163 200 255
162 200 255
162 200 255
162 200 255
162 199 255
162 199 255
162 199 255
162 199 255
162 199 255
162 199 255
162 199 255
161 199 255
161 199 255
161 199 255
161 199 255
161 199 255
161 199 255
161 199 255
161 199 255
161 199 255
160 198 255
160 198 255
160 198 255
160 198 255
160 198 255
160 198 255
160 198 255
160 198 255
160 198 255
160 198 255
159 198 255
159 198 255
159 198 255
159 198 255
159 198 255
159 198 255
159 197 255
159 197 255
159 197 255
159 197 255
158 197 255
158 197 255
158 197 255
158 197 255
158 197 255
158 197 255
158 197 255
158 197 255
158 197 255
157 197 255
157 197 255
157 197 255
157 197 255
157 196 255
157 196 255
157 196 255
157 196 255
157 196 255
157 196 255
157 196 255
156 196 255
156 196 255
156 196 255
156 196 255
156 196 255
156 196 255
156 196 255
156 196 255
156 196 255
156 196 255
156 196 255
155 195 255
155 195 255
155 195 255
155 195 255
155 195 255
155 195 255
155 195 255
155 195 255
155 195 255
155 195 255
155 195 255
155 195 255
154 195 255
154 195 255
154 195 255
154 195 255
154 195 255
154 195 255
154 195 255
154 195 255
154 195 255
154 195 255
154 195 255
154 194 255
154 194 255
154 194 255
154 194 255
154 194 255
154 194 255
153 194 255
153 194 255
153 194 255
153 194 255
153 194 255
153 194 255
153 194 255
153 194 255
153 194 255
153 194 255
153 194 255
153 194 255
153 194 255
153 194 255
153 194 255
153 194 255
153 194 255
153 194 255
153 194 255
153 194 255
153 194 255
153 194 255
153 194 255
153 194 255
153 194 255
153 194 255
153 194 255
153 194 255
153 194 255
153 194 255
153 194 255
153 194 255
153 194 255
153 194 255
153 194 255
153 194 255
153 194 255
153 194 255
153 194 255
153 194 255
153 194 255
153 194 255
153 194 255
153 194 255
153 194 255
153 194 255
153 194 255
153 194 255
153 194 255
153 194 255
154 194 255
154 194 255
154 194 255
154 194 255
154 194 255
154 194 255
154 195 255
154 195 255
154 195 255
154 195 255
154 195 255
154 195 255
154 195 255
154 195 255
154 195 255
154 195 255
154 195 255
155 195 255
155 195 255
155 195 255
155 195 255
155 195 255
155 195 255
155 195 255
155 195 255
155 195 255
155 195 255
155 195 255
155 195 255
156 196 255
156 196 255
156 196 255
156 196 255
156 196 255
156 196 255
156 196 255
156 196 255
156 196 255
156 196 255
156 196 255
157 196 255
157 196 255
157 196 255
157 196 255
157 196 255
157 196 255
157 196 255
157 197 255
157 197 255
157 197 255
158 197 255
158 197 255
158 197 255
158 197 255
158 197 255
158 197 255
158 197 255
158 197 255
158 197 255
158 197 255
159 197 255
159 197 255
159 197 255
159 197 255
159 198 255
159 198 255
159 198 255
159 198 255
159 198 255
159 198 255
160 198 255
160 198 255
160 198 255
160 198 255
160 198 255
160 198 255
160 198 255
160 198 255
160 198 255
161 199 255
161 199 255
161 199 255
161 199 255
161 199 255
161 199 255
161 199 255
161 199 255
161 199 255
161 199 255
162 199 255
162 199 255
162 199 255
162 199 255
162 199 255
162 199 255
162 200 255
162 200 255
162 200 255
162 200 255
163 200 255
163 200 255
163 200 255
163 200 255
163 200 255
163 200 255
163 200 255
163 200 255
163 200 255
163 200 255
164 200 255
164 200 255
164 200 255
164 201 255
164 201 255
164 201 255
164 201 255
164 201 255
164 201 255
164 201 255
165 201 255
165 201 255
165 201 255
165 201 255
165 201 255
165 201 255
165 201 255
165 201 255
165 201 255
165 201 255
165 201 255
166 202 255
166 202 255
166 202 255
166 202 255
166 202 255
166 202 255
166 202 255
166 202 255
166 202 255
166 202 255
166 202 255
167 202 255
167 202 255
167 202 255
167 202 255
167 202 255
167 202 255
167 202 255
167 202 255
167 203 255
167 203 255
167 203 255
167 203 255
168 203 255
168 203 255
168 203 255
168 203 255
168 203 255
168 203 255
168 203 255
168 203 255
168 203 255
168 203 255
168 203 255
168 203 255
169 203 255
169 203 255
169 203 255
169 203 255
169 204 255
169 204 255
169 204 255
169 204 255
169 204 255
169 204 255
169 204 255
169 204 255
169 204 255
169 204 255
169 204 255
169 204 255
169 204 255
169 204 255
169 204 255
169 203 255
169 203 255
169 203 255
169 203 255
168 203 255
168 203 255
168 203 255
168 203 255
168 203 255
168 203 255
168 203 255
168 203 255
168 203 255
168 203 255
168 203 255
168 203 255
167 203 255
167 203 255
167 203 255
167 203 255
167 202 255
167 202 255
167 202 255
167 202 255
167 202 255
167 202 255
167 202 255
167 202 255
166 202 255
166 202 255
166 202 255
166 202 255
166 202 255
166 202 255
166 202 255
166 202 255
166 202 255
166 202 255
166 202 255
165 201 255
165 201 255
165 201 255
165 201 255
165 201 255
165 201 255
165 201 255
165 201 255
165 201 255
165 201 255
165 201 255
164 201 255
164 201 255
164 201 255
164 201 255
164 201 255
164 201 255
164 201 255
164 200 255
164 200 255
164 200 255
163 200 255
163 200 255
163 200 255
163 200 255
163 200 255
163 200 255
163 200 255
163 200 255
163 200 255
163 200 255
162 200 255
162 200 255
162 200 255
162 199 255
162 199 255
162 199 255
162 199 255
162 199 255
162 199 255
162 199 255
161 199 255
161 199 255
161 199 255
161 199 255
161 199 255
161 199 255
161 199 255
161 199 255
161 199 255
160 198 255
160 198 255
160 198 255
160 198 255
160 198 255
160 198 255
160 198 255
160 198 255
160 198 255
160 198 255
159 198 255
159 198 255
159 198 255
159 198 255
159 198 255
159 198 255
159 197 255
159 197 255
159 197 255
158 197 255
158 197 255
158 197 255
158 197 255
158 197 255
158 197 255
158 197 255
158 197 255
158 197 255
158 197 255
157 197 255
157 197 255
157 197 255
157 197 255
157 196 255
157 196 255
157 196 255
157 196 255
157 196 255
157 196 255
157 196 255
156 196 255
156 196 255
156 196 255
156 196 255
156 196 255
156 196 255
156 196 255
156 196 255
156 196 255
156 196 255
156 196 255
155 195 255
155 195 255
155 195 255
155 195 255
155 195 255
155 195 255
155 195 255
155 195 255
155 195 255
155 195 255
155 195 255
155 195 255
155 195 255
155 195 255
154 195 255
154 195 255
154 195 255
154 195 255
154 195 255
154 195 255
154 195 255
154 195 255
154 195 255
154 195 255
154 195 255
154 194 255
154 194 255
154 194 255
154 194 255
154 194 255
154 194 255
154 194 255
154 194 255
154 194 255
153 194 255
153 194 255
153 194 255
153 194 255
153 194 255
153 194 255
153 194 255
153 194 255
153 194 255
153 194 255
153 194 255
153 194 255
153 194 255
153 194 255
153 194 255
153 194 255
153 194 255
153 194 255
153 194 255
153 194 255
153 194 255
153 194 255
153 194 255
153 194 255
153 194 255
153 194 255
153 194 255
153 194 255
153 194 255
153 194 255
153 194 255
153 194 255
153 194 255
153 194 255
153 194 255
154 194 255
154 194 255
154 194 255
154 194 255
154 194 255
154 194 255
154 194 255
154 194 255
154 195 255
154 195 255
154 195 255
154 195 255
154 195 255
154 195 255
154 195 255
154 195 255
154 195 255
154 195 255
154 195 255
155 195 255
155 195 255
155 195 255
155 195 255
155 195 255
155 195 255
155 195 255
155 195 255
155 195 255
155 195 255
155 195 255
155 195 255
155 195 255
155 195 255
156 196 255
156 196 255
156 196 255
156 196 255
156 196 255
156 196 255
156 196 255
156 196 255
156 196 255
156 196 255
156 196 255
157 196 255
157 196 255
157 196 255
157 196 255
157 196 255
157 196 255
157 196 255
157 197 255
157 197 255
157 197 255
157 197 255
158 197 255
158 197 255
158 197 255
158 197 255
158 197 255
158 197 255
158 197 255
158 197 255
158 197 255
158 197 255
159 197 255
159 197 255
159 197 255
159 198 255
159 198 255
159 198 255
159 198 255
159 198 255
159 198 255
160 198 255
160 198 255
160 198 255
160 198 255
160 198 255
160 198 255
160 198 255
160 198 255
160 198 255
160 198 255
161 199 255
161 199 255
161 199 255
161 199 255
161 199 255
161 199 255
161 199 255
161 199 255
161 199 255
162 199 255
162 199 255
162 199 255
162 199 255
162 199 255
162 199 255
162 199 255
162 200 255
162 200 255
162 200 255
163 200 255
163 200 255
163 200 255
163 200 255
163 200 255
163 200 255
163 200 255
163 200 255
163 200 255
163 200 255
164 200 255
164 200 255
164 200 255
164 201 255
164 201 255
164 201 255
164 201 255
164 201 255
164 201 255
164 201 255
165 201 255
165 201 255
165 201 255
165 201 255
165 201 255
165 201 255
165 201 255
165 201 255
165 201 255
165 201 255
165 201 255
166 202 255
166 202 255
166 202 255
166 202 255
166 202 255
166 202 255
166 202 255
166 202 255
166 202 255
166 202 255
166 202 255
167 202 255
167 202 255
167 202 255
167 202 255
167 202 255
167 202 255
167 202 255
167 202 255
167 203 255
167 203 255
167 203 255
168 203 255
168 203 255
168 203 255
168 203 255
168 203 255
168 203 255
168 203 255
168 203 255
168 203 255
168 203 255
168 203 255
168 203 255
168 203 255
169 203 255
169 203 255
169 203 255
169 203 255
169 204 255
169 204 255
169 204 255
169 204 255
169 204 255
169 204 255
169 204 255
169 204 255
169 204 255
170 204 255
170 204 255
170 204 255
169 204 255
169 204 255
169 204 255
169 204 255
169 204 255
169 204 255
169 204 255
169 204 255
169 204 255
169 203 255
169 203 255
169 203 255
169 203 255
168 203 255
168 203 255
168 203 255
168 203 255
168 203 255
168 203 255
168 203 255
168 203 255
168 203 255
168 203 255
168 203 255
168 203 255
168 203 255
167 203 255
167 203 255
167 203 255
167 202 255
167 202 255
167 202 255
167 202 255
167 202 255
167 202 255
167 202 255
167 202 255
166 202 255
166 202 255
166 202 255
166 202 255
166 202 255
166 202 255
166 202 255
166 202 255
166 202 255
166 202 255
166 202 255
165 201 255
165 201 255
165 201 255
165 201 255
165 201 255
165 201 255
165 201 255
165 201 255
165 201 255
165 201 255
165 201 255
164 201 255
164 201 255
164 201 255
164 201 255
164 201 255
164 201 255
164 200 255
164 200 255
164 200 255
164 200 255
163 200 255
163 200 255
163 200 255
163 200 255
163 200 255
163 200 255
163 200 255
163 200 255
163 200 255
163 200 255
162 200 255
162 200 255
162 200 255
162 199 255
162 199 255
162 199 255
162 199 255
162 199 255
162 199 255
161 199 255
161 199 255
161 199 255
161 199 255
161 199 255
161 199 255
161 199 255
161 199 255
161 199 255
161 199 255
160 198 255
160 198 255
160 198 255
160 198 255
160 198 255
160 198 255
160 198 255
160 198 255
160 198 255
159 198 255
159 198 255
159 198 255
159 198 255
159 198 255
159 198 255
159 198 255
159 197 255
159 197 255
159 197 255
158 197 255
158 197 255
158 197 255
158 197 255
158 197 255
158 197 255
158 197 255
158 197 255
158 197 255
158 197 255
157 197 255
157 197 255
157 197 255
157 197 255
157 196 255
157 196 255
157 196 255
157 196 255
157 196 255
157 196 255
157 196 255
156 196 255
156 196 255
156 196 255
156 196 255
156 196 255
156 196 255
156 196 255
156 196 255
156 196 255
156 196 255
156 196 255
156 196 255
155 195 255
155 195 255
155 195 255
155 195 255
155 195 255
155 195 255
155 195 255
155 195 255
155 195 255
155 195 255
155 195 255
155 195 255
155 195 255
155 195 255
154 195 255
154 195 255
154 195 255
154 195 255
154 195 255
154 195 255
154 195 255
154 195 255
154 195 255
154 195 255
154 195 255
154 195 255
154 195 255
154 195 255
154 195 255
154 194 255
154 194 255
154 194 255
154 194 255
154 194 255
154 194 255
154 194 255
154 194 255
154 194 255
154 194 255
154 194 255
154 194 255
154 194 255
154 194 255
154 194 255
154 194 255
154 194 255
154 194 255
154 194 255
154 194 255
154 194 255
154 194 255
154 194 255
154 194 255
154 194 255
154 194 255
154 194 255
154 194 255
154 194 255
154 194 255
154 194 255
154 194 255
154 194 255
154 194 255
154 194 255
154 194 255
154 194 255
154 195 255
154 195 255
154 195 255
154 195 255
154 195 255
154 195 255
154 195 255
154 195 255
154 195 255
154 195 255
154 195 255
154 195 255
154 195 255
154 195 255
155 195 255
155 195 255
155 195 255
155 195 255
155 195 255
155 195 255
155 195 255
155 195 255
155 195 255
155 195 255
155 195 255
155 195 255
155 195 255
155 195 255
156 196 255
156 196 255
156 196 255
156 196 255
156 196 255
156 196 255
156 196 255
156 196 255
156 196 255
156 196 255
156 196 255
156 196 255
157 196 255
157 196 255
157 196 255
157 196 255
157 196 255
157 196 255
157 196 255
157 197 255
157 197 255
157 197 255
157 197 255
158 197 255
158 197 255
158 197 255
158 197 255
158 197 255
158 197 255
158 197 255
158 197 255
158 197 255
158 197 255
159 197 255
159 197 255
159 197 255
159 198 255
159 198 255
159 198 255
159 198 255
159 198 255
159 198 255
159 198 255
160 198 255
160 198 255
160 198 255
160 198 255
160 198 255
160 198 255
160 198 255
160 198 255
160 198 255
161 199 255
161 199 255
161 199 255
161 199 255
161 199 255
161 199 255
161 199 255
161 199 255
161 199 255
161 199 255
162 199 255
162 199 255
162 199 255
162 199 255
162 199 255
162 199 255
162 200 255
162 200 255
162 200 255
163 200 255
163 200 255
163 200 255
163 200 255
163 200 255
163 200 255
163 200 255
163 200 255
163 200 255
163 200 255
164 200 255
164 200 255
164 200 255
164 200 255
164 201 255
164 201 255
164 201 255
164 201 255
164 201 255
164 201 255
165 201 255
165 201 255
165 201 255
165 201 255
165 201 255
165 201 255
165 201 255
165 201 255
165 201 255
165 201 255
165 201 255
166 202 255
166 202 255
166 202 255
166 202 255
166 202 255
166 202 255
166 202 255
166 202 255
166 202 255
166 202 255
166 202 255
167 202 255
167 202 255
167 202 255
167 202 255
167 202 255
167 202 255
167 202 255
167 202 255
167 203 255
167 203 255
167 203 255
167 203 255
168 203 255
168 203 255
168 203 255
168 203 255
168 203 255
168 203 255
168 203 255
168 203 255
168 203 255
168 203 255
168 203 255
168 203 255
169 203 255
169 203 255
169 203 255
169 203 255
169 204 255
169 204 255
169 204 255
169 204 255
169 204 255
169 204 255
169 204 255
169 204 255
169 204 255
170 204 255
170 204 255
170 204 255
170 204 255
170 204 255
170 204 255
170 204 255
170 204 255
170 204 255
169 204 255
169 204 255
169 204 255
169 204 255
169 204 255
169 204 255
169 204 255
169 204 255
169 204 255
169 203 255
169 203 255
169 203 255
169 203 255
168 203 255
168 203 255
168 203 255
168 203 255
168 203 255
168 203 255
168 203 255
168 203 255
168 203 255
168 203 255
168 203 255
168 203 255
167 203 255
167 203 255
167 203 255
167 203 255
167 202 255
167 202 255
167 202 255
167 202 255
167 202 255
167 202 255
167 202 255
167 202 255
166 202 255
166 202 255
166 202 255
166 202 255
166 202 255
166 202 255
166 202 255
166 202 255
166 202 255
166 202 255
166 202 255
165 201 255
165 201 255
165 201 255
165 201 255
165 201 255
165 201 255
165 201 255
165 201 255
165 201 255
165 201 255
164 201 255
164 201 255
164 201 255
164 201 255
164 201 255
164 201 255
164 201 255
164 200 255
164 200 255
164 200 255
163 200 255
163 200 255
163 200 255
163 200 255
163 200 255
163 200 255
163 200 255
163 200 255
163 200 255
163 200 255
162 200 255
162 200 255
162 200 255
162 200 255
162 199 255
162 199 255
162 199 255
162 199 255
162 199 255
162 199 255
161 199 255
161 199 255
161 199 255
161 199 255
161 199 255
161 199 255
161 199 255
161 199 255
161 199 255
161 199 255
160 198 255
160 198 255
160 198 255
160 198 255
160 198 255
160 198 255
160 198 255
160 198 255
160 198 255
159 198 255
159 198 255
159 198 255
159 198 255
159 198 255
159 198 255
159 198 255
159 197 255
159 197 255
159 197 255
158 197 255
158 197 255
158 197 255
158 197 255
158 197 255
158 197 255
158 197 255
158 197 255
158 197 255
158 197 255
157 197 255
157 197 255
157 197 255
157 197 255
157 196 255
157 196 255
157 196 255
157 196 255
157 196 255
157 196 255
157 196 255
156 196 255
156 196 255
156 196 255
156 196 255
156 196 255
156 196 255
156 196 255
156 196 255
156 196 255
156 196 255
156 196 255
156 196 255
156 196 255
155 195 255
155 195 255
155 195 255
155 195 255
155 195 255
155 195 255
155 195 255
155 195 255
155 195 255
155 195 255
155 195 255
155 195 255
155 195 255
155 195 255
155 195 255
155 195 255
154 195 255
154 195 255
154 195 255
154 195 255
154 195 255
154 195 255
154 195 255
154 195 255
154 195 255
154 195 255
154 195 255
154 195 255
154 195 255
154 195 255
154 195 255
154 195 255
154 195 255
154 195 255
154 195 255
154 195 255
154 195 255
154 195 255
154 194 255
154 194 255
154 194 255
154 194 255
154 194 255
154 194 255
154 194 255
154 194 255
154 194 255
154 194 255
154 194 255
154 195 255
154 194 255
154 195 255
154 195 255
154 195 255
154 195 255
154 195 255
154 195 255
154 195 255
154 195 255
154 195 255
154 195 255
154 195 255
154 195 255
154 195 255
154 195 255
154 195 255
154 195 255
154 195 255
154 195 255
154 195 255
155 195 255
155 195 255
155 195 255
155 195 255
155 195 255
155 195 255
155 195 255
155 195 255
155 195 255
155 195 255
155 195 255
155 195 255
155 195 255
155 195 255
155 195 255
155 195 255
156 196 255
156 196 255
156 196 255
156 196 255
156 196 255
156 196 255
156 196 255
156 196 255
156 196 255
156 196 255
156 196 255
156 196 255
156 196 255
157 196 255
157 196 255
157 196 255
157 196 255
157 196 255
157 196 255
157 196 255
157 197 255
157 197 255
157 197 255
157 197 255
158 197 255
158 197 255
158 197 255
158 197 255
158 197 255
158 197 255
158 197 255
158 197 255
158 197 255
158 197 255
159 197 255
159 197 255
159 197 255
159 198 255
159 198 255
159 198 255
159 198 255
159 198 255
159 198 255
159 198 255
160 198 255
160 198 255
160 198 255
160 198 255
160 198 255
160 198 255
160 198 255
160 198 255
160 198 255
161 199 255
161 199 255
161 199 255
161 199 255
161 199 255
161 199 255
161 199 255
161 199 255
161 199 255
161 199 255
162 199 255
162 199 255
162 199 255
162 199 255
162 199 255
162 199 255
162 200 255
162 200 255
162 200 255
162 200 255
163 200 255
163 200 255
163 200 255
163 200 255
163 200 255
163 200 255
163 200 255
163 200 255
163 200 255
164 200 255
164 200 255
164 200 255
164 200 255
164 201 255
164 201 255
164 201 255
164 201 255
164 201 255
164 201 255
164 201 255
165 201 255
165 201 255
165 201 255
165 201 255
165 201 255
165 201 255
165 201 255
165 201 255
165 201 255
165 201 255
166 202 255
166 202 255
166 202 255
166 202 255
166 202 255
166 202 255
166 202 255
166 202 255
166 202 255
166 202 255
166 202 255
167 202 255
167 202 255
167 202 255
167 202 255
167 202 255
167 202 255
167 202 255
167 202 255
167 203 255
167 203 255
167 203 255
167 203 255
168 203 255
168 203 255
168 203 255
168 203 255
168 203 255
168 203 255
168 203 255
168 203 255
168 203 255
168 203 255
168 203 255
168 203 255
169 203 255
169 203 255
169 203 255
169 203 255
169 204 255
169 204 255
169 204 255
169 204 255
169 204 255
169 204 255
169 204 255
169 204 255
169 204 255
170 204 255
170 204 255
170 204 255
170 204 255
170 204 255
170 204 255
170 204 255
170 204 255
170 204 255
170 204 255
170 204 255
170 204 255
170 204 255
170 204 255
170 204 255
170 204 255
169 204 255
169 204 255
169 204 255
169 204 255
169 204 255
169 204 255
169 204 255
169 204 255
169 203 255
169 203 255
169 203 255
169 203 255
168 203 255
168 203 255
168 203 255
168 203 255
168 203 255
168 203 255
168 203 255
168 203 255
168 203 255
168 203 255
168 203 255
168 203 255
167 203 255
167 203 255
167 203 255
167 203 255
167 202 255
167 202 255
167 202 255
167 202 255
167 202 255
167 202 255
167 202 255
167 202 255
166 202 255
166 202 255
166 202 255
166 202 255
166 202 255
166 202 255
166 202 255
166 202 255
166 202 255
166 202 255
166 202 255
165 201 255
165 201 255
165 201 255
165 201 255
165 201 255
165 201 255
165 201 255
165 201 255
165 201 255
165 201 255
164 201 255
164 201 255
164 201 255
164 201 255
164 201 255
164 201 255
164 201 255
164 200 255
164 200 255
164 200 255
163 200 255
163 200 255
163 200 255
163 200 255
163 200 255
163 200 255
163 200 255
163 200 255
163 200 255
163 200 255
162 200 255
162 200 255
162 200 255
162 199 255
162 199 255
162 199 255
162 199 255
162 199 255
162 199 255
162 199 255
161 199 255
161 199 255
161 199 255
161 199 255
161 199 255
161 199 255
161 199 255
161 199 255
161 199 255
160 198 255
160 198 255
160 198 255
160 198 255
160 198 255
160 198 255
160 198 255
160 198 255
160 198 255
160 198 255
159 198 255
159 198 255
159 198 255
159 198 255
159 198 255
159 198 255
159 198 255
159 197 255
159 197 255
159 197 255
158 197 255
158 197 255
158 197 255
158 197 255
158 197 255
158 197 255
158 197 255
158 197 255
158 197 255
158 197 255
157 197 255
157 197 255
157 197 255
157 197 255
157 196 255
157 196 255
157 196 255
157 196 255
157 196 255
157 196 255
157 196 255
157 196 255
156 196 255
156 196 255
156 196 255
156 196 255
156 196 255
156 196 255
156 196 255
156 196 255
156 196 255
156 196 255
156 196 255
156 196 255
156 196 255
155 195 255
155 195 255
155 195 255
155 195 255
155 195 255
155 195 255
155 195 255
155 195 255
155 195 255
155 195 255
155 195 255
155 195 255
155 195 255
155 195 255
155 195 255
155 195 255
155 195 255
155 195 255
154 195 255
154 195 255
154 195 255
154 195 255
154 195 255
154 195 255
154 195 255
154 195 255
154 195 255
154 195 255
154 195 255
154 195 255
154 195 255
154 195 255
154 195 255
154 195 255
154 195 255
154 195 255
154 195 255
154 195 255
154 195 255
154 195 255
154 195 255
154 195 255
154 195 255
154 195 255
154 195 255
154 195 255
154 195 255
154 195 255
154 195 255
154 195 255
154 195 255
154 195 255
154 195 255
154 195 255
154 195 255
154 195 255
154 195 255
154 195 255
154 195 255
155 195 255
155 195 255
155 195 255
155 195 255
155 195 255
155 195 255
155 195 255
155 195 255
155 195 255
155 195 255
155 195 255
155 195 255
155 195 255
155 195 255
155 195 255
155 195 255
155 195 255
155 195 255
155 195 255
156 196 255
156 196 255
156 196 255
156 196 255
156 196 255
156 196 255
156 196 255
156 196 255
156 196 255
156 196 255
156 196 255
156 196 255
156 196 255
157 196 255
157 196 255
157 196 255
157 196 255
157 196 255
157 196 255
157 196 255
157 196 255
157 197 255
157 197 255
157 197 255
157 197 255
158 197 255
158 197 255
158 197 255
158 197 255
158 197 255
158 197 255
158 197 255
158 197 255
158 197 255
158 197 255
159 197 255
159 197 255
159 197 255
159 198 255
159 198 255
159 198 255
159 198 255
159 198 255
159 198 255
159 198 255
160 198 255
160 198 255
160 198 255
160 198 255
160 198 255
160 198 255
160 198 255
160 198 255
160 198 255
160 198 255
161 199 255
161 199 255
161 199 255
161 199 255
161 199 255
161 199 255
161 199 255
161 199 255
161 199 255
162 199 255
162 199 255
162 199 255
162 199 255
162 199 255
162 199 255
162 199 255
162 200 255
162 200 255
162 200 255
163 200 255
163 200 255
163 200 255
163 200 255
163 200 255
163 200 255
163 200 255
163 200 255
163 200 255
163 200 255
164 200 255
164 200 255
164 200 255
164 201 255
164 201 255
164 201 255
164 201 255
164 201 255
164 201 255
164 201 255
165 201 255
165 201 255
165 201 255
165 201 255
165 201 255
165 201 255
165 201 255
165 201 255
165 201 255
165 201 255
166 202 255
166 202 255
166 202 255
166 202 255
166 202 255
166 202 255
166 202 255
166 202 255
166 202 255
166 202 255
166 202 255
167 202 255
167 202 255
167 202 255
167 202 255
167 202 255
167 202 255
167 202 255
167 202 255
167 203 255
167 203 255
167 203 255
167 203 255
168 203 255
168 203 255
168 203 255
168 203 255
168 203 255
168 203 255
168 203 255
168 203 255
168 203 255
168 203 255
168 203 255
168 203 255
169 203 255
169 203 255
169 203 255
169 203 255
169 204 255
169 204 255
169 204 255
169 204 255
169 204 255
169 204 255
169 204 255
169 204 255
169 204 255
170 204 255
170 204 255
170 204 255
170 204 255
170 204 255
170 204 255
170 204 255
170 204 255
170 204 255
170 204 255
170 204 255
170 204 255
170 204 255
170 204 255
170 204 255
170 204 255
170 204 255
170 204 255
170 204 255
170 204 255
170 204 255
170 204 255
169 204 255
169 204 255
169 204 255
169 204 255
169 204 255
169 204 255
169 204 255
169 204 255
169 203 255
169 203 255
169 203 255
169 203 255
168 203 255
168 203 255
168 203 255
168 203 255
168 203 255
168 203 255
168 203 255
168 203 255
168 203 255
168 203 255
168 203 255
168 203 255
167 203 255
167 203 255
167 203 255
167 203 255
167 202 255
167 202 255
167 202 255
167 202 255
167 202 255
167 202 255
167 202 255
167 202 255
166 202 255
166 202 255
166 202 255
166 202 255
166 202 255
166 202 255
166 202 255
166 202 255
166 202 255
166 202 255
166 202 255
165 201 255
165 201 255
165 201 255
165 201 255
165 201 255
165 201 255
165 201 255
165 201 255
165 201 255
165 201 255
164 201 255
164 201 255
164 201 255
164 201 255
164 201 255
164 201 255
164 201 255
164 200 255
164 200 255
164 200 255
163 200 255
163 200 255
163 200 255
163 200 255
163 200 255
163 200 255
163 200 255
163 200 255
163 200 255
163 200 255
162 200 255
162 200 255
162 200 255
162 199 255
162 199 255
162 199 255
162 199 255
162 199 255
162 199 255
162 199 255
161 199 255
161 199 255
161 199 255
161 199 255
161 199 255
161 199 255
161 199 255
161 199 255
161 199 255
160 198 255
160 198 255
160 198 255
160 198 255
160 198 255
160 198 255
160 198 255
160 198 255
160 198 255
160 198 255
159 198 255
159 198 255
159 198 255
159 198 255
159 198 255
159 198 255
159 198 255
159 197 255
159 197 255
159 197 255
158 197 255
158 197 255
158 197 255
158 197 255
158 197 255
158 197 255
158 197 255
158 197 255
158 197 255
158 197 255
158 197 255
157 197 255
157 197 255
157 197 255
157 196 255
157 196 255
157 196 255
157 196 255
157 196 255
157 196 255
157 196 255
157 196 255
156 196 255
156 196 255
156 196 255
156 196 255
156 196 255
156 196 255
156 196 255
156 196 255
156 196 255
156 196 255
156 196 255
156 196 255
156 196 255
156 196 255
156 196 255
155 195 255
155 195 255
155 195 255
155 195 255
155 195 255
155 195 255
155 195 255
155 195 255
155 195 255
155 195 255
155 195 255
155 195 255
155 195 255
155 195 255
155 195 255
155 195 255
155 195 255
155 195 255
155 195 255
155 195 255
155 195 255
155 195 255
155 195 255
155 195 255
154 195 255
154 195 255
154 195 255
154 195 255
154 195 255
154 195 255
154 195 255
154 195 255
154 195 255
154 195 255
154 195 255
154 195 255
154 195 255
154 195 255
154 195 255
154 195 255
154 195 255
154 195 255
154 195 255
155 195 255
155 195 255
155 195 255
155 195 255
155 195 255
155 195 255
155 195 255
155 195 255
155 195 255
155 195 255
155 195 255
155 195 255
155 195 255
155 195 255
155 195 255
155 195 255
155 195 255
155 195 255
155 195 255
155 195 255
155 195 255
155 195 255
155 195 255
155 195 255
155 195 255
156 196 255
156 196 255
156 196 255
156 196 255
156 196 255
156 196 255
156 196 255
156 196 255
156 196 255
156 196 255
156 196 255
156 196 255
156 196 255
156 196 255
156 196 255
157 196 255
157 196 255
157 196 255
157 196 255
157 196 255
157 196 255
157 196 255
157 197 255
157 197 255
157 197 255
157 197 255
158 197 255
158 197 255
158 197 255
158 197 255
158 197 255
158 197 255
158 197 255
158 197 255
158 197 255
158 197 255
158 197 255
159 197 255
159 197 255
159 197 255
159 198 255
159 198 255
159 198 255
159 198 255
159 198 255
159 198 255
159 198 255
160 198 255
160 198 255
160 198 255
160 198 255
160 198 255
160 198 255
160 198 255
160 198 255
160 198 255
160 198 255
161 199 255
161 199 255
161 199 255
161 199 255
161 199 255
161 199 255
161 199 255
161 199 255
161 199 255
162 199 255
162 199 255
162 199 255
162 199 255
162 199 255
162 199 255
162 199 255
162 200 255
162 200 255
162 200 255
163 200 255
163 200 255
163 200 255
163 200 255
163 200 255
163 200 255
163 200 255
163 200 255
163 200 255
163 200 255
164 200 255
164 200 255
164 200 255
164 201 255
164 201 255
164 201 255
164 201 255
164 201 255
164 201 255
164 201 255
165 201 255
165 201 255
165 201 255
165 201 255
165 201 255
165 201 255
165 201 255
165 201 255
165 201 255
165 201 255
166 202 255
166 202 255
166 202 255
166 202 255
166 202 255
166 202 255
166 202 255
166 202 255
166 202 255
166 202 255
166 202 255
167 202 255
167 202 255
167 202 255
167 202 255
167 202 255
167 202 255
167 202 255
167 202 255
167 203 255
167 203 255
167 203 255
167 203 255
168 203 255
168 203 255
168 203 255
168 203 255
168 203 255
168 203 255
168 203 255
168 203 255
168 203 255
168 203 255
168 203 255
169 203 255
169 203 255
169 203 255
169 203 255
169 203 255
169 204 255
169 204 255
169 204 255
169 204 255
169 204 255
169 204 255
169 204 255
169 204 255
170 204 255
170 204 255
170 204 255
170 204 255
170 204 255
170 204 255
170 204 255
170 204 255
170 204 255
170 204 255
170 204 255
170 204 255
170 204 255
171 205 255
171 205 255
170 204 255
170 204 255
170 204 255
170 204 255
170 204 255
170 204 255
170 204 255
170 204 255
170 204 255
170 204 255
170 204 255
170 204 255
170 204 255
170 204 255
169 204 255
169 204 255
169 204 255
169 204 255
169 204 255
169 204 255
169 204 255
169 204 255
169 203 255
169 203 255
169 203 255
169 203 255
169 203 255
168 203 255
168 203 255
168 203 255
168 203 255
168 203 255
168 203 255
168 203 255
168 203 255
168 203 255
168 203 255
168 203 255
167 203 255
167 203 255
167 203 255
167 203 255
167 202 255
167 202 255
167 202 255
167 202 255
167 202 255
167 202 255
167 202 255
167 202 255
166 202 255
166 202 255
166 202 255
166 202 255
166 202 255
166 202 255
166 202 255
166 202 255
166 202 255
166 202 255
165 201 255
165 201 255
165 201 255
165 201 255
165 201 255
165 201 255
165 201 255
165 201 255
165 201 255
165 201 255
165 201 255
164 201 255
164 201 255
164 201 255
164 201 255
164 201 255
164 201 255
164 200 255
164 200 255
164 200 255
164 200 255
163 200 255
163 200 255
163 200 255
163 200 255
163 200 255
163 200 255
163 200 255
163 200 255
163 200 255
163 200 255
162 200 255
162 200 255
162 200 255
162 199 255
162 199 255
162 199 255
162 199 255
162 199 255
162 199 255
161 199 255
161 199 255
161 199 255
161 199 255
161 199 255
161 199 255
161 199 255
161 199 255
161 199 255
161 199 255
160 198 255
160 198 255
160 198 255
160 198 255
160 198 255
160 198 255
160 198 255
160 198 255
160 198 255
160 198 255
159 198 255
159 198 255
159 198 255
159 198 255
159 198 255
159 198 255
159 198 255
159 197 255
159 197 255
159 197 255
158 197 255
158 197 255
158 197 255
158 197 255
158 197 255
158 197 255
158 197 255
158 197 255
158 197 255
158 197 255
158 197 255
157 197 255
157 197 255
157 197 255
157 197 255
157 196 255
157 196 255
157 196 255
157 196 255
157 196 255
157 196 255
157 196 255
157 196 255
157 196 255
156 196 255
156 196 255
156 196 255
156 196 255
156 196 255
156 196 255
156 196 255
156 196 255
156 196 255
156 196 255
156 196 255
156 196 255
156 196 255
156 196 255
156 196 255
155 195 255
155 195 255
155 195 255
155 195 255
155 195 255
155 195 255
155 195 255
155 195 255
155 195 255
155 195 255
155 195 255
155 195 255
155 195 255
155 195 255
155 195 255
155 195 255
155 195 255
155 195 255
155 195 255
155 195 255
155 195 255
155 195 255
155 195 255
155 195 255
155 195 255
155 195 255
155 195 255
155 195 255
155 195 255
155 195 255
155 195 255
155 195 255
155 195 255
155 195 255
155 195 255
155 195 255
155 195 255
155 195 255
155 195 255
155 195 255
155 195 255
155 195 255
155 195 255
155 195 255
155 195 255
155 195 255
155 195 255
155 195 255
155 195 255
155 195 255
155 195 255
155 195 255
155 195 255
155 195 255
155 195 255
155 195 255
155 195 255
155 195 255
156 196 255
156 196 255
156 196 255
156 196 255
156 196 255
156 196 255
156 196 255
156 196 255
156 196 255
156 196 255
156 196 255
156 196 255
156 196 255
156 196 255
156 196 255
157 196 255
157 196 255
157 196 255
157 196 255
157 196 255
157 196 255
157 196 255
157 196 255
157 196 255
157 197 255
157 197 255
157 197 255
157 197 255
158 197 255
158 197 255
158 197 255
158 197 255
158 197 255
158 197 255
158 197 255
158 197 255
158 197 255
158 197 255
158 197 255
159 197 255
159 197 255
159 197 255
159 198 255
159 198 255
159 198 255
159 198 255
159 198 255
159 198 255
159 198 255
160 198 255
160 198 255
160 198 255
160 198 255
160 198 255
160 198 255
160 198 255
160 198 255
160 198 255
160 198 255
161 199 255
161 199 255
161 199 255
161 199 255
161 199 255
161 199 255
161 199 255
161 199 255
161 199 255
161 199 255
162 199 255
162 199 255
162 199 255
162 199 255
162 199 255
162 199 255
162 200 255
162 200 255
162 200 255
163 200 255
163 200 255
163 200 255
163 200 255
163 200 255
163 200 255
163 200 255
163 200 255
163 200 255
163 200 255
164 200 255
164 200 255
164 200 255
164 201 255
164 201 255
164 201 255
164 201 255
164 201 255
164 201 255
164 201 255
165 201 255
165 201 255
165 201 255
165 201 255
165 201 255
165 201 255
165 201 255
165 201 255
165 201 255
165 201 255
165 201 255
166 202 255
166 202 255
166 202 255
166 202 255
166 202 255
166 202 255
166 202 255
166 202 255
166 202 255
166 202 255
167 202 255
167 202 255
167 202 255
167 202 255
167 202 255
167 202 255
167 202 255
167 202 255
167 203 255
167 203 255
167 203 255
167 203 255
168 203 255
168 203 255
168 203 255
168 203 255
168 203 255
168 203 255
168 203 255
168 203 255
168 203 255
168 203 255
168 203 255
169 203 255
169 203 255
169 203 255
169 203 255
169 203 255
169 204 255
169 204 255
169 204 255
169 204 255
169 204 255
169 204 255
169 204 255
169 204 255
170 204 255
170 204 255
170 204 255
170 204 255
170 204 255
170 204 255
170 204 255
170 204 255
170 204 255
170 204 255
170 204 255
170 204 255
170 204 255
170 204 255
171 205 255
171 205 255
171 205 255
171 205 255
171 205 255
171 205 255
171 205 255
171 205 255
170 204 255
170 204 255
170 204 255
170 204 255
170 204 255
170 204 255
170 204 255
170 204 255
170 204 255
170 204 255
170 204 255
170 204 255
170 204 255
169 204 255
169 204 255
169 204 255
169 204 255
169 204 255
169 204 255
169 204 255
169 204 255
169 203 255
169 203 255
169 203 255
169 203 255
169 203 255
168 203 255
168 203 255
168 203 255
168 203 255
168 203 255
168 203 255
168 203 255
168 203 255
168 203 255
168 203 255
168 203 255
167 203 255
167 203 255
167 203 255
167 203 255
167 202 255
167 202 255
167 202 255
167 202 255
167 202 255
167 202 255
167 202 255
167 202 255
166 202 255
166 202 255
166 202 255
166 202 255
166 202 255
166 202 255
166 202 255
166 202 255
166 202 255
166 202 255
165 201 255
165 201 255
165 201 255
165 201 255
165 201 255
165 201 255
165 201 255
165 201 255
165 201 255
165 201 255
165 201 255
164 201 255
164 201 255
164 201 255
164 201 255
164 201 255
164 201 255
164 200 255
164 200 255
164 200 255
164 200 255
163 200 255
163 200 255
163 200 255
163 200 255
163 200 255
163 200 255
163 200 255
163 200 255
163 200 255
163 200 255
162 200 255
162 200 255
162 200 255
162 199 255
162 199 255
162 199 255
162 199 255
162 199 255
162 199 255
161 199 255
161 199 255
161 199 255
161 199 255
161 199 255
161 199 255
161 199 255
161 199 255
161 199 255
161 199 255
160 198 255
160 198 255
160 198 255
160 198 255
160 198 255
160 198 255
160 198 255
160 198 255
160 198 255
160 198 255
159 198 255
159 198 255
159 198 255
159 198 255
159 198 255
159 198 255
159 198 255
159 197 255
159 197 255
159 197 255
159 197 255
158 197 255
158 197 255
158 197 255
158 197 255
158 197 255
158 197 255
158 197 255
158 197 255
158 197 255
158 197 255
158 197 255
157 197 255
157 197 255
157 197 255
157 197 255
157 196 255
157 196 255
157 196 255
157 196 255
157 196 255
157 196 255
157 196 255
157 196 255
157 196 255
156 196 255
156 196 255
156 196 255
156 196 255
156 196 255
156 196 255
156 196 255
156 196 255
156 196 255
156 196 255
156 196 255
156 196 255
156 196 255
156 196 255
156 196 255
156 196 255
156 196 255
156 196 255
155 195 255
155 195 255
155 195 255
155 195 255
155 195 255
155 195 255
155 195 255
155 195 255
155 195 255
155 195 255
155 195 255
155 195 255
155 195 255
155 195 255
155 195 255
155 195 255
155 195 255
155 195 255
155 195 255
155 195 255
155 195 255
155 195 255
155 195 255
155 195 255
155 195 255
155 195 255
155 195 255
155 195 255
155 195 255
155 195 255
155 195 255
155 195 255
155 195 255
155 195 255
155 195 255
155 195 255
155 195 255
155 195 255
155 195 255
155 195 255
155 195 255
155 195 255
155 195 255
155 195 255
156 196 255
156 196 255
156 196 255
156 196 255
156 196 255
156 196 255
156 196 255
156 196 255
156 196 255
156 196 255
156 196 255
156 196 255
156 196 255
156 196 255
156 196 255
156 196 255
156 196 255
156 196 255
157 196 255
157 196 255
157 196 255
157 196 255
157 196 255
157 196 255
157 196 255
157 196 255
157 196 255
157 197 255
157 197 255
157 197 255
157 197 255
158 197 255
158 197 255
158 197 255
158 197 255
158 197 255
158 197 255
158 197 255
158 197 255
158 197 255
158 197 255
158 197 255
158 197 255
159 197 255
159 197 255
159 197 255
159 198 255
159 198 255
159 198 255
159 198 255
159 198 255
159 198 255
159 198 255
160 198 255
160 198 255
160 198 255
160 198 255
160 198 255
160 198 255
160 198 255
160 198 255
160 198 255
160 198 255
161 199 255
161 199 255
161 199 255
161 199 255
161 199 255
161 199 255
161 199 255
161 199 255
161 199 255
162 199 255
162 199 255
162 199 255
162 199 255
162 199 255
162 199 255
162 199 255
162 200 255
162 200 255
162 200 255
163 200 255
163 200 255
163 200 255
163 200 255
163 200 255
163 200 255
163 200 255
163 200 255
163 200 255
163 200 255
164 200 255
164 200 255
164 200 255
164 200 255
164 201 255
164 201 255
164 201 255
164 201 255
164 201 255
164 201 255
165 201 255
165 201 255
165 201 255
165 201 255
165 201 255
165 201 255
165 201 255
165 201 255
165 201 255
165 201 255
165 201 255
166 202 255
166 202 255
166 202 255
166 202 255
166 202 255
166 202 255
166 202 255
166 202 255
166 202 255
166 202 255
167 202 255
167 202 255
167 202 255
167 202 255
167 202 255
167 202 255
167 202 255
167 202 255
167 203 255
167 203 255
167 203 255
167 203 255
168 203 255
168 203 255
168 203 255
168 203 255
168 203 255
168 203 255
168 203 255
168 203 255
168 203 255
168 203 255
168 203 255
168 203 255
169 203 255
169 203 255
169 203 255
169 204 255
169 204 255
169 204 255
169 204 255
169 204 255
169 204 255
169 204 255
169 204 255
169 204 255
170 204 255
170 204 255
170 204 255
170 204 255
170 204 255
170 204 255
170 204 255
170 204 255
170 204 255
170 204 255
170 204 255
170 204 255
170 204 255
171 205 255
171 205 255
171 205 255
171 205 255
171 205 255
171 205 255
171 205 255
171 205 255
171 205 255
171 205 255
171 205 255
171 205 255
171 205 255
171 205 255
171 205 255
170 204 255
170 204 255
170 204 255
170 204 255
170 204 255
170 204 255
170 204 255
170 204 255
170 204 255
170 204 255
170 204 255
170 204 255
170 204 255
169 204 255
169 204 255
169 204 255
169 204 255
169 204 255
169 204 255
169 204 255
169 204 255
169 204 255
169 203 255
169 203 255
169 203 255
169 203 255
168 203 255
168 203 255
168 203 255
168 203 255
168 203 255
168 203 255
168 203 255
168 203 255
168 203 255
168 203 255
168 203 255
168 203 255
167 203 255
167 203 255
167 203 255
167 202 255
167 202 255
167 202 255
167 202 255
167 202 255
167 202 255
167 202 255
167 202 255
166 202 255
166 202 255
166 202 255
166 202 255
166 202 255
166 202 255
166 202 255
166 202 255
166 202 255
166 202 255
165 201 255
165 201 255
165 201 255
165 201 255
165 201 255
165 201 255
165 201 255
165 201 255
165 201 255
165 201 255
165 201 255
164 201 255
164 201 255
164 201 255
164 201 255
164 201 255
164 201 255
164 200 255
164 200 255
164 200 255
164 200 255
163 200 255
163 200 255
163 200 255
163 200 255
163 200 255
163 200 255
163 200 255
163 200 255
163 200 255
162 200 255
162 200 255
162 200 255
162 200 255
162 199 255
162 199 255
162 199 255
162 199 255
162 199 255
162 199 255
161 199 255
161 199 255
161 199 255
161 199 255
161 199 255
161 199 255
161 199 255
161 199 255
161 199 255
161 199 255
160 198 255
160 198 255
160 198 255
160 198 255
160 198 255
160 198 255
160 198 255
160 198 255
160 198 255
160 198 255
159 198 255
159 198 255
159 198 255
159 198 255
159 198 255
159 198 255
159 198 255
159 197 255
159 197 255
159 197 255
159 197 255
158 197 255
158 197 255
158 197 255
158 197 255
158 197 255
158 197 255
158 197 255
158 197 255
158 197 255
158 197 255
158 197 255
158 197 255
157 197 255
157 197 255
157 197 255
157 197 255
157 196 255
157 196 255
157 196 255
157 196 255
157 196 255
157 196 255
157 196 255
157 196 255
157 196 255
157 196 255
156 196 255
156 196 255
156 196 255
156 196 255
156 196 255
156 196 255
156 196 255
156 196 255
156 196 255
156 196 255
156 196 255
156 196 255
156 196 255
156 196 255
156 196 255
156 196 255
156 196 255
156 196 255
156 196 255
156 196 255
156 196 255
156 196 255
156 195 255
155 195 255
155 195 255
155 195 255
155 195 255
155 195 255
155 195 255
155 195 255
155 195 255
155 195 255
155 195 255
155 195 255
155 195 255
155 195 255
155 195 255
155 195 255
155 195 255
155 195 255
155 195 255
155 195 255
155 195 255
155 195 255
155 195 255
155 195 255
155 195 255
156 195 255
156 196 255
156 196 255
156 196 255
156 196 255
156 196 255
156 196 255
156 196 255
156 196 255
156 196 255
156 196 255
156 196 255
156 196 255
156 196 255
156 196 255
156 196 255
156 196 255
156 196 255
156 196 255
156 196 255
156 196 255
156 196 255
156 196 255
157 196 255
157 196 255
157 196 255
157 196 255
157 196 255
157 196 255
157 196 255
157 196 255
157 196 255
157 196 255
157 197 255
157 197 255
157 197 255
157 197 255
158 197 255
158 197 255
158 197 255
158 197 255
158 197 255
158 197 255
158 197 255
158 197 255
158 197 255
158 197 255
158 197 255
158 197 255
159 197 255
159 197 255
159 197 255
159 198 255
159 198 255
159 198 255
159 198 255
159 198 255
159 198 255
159 198 255
159 198 255
160 198 255
160 198 255
160 198 255
160 198 255
160 198 255
160 198 255
160 198 255
160 198 255
160 198 255
160 198 255
161 199 255
161 199 255
161 199 255
161 199 255
161 199 255
161 199 255
161 199 255
161 199 255
161 199 255
161 199 255
162 199 255
162 199 255
162 199 255
162 199 255
162 199 255
162 199 255
162 200 255
162 200 255
162 200 255
163 200 255
163 200 255
163 200 255
163 200 255
163 200 255
163 200 255
163 200 255
163 200 255
163 200 255
163 200 255
164 200 255
164 200 255
164 200 255
164 200 255
164 201 255
164 201 255
164 201 255
164 201 255
164 201 255
164 201 255
165 201 255
165 201 255
165 201 255
165 201 255
165 201 255
165 201 255
165 201 255
165 201 255
165 201 255
165 201 255
165 201 255
166 202 255
166 202 255
166 202 255
166 202 255
166 202 255
166 202 255
166 202 255
166 202 255
166 202 255
166 202 255
167 202 255
167 202 255
167 202 255
167 202 255
167 202 255
167 202 255
167 202 255
167 202 255
167 203 255
167 203 255
167 203 255
168 203 255
168 203 255
168 203 255
168 203 255
168 203 255
168 203 255
168 203 255
168 203 255
168 203 255
168 203 255
168 203 255
168 203 255
169 203 255
169 203 255
169 203 255
169 203 255
169 204 255
169 204 255
169 204 255
169 204 255
169 204 255
169 204 255
169 204 255
169 204 255
169 204 255
170 204 255
170 204 255
170 204 255
170 204 255
170 204 255
170 204 255
170 204 255
170 204 255
170 204 255
170 204 255
170 204 255
170 204 255
170 204 255
171 205 255
171 205 255
171 205 255
171 205 255
171 205 255
171 205 255
171 205 255
171 205 255
171 205 255
171 205 255
171 205 255
171 205 255
171 205 255
171 205 255
171 205 255
171 205 255
171 205 255
171 205 255
171 205 255
171 205 255
171 205 255
170 204 255
170 204 255
170 204 255
170 204 255
170 204 255
170 204 255
170 204 255
170 204 255
170 204 255
170 204 255
170 204 255
170 204 255
170 204 255
169 204 255
169 204 255
169 204 255
169 204 255
169 204 255
169 204 255
169 204 255
169 204 255
169 204 255
169 203 255
169 203 255
169 203 255
169 203 255
168 203 255
168 203 255
168 203 255
168 203 255
168 203 255
168 203 255
168 203 255
168 203 255
168 203 255
168 203 255
168 203 255
168 203 255
167 203 255
167 203 255
167 203 255
167 202 255
167 202 255
167 202 255
167 202 255
167 202 255
167 202 255
167 202 255
167 202 255
166 202 255
166 202 255
166 202 255
166 202 255
166 202 255
166 202 255
166 202 255
166 202 255
166 202 255
166 202 255
165 201 255
165 201 255
165 201 255
165 201 255
165 201 255
165 201 255
165 201 255
165 201 255
165 201 255
165 201 255
165 201 255
164 201 255
164 201 255
164 201 255
164 201 255
164 201 255
164 201 255
164 200 255
164 200 255
164 200 255
164 200 255
163 200 255
163 200 255
163 200 255
163 200 255
163 200 255
163 200 255
163 200 255
163 200 255
163 200 255
163 200 255
162 200 255
162 200 255
162 200 255
162 199 255
162 199 255
162 199 255
162 199 255
162 199 255
162 199 255
161 199 255
161 199 255
161 199 255
161 199 255
161 199 255
161 199 255
161 199 255
161 199 255
161 199 255
161 199 255
160 198 255
160 198 255
160 198 255
160 198 255
160 198 255
160 198 255
160 198 255
160 198 255
160 198 255
160 198 255
160 198 255
159 198 255
159 198 255
159 198 255
159 198 255
159 198 255
159 198 255
159 198 255
159 197 255
159 197 255
159 197 255
159 197 255
158 197 255
158 197 255
158 197 255
158 197 255
158 197 255
158 197 255
158 197 255
158 197 255
158 197 255
158 197 255
158 197 255
158 197 255
157 197 255
157 197 255
157 197 255
157 197 255
157 197 255
157 196 255
157 196 255
157 196 255
157 196 255
157 196 255
157 196 255
157 196 255
157 196 255
157 196 255
157 196 255
157 196 255
156 196 255
156 196 255
156 196 255
156 196 255
156 196 255
156 196 255
156 196 255
156 196 255
156 196 255
156 196 255
156 196 255
156 196 255
156 196 255
156 196 255
156 196 255
156 196 255
156 196 255
156 196 255
156 196 255
156 196 255
156 196 255
156 196 255
156 196 255
156 196 255
156 196 255
156 196 255
156 196 255
156 196 255
156 196 255
156 196 255
156 196 255
156 196 255
156 196 255
156 196 255
156 196 255
156 196 255
156 196 255
156 196 255
156 196 255
156 196 255
156 196 255
156 196 255
156 196 255
156 196 255
156 196 255
156 196 255
156 196 255
156 196 255
156 196 255
156 196 255
156 196 255
156 196 255
156 196 255
156 196 255
156 196 255
156 196 255
156 196 255
156 196 255
156 196 255
157 196 255
157 196 255
157 196 255
157 196 255
157 196 255
157 196 255
157 196 255
157 196 255
157 196 255
157 196 255
157 196 255
157 197 255
157 197 255
157 197 255
157 197 255
158 197 255
158 197 255
158 197 255
158 197 255
158 197 255
158 197 255
158 197 255
158 197 255
158 197 255
158 197 255
158 197 255
158 197 255
159 197 255
159 197 255
159 197 255
159 197 255
159 198 255
159 198 255
159 198 255
159 198 255
159 198 255
159 198 255
159 198 255
160 198 255
160 198 255
160 198 255
160 198 255
160 198 255
160 198 255
160 198 255
160 198 255
160 198 255
160 198 255
160 198 255
161 199 255
161 199 255
161 199 255
161 199 255
161 199 255
161 199 255
161 199 255
161 199 255
161 199 255
161 199 255
162 199 255
162 199 255
162 199 255
162 199 255
162 199 255
162 199 255
162 200 255
162 200 255
162 200 255
162 200 255
163 200 255
163 200 255
163 200 255
163 200 255
163 200 255
163 200 255
163 200 255
163 200 255
163 200 255
164 200 255
164 200 255
164 200 255
164 200 255
164 201 255
164 201 255
164 201 255
164 201 255
164 201 255
164 201 255
165 201 255
165 201 255
165 201 255
165 201 255
165 201 255
165 201 255
165 201 255
165 201 255
165 201 255
165 201 255
165 201 255
166 202 255
166 202 255
166 202 255
166 202 255
166 202 255
166 202 255
166 202 255
166 202 255
166 202 255
166 202 255
167 202 255
167 202 255
167 202 255
167 202 255
167 202 255
167 202 255
167 202 255
167 202 255
167 203 255
167 203 255
167 203 255
167 203 255
168 203 255
168 203 255
168 203 255
168 203 255
168 203 255
168 203 255
168 203 255
168 203 255
168 203 255
168 203 255
168 203 255
169 203 255
169 203 255
169 203 255
169 203 255
169 204 255
169 204 255
169 204 255
169 204 255
169 204 255
169 204 255
169 204 255
169 204 255
170 204 255
170 204 255
170 204 255
170 204 255
170 204 255
170 204 255
170 204 255
170 204 255
170 204 255
170 204 255
170 204 255
170 204 255
170 204 255
170 204 255
171 205 255
171 205 255
171 205 255
171 205 255
171 205 255
171 205 255
171 205 255
171 205 255
171 205 255
171 205 255
171 205 255
171 205 255
172 205 255
172 205 255
171 205 255
171 205 255
171 205 255
171 205 255
171 205 255
171 205 255
171 205 255
171 205 255
171 205 255
171 205 255
171 205 255
171 205 255
171 205 255
171 205 255
170 204 255
170 204 255
170 204 255
170 204 255
170 204 255
170 204 255
170 204 255
170 204 255
170 204 255
170 204 255
170 204 255
170 204 255
170 204 255
169 204 255
169 204 255
169 204 255
169 204 255
169 204 255
169 204 255
169 204 255
169 204 255
169 203 255
169 203 255
169 203 255
169 203 255
168 203 255
168 203 255
168 203 255
168 203 255
168 203 255
168 203 255
168 203 255
168 203 255
168 203 255
168 203 255
168 203 255
168 203 255
167 203 255
167 203 255
167 203 255
167 202 255
167 202 255
167 202 255
167 202 255
167 202 255
167 202 255
167 202 255
167 202 255
166 202 255
166 202 255
166 202 255
166 202 255
166 202 255
166 202 255
166 202 255
166 202 255
166 202 255
166 202 255
165 201 255
165 201 255
165 201 255
165 201 255
165 201 255
165 201 255
165 201 255
165 201 255
165 201 255
165 201 255
164 201 255
164 201 255
164 201 255
164 201 255
164 201 255
164 201 255
164 201 255
164 200 255
164 200 255
164 200 255
164 200 255
163 200 255
163 200 255
163 200 255
163 200 255
163 200 255
163 200 255
163 200 255
163 200 255
163 200 255
162 200 255
162 200 255
162 200 255
162 200 255
162 199 255
162 199 255
162 199 255
162 199 255
162 199 255
162 199 255
161 199 255
161 199 255
161 199 255
161 199 255
161 199 255
161 199 255
161 199 255
161 199 255
161 199 255
161 199 255
160 198 255
160 198 255
160 198 255
160 198 255
160 198 255
160 198 255
160 198 255
160 198 255
160 198 255
160 198 255
160 198 255
159 198 255
159 198 255
159 198 255
159 198 255
159 198 255
159 198 255
159 198 255
159 197 255
159 197 255
159 197 255
159 197 255
158 197 255
158 197 255
158 197 255
158 197 255
158 197 255
158 197 255
158 197 255
158 197 255
158 197 255
158 197 255
158 197 255
158 197 255
158 197 255
157 197 255
157 197 255
157 197 255
157 197 255
157 197 255
157 197 255
157 196 255
157 196 255
157 196 255
157 196 255
157 196 255
157 196 255
157 196 255
157 196 255
157 196 255
157 196 255
157 196 255
157 196 255
156 196 255
156 196 255
156 196 255
156 196 255
156 196 255
156 196 255
156 196 255
156 196 255
156 196 255
156 196 255
156 196 255
156 196 255
156 196 255
156 196 255
156 196 255
156 196 255
156 196 255
156 196 255
156 196 255
156 196 255
156 196 255
156 196 255
156 196 255
156 196 255
156 196 255
156 196 255
156 196 255
156 196 255
156 196 255
156 196 255
156 196 255
156 196 255
156 196 255
156 196 255
156 196 255
156 196 255
156 196 255
156 196 255
156 196 255
156 196 255
156 196 255
156 196 255
156 196 255
156 196 255
156 196 255
156 196 255
157 196 255
157 196 255
157 196 255
157 196 255
157 196 255
157 196 255
157 196 255
157 196 255
157 196 255
157 196 255
157 196 255
157 196 255
157 196 255
157 197 255
157 197 255
157 197 255
157 197 255
158 197 255
158 197 255
158 197 255
158 197 255
158 197 255
158 197 255
158 197 255
158 197 255
158 197 255
158 197 255
158 197 255
158 197 255
158 197 255
159 197 255
159 197 255
159 197 255
159 197 255
159 197 255
159 198 255
159 198 255
159 198 255
159 198 255
159 198 255
159 198 255
159 198 255
160 198 255
160 198 255
160 198 255
160 198 255
160 198 255
160 198 255
160 198 255
160 198 255
160 198 255
160 198 255
161 199 255
161 199 255
161 199 255
161 199 255
161 199 255
161 199 255
161 199 255
161 199 255
161 199 255
161 199 255
161 199 255
162 199 255
162 199 255
162 199 255
162 199 255
162 199 255
162 199 255
162 200 255
162 200 255
162 200 255
163 200 255
163 200 255
163 200 255
163 200 255
163 200 255
163 200 255
163 200 255
163 200 255
163 200 255
163 200 255
164 200 255
164 200 255
164 200 255
164 200 255
164 201 255
164 201 255
164 201 255
164 201 255
164 201 255
164 201 255
165 201 255
165 201 255
165 201 255
165 201 255
165 201 255
165 201 255
165 201 255
165 201 255
165 201 255
165 201 255
165 201 255
166 202 255
166 202 255
166 202 255
166 202 255
166 202 255
166 202 255
166 202 255
166 202 255
166 202 255
166 202 255
167 202 255
167 202 255
167 202 255
167 202 255
167 202 255
167 202 255
167 202 255
167 202 255
167 203 255
167 203 255
167 203 255
167 203 255
168 203 255
168 203 255
168 203 255
168 203 255
168 203 255
168 203 255
168 203 255
168 203 255
168 203 255
168 203 255
168 203 255
169 203 255
169 203 255
169 203 255
169 203 255
169 204 255
169 204 255
169 204 255
169 204 255
169 204 255
169 204 255
169 204 255
169 204 255
170 204 255
170 204 255
170 204 255
170 204 255
170 204 255
170 204 255
170 204 255
170 204 255
170 204 255
170 204 255
170 204 255
170 204 255
170 204 255
171 205 255
171 205 255
171 205 255
171 205 255
171 205 255
171 205 255
171 205 255
171 205 255
171 205 255
171 205 255
171 205 255
171 205 255
171 205 255
171 205 255
172 205 255
172 205 255
172 205 255
172 205 255
172 205 255
172 205 255
172 205 255
171 205 255
171 205 255
171 205 255
171 205 255
171 205 255
171 205 255
171 205 255
171 205 255
171 205 255
171 205 255
171 205 255
171 205 255
171 205 255
171 205 255
170 204 255
170 204 255
170 204 255
170 204 255
170 204 255
170 204 255
170 204 255
170 204 255
170 204 255
170 204 255
170 204 255
170 204 255
170 204 255
169 204 255
169 204 255
169 204 255
169 204 255
169 204 255
169 204 255
169 204 255
169 204 255
169 203 255
169 203 255
169 203 255
169 203 255
168 203 255
168 203 255
168 203 255
168 203 255
168 203 255
168 203 255
168 203 255
168 203 255
168 203 255
168 203 255
168 203 255
168 203 255
167 203 255
167 203 255
167 203 255
167 202 255
167 202 255
167 202 255
167 202 255
167 202 255
167 202 255
167 202 255
167 202 255
166 202 255
166 202 255
166 202 255
166 202 255
166 202 255
166 202 255
166 202 255
166 202 255
166 202 255
166 202 255
165 201 255
165 201 255
165 201 255
165 201 255
165 201 255
165 201 255
165 201 255
165 201 255
165 201 255
165 201 255
165 201 255
164 201 255
164 201 255
164 201 255
164 201 255
164 201 255
164 201 255
164 200 255
164 200 255
164 200 255
164 200 255
163 200 255
163 200 255
163 200 255
163 200 255
163 200 255
163 200 255
163 200 255
163 200 255
163 200 255
163 200 255
162 200 255
162 200 255
162 200 255
162 199 255
162 199 255
162 199 255
162 199 255
162 199 255
162 199 255
162 199 255
161 199 255
161 199 255
161 199 255
161 199 255
161 199 255
161 199 255
161 199 255
161 199 255
161 199 255
161 199 255
160 198 255
160 198 255
160 198 255
160 198 255
160 198 255
160 198 255
160 198 255
160 198 255
160 198 255
160 198 255
159 198 255
159 198 255
159 198 255
159 198 255
159 198 255
159 198 255
159 198 255
159 198 255
159 197 255
159 197 255
159 197 255
159 197 255
158 197 255
158 197 255
158 197 255
158 197 255
158 197 255
158 197 255
158 197 255
158 197 255
158 197 255
158 197 255
158 197 255
158 197 255
158 197 255
158 197 255
157 197 255
157 197 255
157 197 255
157 197 255
157 197 255
157 197 255
157 196 255
157 196 255
157 196 255
157 196 255
157 196 255
157 196 255
157 196 255
157 196 255
157 196 255
157 196 255
157 196 255
157 196 255
157 196 255
157 196 255
157 196 255
157 196 255
157 196 255
156 196 255
156 196 255
156 196 255
156 196 255
156 196 255
156 196 255
156 196 255
156 196 255
156 196 255
156 196 255
156 196 255
156 196 255
156 196 255
156 196 255
156 196 255
156 196 255
156 196 255
156 196 255
156 196 255
156 196 255
156 196 255
156 196 255
156 196 255
156 196 255
156 196 255
156 196 255
157 196 255
157 196 255
157 196 255
157 196 255
157 196 255
157 196 255
157 196 255
157 196 255
157 196 255
157 196 255
157 196 255
157 196 255
157 196 255
157 196 255
157 196 255
157 196 255
157 196 255
157 197 255
157 197 255
157 197 255
157 197 255
157 197 255
157 197 255
158 197 255
158 197 255
158 197 255
158 197 255
158 197 255
158 197 255
158 197 255
158 197 255
158 197 255
158 197 255
158 197 255
158 197 255
158 197 255
158 197 255
159 197 255
159 197 255
159 197 255
159 197 255
159 198 255
159 198 255
159 198 255
159 198 255
159 198 255
159 198 255
159 198 255
160 198 255
160 198 255
160 198 255
160 198 255
160 198 255
160 198 255
160 198 255
160 198 255
160 198 255
160 198 255
160 198 255
161 199 255
161 199 255
161 199 255
161 199 255
161 199 255
161 199 255
161 199 255
161 199 255
161 199 255
161 199 255
162 199 255
162 199 255
162 199 255
162 199 255
162 199 255
162 199 255
162 199 255
162 200 255
162 200 255
162 200 255
162 200 255
163 200 255
163 200 255
163 200 255
163 200 255
163 200 255
163 200 255
163 200 255
163 200 255
163 200 255
164 200 255
164 200 255
164 200 255
164 200 255
164 201 255
164 201 255
164 201 255
164 201 255
164 201 255
164 201 255
165 201 255
165 201 255
165 201 255
165 201 255
165 201 255
165 201 255
165 201 255
165 201 255
165 201 255
165 201 255
165 201 255
166 202 255
166 202 255
166 202 255
166 202 255
166 202 255
166 202 255
166 202 255
166 202 255
166 202 255
166 202 255
167 202 255
167 202 255
167 202 255
167 202 255
167 202 255
167 202 255
167 202 255
167 202 255
167 203 255
167 203 255
167 203 255
168 203 255
168 203 255
168 203 255
168 203 255
168 203 255
168 203 255
168 203 255
168 203 255
168 203 255
168 203 255
168 203 255
168 203 255
169 203 255
169 203 255
169 203 255
169 203 255
169 204 255
169 204 255
169 204 255
169 204 255
169 204 255
169 204 255
169 204 255
169 204 255
170 204 255
170 204 255
170 204 255
170 204 255
170 204 255
170 204 255
170 204 255
170 204 255
170 204 255
170 204 255
170 204 255
170 204 255
170 204 255
171 205 255
171 205 255
171 205 255
171 205 255
171 205 255
171 205 255
171 205 255
171 205 255
171 205 255
171 205 255
171 205 255
171 205 255
171 205 255
171 205 255
172 205 255
172 205 255
172 205 255
172 205 255
172 205 255
172 205 255
172 205 255
172 205 255
172 205 255
172 205 255
172 205 255
172 205 255
172 205 255
172 205 255
171 205 255
171 205 255
171 205 255
171 205 255
171 205 255
171 205 255
171 205 255
171 205 255
171 205 255
171 205 255
171 205 255
171 205 255
171 205 255
170 204 255
170 204 255
170 204 255
170 204 255
170 204 255
170 204 255
170 204 255
170 204 255
170 204 255
170 204 255
170 204 255
170 204 255
170 204 255
169 204 255
169 204 255
169 204 255
169 204 255
169 204 255
169 204 255
169 204 255
169 204 255
169 204 255
169 203 255
169 203 255
169 203 255
168 203 255
168 203 255
168 203 255
168 203 255
168 203 255
168 203 255
168 203 255
168 203 255
168 203 255
168 203 255
168 203 255
168 203 255
167 203 255
167 203 255
167 203 255
167 202 255
167 202 255
167 202 255
167 202 255
167 202 255
167 202 255
167 202 255
167 202 255
166 202 255
166 202 255
166 202 255
166 202 255
166 202 255
166 202 255
166 202 255
166 202 255
166 202 255
166 202 255
165 201 255
165 201 255
165 201 255
165 201 255
165 201 255
165 201 255
165 201 255
165 201 255
165 201 255
165 201 255
165 201 255
164 201 255
164 201 255
164 201 255
164 201 255
164 201 255
164 201 255
164 200 255
164 200 255
164 200 255
164 200 255
163 200 255
163 200 255
163 200 255
163 200 255
163 200 255
163 200 255
163 200 255
163 200 255
163 200 255
163 200 255
162 200 255
162 200 255
162 200 255
162 199 255
162 199 255
162 199 255
162 199 255
162 199 255
162 199 255
162 199 255
161 199 255
161 199 255
161 199 255
161 199 255
161 199 255
161 199 255
161 199 255
161 199 255
161 199 255
161 199 255
160 198 255
160 198 255
160 198 255
160 198 255
160 198 255
160 198 255
160 198 255
160 198 255
160 198 255
160 198 255
160 198 255
159 198 255
159 198 255
159 198 255
159 198 255
159 198 255
159 198 255
159 198 255
159 198 255
159 197 255
159 197 255
159 197 255
159 197 255
159 197 255
158 197 255
158 197 255
158 197 255
158 197 255
158 197 255
158 197 255
158 197 255
158 197 255
158 197 255
158 197 255
158 197 255
158 197 255
158 197 255
158 197 255
158 197 255
157 197 255
157 197 255
157 197 255
157 197 255
157 197 255
157 197 255
157 197 255
157 196 255
157 196 255
157 196 255
157 196 255
157 196 255
157 196 255
157 196 255
157 196 255
157 196 255
157 196 255
157 196 255
157 196 255
157 196 255
157 196 255
157 196 255
157 196 255
157 196 255
157 196 255
157 196 255
157 196 255
157 196 255
157 196 255
157 196 255
157 196 255
157 196 255
157 196 255
157 196 255
157 196 255
157 196 255
157 196 255
157 196 255
157 196 255
157 196 255
157 196 255
157 196 255
157 196 255
157 196 255
157 196 255
157 196 255
157 196 255
157 196 255
157 196 255
157 196 255
157 196 255
157 196 255
157 196 255
157 196 255
157 197 255
157 197 255
157 197 255
157 197 255
157 197 255
157 197 255
158 197 255
158 197 255
158 197 255
158 197 255
158 197 255
158 197 255
158 197 255
158 197 255
158 197 255
158 197 255
158 197 255
158 197 255
158 197 255
158 197 255
158 197 255
159 197 255
159 197 255
159 197 255
159 197 255
159 197 255
159 198 255
159 198 255
159 198 255
159 198 255
159 198 255
159 198 255
159 198 255
159 198 255
160 198 255
160 198 255
160 198 255
160 198 255
160 198 255
160 198 255
160 198 255
160 198 255
160 198 255
160 198 255
160 198 255
161 199 255
161 199 255
161 199 255
161 199 255
161 199 255
161 199 255
161 199 255
161 199 255
161 199 255
161 199 255
162 199 255
162 199 255
162 199 255
162 199 255
162 199 255
162 199 255
162 199 255
162 200 255
162 200 255
162 200 255
163 200 255
163 200 255
163 200 255
163 200 255
163 200 255
163 200 255
163 200 255
163 200 255
163 200 255
163 200 255
164 200 255
164 200 255
164 200 255
164 201 255
164 201 255
164 201 255
164 201 255
164 201 255
164 201 255
164 201 255
165 201 255
165 201 255
165 201 255
165 201 255
165 201 255
165 201 255
165 201 255
165 201 255
165 201 255
165 201 255
165 201 255
166 202 255
166 202 255
166 202 255
166 202 255
166 202 255
166 202 255
166 202 255
166 202 255
166 202 255
166 202 255
167 202 255
167 202 255
167 202 255
167 202 255
167 202 255
167 202 255
167 202 255
167 202 255
167 203 255
167 203 255
167 203 255
168 203 255
168 203 255
168 203 255
168 203 255
168 203 255
168 203 255
168 203 255
168 203 255
168 203 255
168 203 255
168 203 255
168 203 255
169 203 255
169 203 255
169 203 255
169 204 255
169 204 255
169 204 255
169 204 255
169 204 255
169 204 255
169 204 255
169 204 255
169 204 255
170 204 255
170 204 255
170 204 255
170 204 255
170 204 255
170 204 255
170 204 255
170 204 255
170 204 255
170 204 255
170 204 255
170 204 255
171 205 255
171 205 255
171 205 255
171 205 255
171 205 255
171 205 255
171 205 255
171 205 255
171 205 255
171 205 255
171 205 255
171 205 255
171 205 255
171 205 255
172 205 255
172 205 255
172 205 255
172 205 255
172 205 255
172 205 255
172 205 255
172 205 255
172 205 255
172 206 255
172 206 255
172 206 255
172 205 255
172 205 255
172 205 255
172 205 255
172 205 255
172 205 255
172 205 255
172 205 255
172 205 255
171 205 255
171 205 255
171 205 255
171 205 255
171 205 255
171 205 255
171 205 255
171 205 255
171 205 255
171 205 255
171 205 255
171 205 255
171 205 255
171 205 255
170 204 255
170 204 255
170 204 255
170 204 255
170 204 255
170 204 255
170 204 255
170 204 255
170 204 255
170 204 255
170 204 255
170 204 255
170 204 255
169 204 255
169 204 255
169 204 255
169 204 255
169 204 255
169 204 255
169 204 255
169 203 255
169 203 255
169 203 255
169 203 255
169 203 255
168 203 255
168 203 255
168 203 255
168 203 255
168 203 255
168 203 255
168 203 255
168 203 255
168 203 255
168 203 255
168 203 255
167 203 255
167 203 255
167 203 255
167 203 255
167 202 255
167 202 255
167 202 255
167 202 255
167 202 255
167 202 255
167 202 255
166 202 255
166 202 255
166 202 255
166 202 255
166 202 255
166 202 255
166 202 255
166 202 255
166 202 255
166 202 255
165 201 255
165 201 255
165 201 255
165 201 255
165 201 255
165 201 255
165 201 255
165 201 255
165 201 255
165 201 255
165 201 255
164 201 255
164 201 255
164 201 255
164 201 255
164 201 255
164 201 255
164 201 255
164 200 255
164 200 255
164 200 255
163 200 255
163 200 255
163 200 255
163 200 255
163 200 255
163 200 255
163 200 255
163 200 255
163 200 255
163 200 255
162 200 255
162 200 255
162 200 255
162 199 255
162 199 255
162 199 255
162 199 255
162 199 255
162 199 255
162 199 255
161 199 255
161 199 255
161 199 255
161 199 255
161 199 255
161 199 255
161 199 255
161 199 255
161 199 255
161 199 255
161 199 255
160 198 255
160 198 255
160 198 255
160 198 255
160 198 255
160 198 255
160 198 255
160 198 255
160 198 255
160 198 255
160 198 255
159 198 255
159 198 255
159 198 255
159 198 255
159 198 255
159 198 255
159 198 255
159 198 255
159 198 255
159 197 255
159 197 255
159 197 255
159 197 255
158 197 255
158 197 255
158 197 255
158 197 255
158 197 255
158 197 255
158 197 255
158 197 255
158 197 255
158 197 255
158 197 255
158 197 255
158 197 255
158 197 255
158 197 255
158 197 255
158 197 255
158 197 255
157 197 255
157 197 255
157 197 255
157 197 255
157 197 255
157 197 255
157 197 255
157 197 255
157 197 255
157 197 255
157 196 255
157 196 255
157 196 255
157 196 255
157 196 255
157 196 255
157 196 255
157 196 255
157 196 255
157 196 255
157 196 255
157 196 255
157 196 255
157 196 255
157 196 255
157 196 255
157 196 255
157 196 255
157 196 255
157 196 255
157 196 255
157 196 255
157 196 255
157 196 255
157 196 255
157 196 255
157 197 255
157 197 255
157 197 255
157 197 255
157 197 255
157 197 255
157 197 255
157 197 255
157 197 255
157 197 255
158 197 255
158 197 255
158 197 255
158 197 255
158 197 255
158 197 255
158 197 255
158 197 255
158 197 255
158 197 255
158 197 255
158 197 255
158 197 255
158 197 255
158 197 255
158 197 255
158 197 255
158 197 255
159 197 255
159 197 255
159 197 255
159 197 255
159 198 255
159 198 255
159 198 255
159 198 255
159 198 255
159 198 255
159 198 255
159 198 255
159 198 255
160 198 255
160 198 255
160 198 255
160 198 255
160 198 255
160 198 255
160 198 255
160 198 255
160 198 255
160 198 255
160 198 255
161 199 255
161 199 255
161 199 255
161 199 255
161 199 255
161 199 255
161 199 255
161 199 255
161 199 255
161 199 255
161 199 255
162 199 255
162 199 255
162 199 255
162 199 255
162 199 255
162 199 255
162 199 255
162 200 255
162 200 255
162 200 255
163 200 255
163 200 255
163 200 255
163 200 255
163 200 255
163 200 255
163 200 255
163 200 255
163 200 255
163 200 255
164 200 255
164 200 255
164 200 255
164 201 255
164 201 255
164 201 255
164 201 255
164 201 255
164 201 255
164 201 255
165 201 255
165 201 255
165 201 255
165 201 255
165 201 255
165 201 255
165 201 255
165 201 255
165 201 255
165 201 255
166 202 255
166 202 255
166 202 255
166 202 255
166 202 255
166 202 255
166 202 255
166 202 255
166 202 255
166 202 255
166 202 255
167 202 255
167 202 255
167 202 255
167 202 255
167 202 255
167 202 255
167 202 255
167 203 255
167 203 255
167 203 255
167 203 255
168 203 255
168 203 255
168 203 255
168 203 255
168 203 255
168 203 255
168 203 255
168 203 255
168 203 255
168 203 255
168 203 255
169 203 255
169 203 255
169 203 255
169 203 255
169 204 255
169 204 255
169 204 255
169 204 255
169 204 255
169 204 255
169 204 255
169 204 255
170 204 255
170 204 255
170 204 255
170 204 255
170 204 255
170 204 255
170 204 255
170 204 255
170 204 255
170 204 255
170 204 255
170 204 255
170 204 255
171 205 255
171 205 255
171 205 255
171 205 255
171 205 255
171 205 255
171 205 255
171 205 255
171 205 255
171 205 255
171 205 255
171 205 255
171 205 255
171 205 255
172 205 255
172 205 255
172 205 255
172 205 255
172 205 255
172 205 255
172 205 255
172 205 255
172 205 255
172 205 255
172 206 255
172 206 255
173 206 255
172 206 255
172 206 255
172 206 255
172 206 255
172 206 255
172 205 255
172 205 255
172 205 255
172 205 255
172 205 255
172 205 255
172 205 255
172 205 255
172 205 255
172 205 255
171 205 255
171 205 255
171 205 255
171 205 255
171 205 255
171 205 255
171 205 255
171 205 255
171 205 255
171 205 255
171 205 255
171 205 255
171 205 255
170 204 255
170 204 255
170 204 255
170 204 255
170 204 255
170 204 255
170 204 255
170 204 255
170 204 255
170 204 255
170 204 255
170 204 255
170 204 255
169 204 255
169 204 255
169 204 255
169 204 255
169 204 255
169 204 255
169 204 255
169 204 255
169 203 255
169 203 255
169 203 255
169 203 255
168 203 255
168 203 255
168 203 255
168 203 255
168 203 255
168 203 255
168 203 255
168 203 255
168 203 255
168 203 255
168 203 255
167 203 255
167 203 255
167 203 255
167 203 255
167 202 255
167 202 255
167 202 255
167 202 255
167 202 255
167 202 255
167 202 255
166 202 255
166 202 255
166 202 255
166 202 255
166 202 255
166 202 255
166 202 255
166 202 255
166 202 255
166 202 255
166 202 255
165 201 255
165 201 255
165 201 255
165 201 255
165 201 255
165 201 255
165 201 255
165 201 255
165 201 255
165 201 255
164 201 255
164 201 255
164 201 255
164 201 255
164 201 255
164 201 255
164 201 255
164 200 255
164 200 255
164 200 255
163 200 255
163 200 255
163 200 255
163 200 255
163 200 255
163 200 255
163 200 255
163 200 255
163 200 255
163 200 255
162 200 255
162 200 255
162 200 255
162 199 255
162 199 255
162 199 255
162 199 255
162 199 255
162 199 255
162 199 255
162 199 255
161 199 255
161 199 255
161 199 255
161 199 255
161 199 255
161 199 255
161 199 255
161 199 255
161 199 255
161 199 255
161 199 255
160 198 255
160 198 255
160 198 255
160 198 255
160 198 255
160 198 255
160 198 255
160 198 255
160 198 255
160 198 255
160 198 255
159 198 255
159 198 255
159 198 255
159 198 255
159 198 255
159 198 255
159 198 255
159 198 255
159 198 255
159 197 255
159 197 255
159 197 255
159 197 255
159 197 255
159 197 255
158 197 255
158 197 255
158 197 255
158 197 255
158 197 255
158 197 255
158 197 255
158 197 255
158 197 255
158 197 255
158 197 255
158 197 255
158 197 255
158 197 255
158 197 255
158 197 255
158 197 255
158 197 255
158 197 255
158 197 255
158 197 255
158 197 255
158 197 255
157 197 255
157 197 255
157 197 255
157 197 255
157 197 255
157 197 255
157 197 255
157 197 255
157 197 255
157 197 255
157 197 255
157 197 255
157 197 255
157 197 255
157 197 255
157 197 255
157 197 255
157 197 255
157 197 255
157 197 255
157 197 255
157 197 255
157 197 255
157 197 255
158 197 255
158 197 255
158 197 255
158 197 255
158 197 255
158 197 255
158 197 255
158 197 255
158 197 255
158 197 255
158 197 255
158 197 255
158 197 255
158 197 255
158 197 255
158 197 255
158 197 255
158 197 255
158 197 255
158 197 255
158 197 255
158 197 255
158 197 255
158 197 255
159 197 255
159 197 255
159 197 255
159 197 255
159 198 255
159 198 255
159 198 255
159 198 255
159 198 255
159 198 255
159 198 255
159 198 255
159 198 255
159 198 255
160 198 255
160 198 255
160 198 255
160 198 255
160 198 255
160 198 255
160 198 255
160 198 255
160 198 255
160 198 255
160 198 255
160 198 255
161 199 255
161 199 255
161 199 255
161 199 255
161 199 255
161 199 255
161 199 255
161 199 255
161 199 255
161 199 255
161 199 255
162 199 255
162 199 255
162 199 255
162 199 255
162 199 255
162 199 255
162 200 255
162 200 255
162 200 255
162 200 255
163 200 255
163 200 255
163 200 255
163 200 255
163 200 255
163 200 255
163 200 255
163 200 255
163 200 255
163 200 255
164 200 255
164 200 255
164 200 255
164 201 255
164 201 255
164 201 255
164 201 255
164 201 255
164 201 255
164 201 255
165 201 255
165 201 255
165 201 255
165 201 255
165 201 255
165 201 255
165 201 255
165 201 255
165 201 255
165 201 255
166 202 255
166 202 255
166 202 255
166 202 255
166 202 255
166 202 255
166 202 255
166 202 255
166 202 255
166 202 255
166 202 255
167 202 255
167 202 255
167 202 255
167 202 255
167 202 255
167 202 255
167 202 255
167 203 255
167 203 255
167 203 255
167 203 255
168 203 255
168 203 255
168 203 255
168 203 255
168 203 255
168 203 255
168 203 255
168 203 255
168 203 255
168 203 255
168 203 255
169 203 255
169 203 255
169 203 255
169 203 255
169 204 255
169 204 255
169 204 255
169 204 255
169 204 255
169 204 255
169 204 255
169 204 255
170 204 255
170 204 255
170 204 255
170 204 255
170 204 255
170 204 255
170 204 255
170 204 255
170 204 255
170 204 255
170 204 255
170 204 255
170 204 255
171 205 255
171 205 255
171 205 255
171 205 255
171 205 255
171 205 255
171 205 255
171 205 255
171 205 255
171 205 255
171 205 255
171 205 255
171 205 255
172 205 255
172 205 255
172 205 255
172 205 255
172 205 255
172 205 255
172 205 255
172 205 255
172 205 255
172 205 255
172 206 255
172 206 255
172 206 255
172 206 255
172 206 255
173 206 255
173 206 255
173 206 255
173 206 255
173 206 255
173 206 255
172 206 255
172 206 255
172 206 255
172 206 255
172 206 255
172 205 255
172 205 255
172 205 255
172 205 255
172 205 255
172 205 255
172 205 255
172 205 255
172 205 255
171 205 255
171 205 255
171 205 255
171 205 255
171 205 255
171 205 255
171 205 255
171 205 255
171 205 255
171 205 255
171 205 255
171 205 255
171 205 255
171 205 255
170 204 255
170 204 255
170 204 255
170 204 255
170 204 255
170 204 255
170 204 255
170 204 255
170 204 255
170 204 255
170 204 255
170 204 255
169 204 255
169 204 255
169 204 255
169 204 255
169 204 255
169 204 255
169 204 255
169 204 255
169 203 255
169 203 255
169 203 255
169 203 255
168 203 255
168 203 255
168 203 255
168 203 255
168 203 255
168 203 255
168 203 255
168 203 255
168 203 255
168 203 255
168 203 255
167 203 255
167 203 255
167 203 255
167 203 255
167 202 255
167 202 255
167 202 255
167 202 255
167 202 255
167 202 255
167 202 255
166 202 255
166 202 255
166 202 255
166 202 255
166 202 255
166 202 255
166 202 255
166 202 255
166 202 255
166 202 255
166 202 255
165 201 255
165 201 255
165 201 255
165 201 255
165 201 255
165 201 255
165 201 255
165 201 255
165 201 255
165 201 255
164 201 255
164 201 255
164 201 255
164 201 255
164 201 255
164 201 255
164 201 255
164 200 255
164 200 255
164 200 255
163 200 255
163 200 255
163 200 255
163 200 255
163 200 255
163 200 255
163 200 255
163 200 255
163 200 255
163 200 255
163 200 255
162 200 255
162 200 255
162 200 255
162 199 255
162 199 255
162 199 255
162 199 255
162 199 255
162 199 255
162 199 255
161 199 255
161 199 255
161 199 255
161 199 255
161 199 255
161 199 255
161 199 255
161 199 255
161 199 255
161 199 255
161 199 255
160 198 255
160 198 255
160 198 255
160 198 255
160 198 255
160 198 255
160 198 255
160 198 255
160 198 255
160 198 255
160 198 255
160 198 255
160 198 255
159 198 255
159 198 255
159 198 255
159 198 255
159 198 255
159 198 255
159 198 255
159 198 255
159 198 255
159 197 255
159 197 255
159 197 255
159 197 255
159 197 255
159 197 255
159 197 255
158 197 255
158 197 255
158 197 255
158 197 255
158 197 255
158 197 255
158 197 255
158 197 255
158 197 255
158 197 255
158 197 255
158 197 255
158 197 255
158 197 255
158 197 255
158 197 255
158 197 255
158 197 255
158 197 255
158 197 255
158 197 255
158 197 255
158 197 255
158 197 255
158 197 255
158 197 255
158 197 255
158 197 255
158 197 255
158 197 255
158 197 255
158 197 255
158 197 255
158 197 255
158 197 255
158 197 255
158 197 255
158 197 255
158 197 255
158 197 255
158 197 255
158 197 255
158 197 255
158 197 255
158 197 255
158 197 255
158 197 255
158 197 255
158 197 255
158 197 255
158 197 255
158 197 255
158 197 255
158 197 255
158 197 255
158 197 255
158 197 255
158 197 255
159 197 255
159 197 255
159 197 255
159 197 255
159 197 255
159 197 255
159 198 255
159 198 255
159 198 255
159 198 255
159 198 255
159 198 255
159 198 255
159 198 255
159 198 255
159 198 255
160 198 255
160 198 255
160 198 255
160 198 255
160 198 255
160 198 255
160 198 255
160 198 255
160 198 255
160 198 255
160 198 255
160 198 255
160 198 255
161 199 255
161 199 255
161 199 255
161 199 255
161 199 255
161 199 255
161 199 255
161 199 255
161 199 255
161 199 255
161 199 255
162 199 255
162 199 255
162 199 255
162 199 255
162 199 255
162 199 255
162 199 255
162 200 255
162 200 255
162 200 255
162 200 255
163 200 255
163 200 255
163 200 255
163 200 255
163 200 255
163 200 255
163 200 255
163 200 255
163 200 255
163 200 255
164 200 255
164 200 255
164 200 255
164 201 255
164 201 255
164 201 255
164 201 255
164 201 255
164 201 255
164 201 255
165 201 255
165 201 255
165 201 255
165 201 255
165 201 255
165 201 255
165 201 255
165 201 255
165 201 255
165 201 255
166 202 255
166 202 255
166 202 255
166 202 255
166 202 255
166 202 255
166 202 255
166 202 255
166 202 255
166 202 255
166 202 255
167 202 255
167 202 255
167 202 255
167 202 255
167 202 255
167 202 255
167 202 255
167 203 255
167 203 255
167 203 255
168 203 255
168 203 255
168 203 255
168 203 255
168 203 255
168 203 255
168 203 255
168 203 255
168 203 255
168 203 255
168 203 255
168 203 255
169 203 255
169 203 255
169 203 255
169 203 255
169 204 255
169 204 255
169 204 255
169 204 255
169 204 255
169 204 255
169 204 255
169 204 255
170 204 255
170 204 255
170 204 255
170 204 255
170 204 255
170 204 255
170 204 255
170 204 255
170 204 255
170 204 255
170 204 255
170 204 255
171 205 255
171 205 255
171 205 255
171 205 255
171 205 255
171 205 255
171 205 255
171 205 255
171 205 255
171 205 255
171 205 255
171 205 255
171 205 255
171 205 255
172 205 255
172 205 255
172 205 255
172 205 255
172 205 255
172 205 255
172 205 255
172 205 255
172 205 255
172 206 255
172 206 255
172 206 255
172 206 255
172 206 255
173 206 255
173 206 255
173 206 255
173 206 255
173 206 255
173 206 255
173 206 255
173 206 255
173 206 255
173 206 255
173 206 255
173 206 255
173 206 255
173 206 255
172 206 255
172 206 255
172 206 255
172 206 255
172 206 255
172 205 255
172 205 255
172 205 255
172 205 255
172 205 255
172 205 255
172 205 255
172 205 255
172 205 255
171 205 255
171 205 255
171 205 255
171 205 255
171 205 255
171 205 255
171 205 255
171 205 255
171 205 255
171 205 255
171 205 255
171 205 255
171 205 255
170 204 255
170 204 255
170 204 255
170 204 255
170 204 255
170 204 255
170 204 255
170 204 255
170 204 255
170 204 255
170 204 255
170 204 255
170 204 255
169 204 255
169 204 255
169 204 255
169 204 255
169 204 255
169 204 255
169 204 255
169 204 255
169 203 255
169 203 255
169 203 255
169 203 255
168 203 255
168 203 255
168 203 255
168 203 255
168 203 255
168 203 255
168 203 255
168 203 255
168 203 255
168 203 255
168 203 255
167 203 255
167 203 255
167 203 255
167 202 255
167 202 255
167 202 255
167 202 255
167 202 255
167 202 255
167 202 255
167 202 255
166 202 255
166 202 255
166 202 255
166 202 255
166 202 255
166 202 255
166 202 255
166 202 255
166 202 255
166 202 255
165 201 255
165 201 255
165 201 255
165 201 255
165 201 255
165 201 255
165 201 255
165 201 255
165 201 255
165 201 255
165 201 255
164 201 255
164 201 255
164 201 255
164 201 255
164 201 255
164 201 255
164 200 255
164 200 255
164 200 255
164 200 255
163 200 255
163 200 255
163 200 255
163 200 255
163 200 255
163 200 255
163 200 255
163 200 255
163 200 255
163 200 255
162 200 255
162 200 255
162 200 255
162 199 255
162 199 255
162 199 255
162 199 255
162 199 255
162 199 255
162 199 255
162 199 255
161 199 255
161 199 255
161 199 255
161 199 255
161 199 255
161 199 255
161 199 255
161 199 255
161 199 255
161 199 255
161 199 255
160 198 255
160 198 255
160 198 255
160 198 255
160 198 255
160 198 255
160 198 255
160 198 255
160 198 255
160 198 255
160 198 255
160 198 255
160 198 255
160 198 255
159 198 255
159 198 255
159 198 255
159 198 255
159 198 255
159 198 255
159 198 255
159 198 255
159 198 255
159 198 255
159 198 255
159 197 255
159 197 255
159 197 255
159 197 255
159 197 255
159 197 255
159 197 255
158 197 255
158 197 255
158 197 255
158 197 255
158 197 255
158 197 255
158 197 255
158 197 255
158 197 255
158 197 255
158 197 255
158 197 255
158 197 255
158 197 255
158 197 255
158 197 255
158 197 255
158 197 255
158 197 255
158 197 255
158 197 255
158 197 255
158 197 255
158 197 255
158 197 255
158 197 255
158 197 255
158 197 255
158 197 255
158 197 255
158 197 255
158 197 255
158 197 255
158 197 255
158 197 255
158 197 255
158 197 255
158 197 255
158 197 255
158 197 255
158 197 255
158 197 255
158 197 255
158 197 255
159 197 255
159 197 255
159 197 255
159 197 255
159 197 255
159 197 255
159 197 255
159 198 255
159 198 255
159 198 255
159 198 255
159 198 255
159 198 255
159 198 255
159 198 255
159 198 255
159 198 255
159 198 255
160 198 255
160 198 255
160 198 255
160 198 255
160 198 255
160 198 255
160 198 255
160 198 255
160 198 255
160 198 255
160 198 255
160 198 255
160 198 255
161 198 255
161 199 255
161 199 255
161 199 255
161 199 255
161 199 255
161 199 255
161 199 255
161 199 255
161 199 255
161 199 255
161 199 255
162 199 255
162 199 255
162 199 255
162 199 255
162 199 255
162 199 255
162 199 255
162 200 255
162 200 255
162 200 255
162 200 255
163 200 255
163 200 255
163 200 255
163 200 255
163 200 255
163 200 255
163 200 255
163 200 255
163 200 255
163 200 255
164 200 255
164 200 255
164 200 255
164 200 255
164 201 255
164 201 255
164 201 255
164 201 255
164 201 255
164 201 255
165 201 255
165 201 255
165 201 255
165 201 255
165 201 255
165 201 255
165 201 255
165 201 255
165 201 255
165 201 255
165 201 255
166 202 255
166 202 255
166 202 255
166 202 255
166 202 255
166 202 255
166 202 255
166 202 255
166 202 255
166 202 255
166 202 255
167 202 255
167 202 255
167 202 255
167 202 255
167 202 255
167 202 255
167 202 255
167 203 255
167 203 255
167 203 255
168 203 255
168 203 255
168 203 255
168 203 255
168 203 255
168 203 255
168 203 255
168 203 255
168 203 255
168 203 255
168 203 255
168 203 255
169 203 255
169 203 255
169 203 255
169 204 255
169 204 255
169 204 255
169 204 255
169 204 255
169 204 255
169 204 255
169 204 255
170 204 255
170 204 255
170 204 255
170 204 255
170 204 255
170 204 255
170 204 255
170 204 255
170 204 255
170 204 255
170 204 255
170 204 255
170 204 255
171 205 255
171 205 255
171 205 255
171 205 255
171 205 255
171 205 255
171 205 255
171 205 255
171 205 255
171 205 255
171 205 255
171 205 255
171 205 255
172 205 255
172 205 255
172 205 255
172 205 255
172 205 255
172 205 255
172 205 255
172 205 255
172 205 255
172 205 255
172 206 255
172 206 255
172 206 255
172 206 255
172 206 255
173 206 255
173 206 255
173 206 255
173 206 255
173 206 255
173 206 255
173 206 255
173 206 255
173 206 255
173 206 255
173 206 255
173 206 255
173 206 255
173 206 255
173 206 255
173 206 255
173 206 255
173 206 255
173 206 255
173 206 255
173 206 255
172 206 255
172 206 255
172 206 255
172 206 255
172 205 255
172 205 255
172 205 255
172 205 255
172 205 255
172 205 255
172 205 255
172 205 255
172 205 255
171 205 255
171 205 255
171 205 255
171 205 255
171 205 255
171 205 255
171 205 255
171 205 255
171 205 255
171 205 255
171 205 255
171 205 255
171 205 255
171 205 255
170 204 255
170 204 255
170 204 255
170 204 255
170 204 255
170 204 255
170 204 255
170 204 255
170 204 255
170 204 255
170 204 255
170 204 255
169 204 255
169 204 255
169 204 255
169 204 255
169 204 255
169 204 255
169 204 255
169 204 255
169 203 255
169 203 255
169 203 255
169 203 255
168 203 255
168 203 255
168 203 255
168 203 255
168 203 255
168 203 255
168 203 255
168 203 255
168 203 255
168 203 255
168 203 255
167 203 255
167 203 255
167 203 255
167 203 255
167 202 255
167 202 255
167 202 255
167 202 255
167 202 255
167 202 255
167 202 255
166 202 255
166 202 255
166 202 255
166 202 255
166 202 255
166 202 255
166 202 255
166 202 255
166 202 255
166 202 255
165 201 255
165 201 255
165 201 255
165 201 255
165 201 255
165 201 255
165 201 255
165 201 255
165 201 255
165 201 255
165 201 255
164 201 255
164 201 255
164 201 255
164 201 255
164 201 255
164 201 255
164 201 255
164 200 255
164 200 255
164 200 255
163 200 255
163 200 255
163 200 255
163 200 255
163 200 255
163 200 255
163 200 255
163 200 255
163 200 255
163 200 255
163 200 255
162 200 255
162 200 255
162 200 255
162 199 255
162 199 255
162 199 255
162 199 255
162 199 255
162 199 255
162 199 255
162 199 255
161 199 255
161 199 255
161 199 255
161 199 255
161 199 255
161 199 255
161 199 255
161 199 255
161 199 255
161 199 255
161 199 255
161 199 255
160 198 255
160 198 255
160 198 255
160 198 255
160 198 255
160 198 255
160 198 255
160 198 255
160 198 255
160 198 255
160 198 255
160 198 255
160 198 255
160 198 255
159 198 255
159 198 255
159 198 255
159 198 255
159 198 255
159 198 255
159 198 255
159 198 255
159 198 255
159 198 255
159 198 255
159 198 255
159 198 255
159 198 255
159 197 255
159 197 255
159 197 255
159 197 255
159 197 255
159 197 255
159 197 255
159 197 255
159 197 255
159 197 255
159 197 255
158 197 255
158 197 255
158 197 255
158 197 255
158 197 255
158 197 255
158 197 255
158 197 255
158 197 255
158 197 255
158 197 255
158 197 255
158 197 255
158 197 255
158 197 255
158 197 255
158 197 255
158 197 255
158 197 255
158 197 255
159 197 255
159 197 255
159 197 255
159 197 255
159 197 255
159 197 255
159 197 255
159 197 255
159 197 255
159 197 255
159 197 255
159 197 255
159 198 255
159 198 255
159 198 255
159 198 255
159 198 255
159 198 255
159 198 255
159 198 255
159 198 255
159 198 255
159 198 255
159 198 255
159 198 255
160 198 255
160 198 255
160 198 255
160 198 255
160 198 255
160 198 255
160 198 255
160 198 255
160 198 255
160 198 255
160 198 255
160 198 255
160 198 255
160 198 255
161 199 255
161 199 255
161 199 255
161 199 255
161 199 255
161 199 255
161 199 255
161 199 255
161 199 255
161 199 255
161 199 255
161 199 255
162 199 255
162 199 255
162 199 255
162 199 255
162 199 255
162 199 255
162 199 255
162 199 255
162 200 255
162 200 255
162 200 255
163 200 255
163 200 255
163 200 255
163 200 255
163 200 255
163 200 255
163 200 255
163 200 255
163 200 255
163 200 255
163 200 255
164 200 255
164 200 255
164 200 255
164 201 255
164 201 255
164 201 255
164 201 255
164 201 255
164 201 255
164 201 255
165 201 255
165 201 255
165 201 255
165 201 255
165 201 255
165 201 255
165 201 255
165 201 255
165 201 255
165 201 255
165 201 255
166 202 255
166 202 255
166 202 255
166 202 255
166 202 255
166 202 255
166 202 255
166 202 255
166 202 255
166 202 255
167 202 255
167 202 255
167 202 255
167 202 255
167 202 255
167 202 255
167 202 255
167 203 255
167 203 255
167 203 255
167 203 255
168 203 255
168 203 255
168 203 255
168 203 255
168 203 255
168 203 255
168 203 255
168 203 255
168 203 255
168 203 255
168 203 255
169 203 255
169 203 255
169 203 255
169 203 255
169 204 255
169 204 255
169 204 255
169 204 255
169 204 255
169 204 255
169 204 255
169 204 255
170 204 255
170 204 255
170 204 255
170 204 255
170 204 255
170 204 255
170 204 255
170 204 255
170 204 255
170 204 255
170 204 255
170 204 255
171 205 255
171 205 255
171 205 255
171 205 255
171 205 255
171 205 255
171 205 255
171 205 255
171 205 255
171 205 255
171 205 255
171 205 255
171 205 255
172 205 255
172 205 255
172 205 255
172 205 255
172 205 255
172 205 255
172 205 255
172 205 255
172 205 255
172 205 255
172 206 255
172 206 255
172 206 255
172 206 255
172 206 255
173 206 255
173 206 255
173 206 255
173 206 255
173 206 255
173 206 255
173 206 255
173 206 255
173 206 255
173 206 255
173 206 255
173 206 255
174 206 255
173 206 255
173 206 255
173 206 255
173 206 255
173 206 255
173 206 255
173 206 255
173 206 255
173 206 255
173 206 255
173 206 255
173 206 255
173 206 255
173 206 255
173 206 255
172 206 255
172 206 255
172 206 255
172 206 255
172 206 255
172 205 255
172 205 255
172 205 255
172 205 255
172 205 255
172 205 255
172 205 255
172 205 255
172 205 255
171 205 255
171 205 255
171 205 255
171 205 255
171 205 255
171 205 255
171 205 255
171 205 255
171 205 255
171 205 255
171 205 255
171 205 255
171 205 255
170 204 255
170 204 255
170 204 255
170 204 255
170 204 255
170 204 255
170 204 255
170 204 255
170 204 255
170 204 255
170 204 255
170 204 255
170 204 255
169 204 255
169 204 255
169 204 255
169 204 255
169 204 255
169 204 255
169 204 255
169 203 255
169 203 255
169 203 255
169 203 255
168 203 255
168 203 255
168 203 255
168 203 255
168 203 255
168 203 255
168 203 255
168 203 255
168 203 255
168 203 255
168 203 255
167 203 255
167 203 255
167 203 255
167 203 255
167 202 255
167 202 255
167 202 255
167 202 255
167 202 255
167 202 255
167 202 255
166 202 255
166 202 255
166 202 255
166 202 255
166 202 255
166 202 255
166 202 255
166 202 255
166 202 255
166 202 255
166 202 255
165 201 255
165 201 255
165 201 255
165 201 255
165 201 255
165 201 255
165 201 255
165 201 255
165 201 255
165 201 255
164 201 255
164 201 255
164 201 255
164 201 255
164 201 255
164 201 255
164 201 255
164 200 255
164 200 255
164 200 255
164 200 255
163 200 255
163 200 255
163 200 255
163 200 255
163 200 255
163 200 255
163 200 255
163 200 255
163 200 255
163 200 255
162 200 255
162 200 255
162 200 255
162 200 255
162 199 255
162 199 255
162 199 255
162 199 255
162 199 255
162 199 255
162 199 255
162 199 255
161 199 255
161 199 255
161 199 255
161 199 255
161 199 255
161 199 255
161 199 255
161 199 255
161 199 255
161 199 255
161 199 255
161 199 255
161 199 255
160 198 255
160 198 255
160 198 255
160 198 255
160 198 255
160 198 255
160 198 255
160 198 255
160 198 255
160 198 255
160 198 255
160 198 255
160 198 255
160 198 255
160 198 255
159 198 255
159 198 255
159 198 255
159 198 255
159 198 255
159 198 255
159 198 255
159 198 255
159 198 255
159 198 255
159 198 255
159 198 255
159 198 255
159 198 255
159 198 255
159 198 255
159 198 255
159 198 255
159 198 255
159 198 255
159 197 255
159 197 255
159 197 255
159 197 255
159 197 255
159 197 255
159 197 255
159 197 255
159 197 255
159 197 255
159 197 255
159 197 255
159 197 255
159 197 255
159 197 255
159 197 255
159 197 255
159 197 255
159 198 255
159 198 255
159 198 255
159 198 255
159 198 255
159 198 255
159 198 255
159 198 255
159 198 255
159 198 255
159 198 255
159 198 255
159 198 255
159 198 255
159 198 255
159 198 255
159 198 255
159 198 255
159 198 255
160 198 255
160 198 255
160 198 255
160 198 255
160 198 255
160 198 255
160 198 255
160 198 255
160 198 255
160 198 255
160 198 255
160 198 255
160 198 255
160 198 255
160 198 255
160 198 255
160 198 255
161 199 255
161 199 255
161 199 255
161 199 255
161 199 255
161 199 255
161 199 255
161 199 255
161 199 255
161 199 255
161 199 255
161 199 255
162 199 255
162 199 255
162 199 255
162 199 255
162 199 255
162 199 255
162 199 255
162 199 255
162 200 255
162 200 255
162 200 255
162 200 255
163 200 255
163 200 255
163 200 255
163 200 255
163 200 255
163 200 255
163 200 255
163 200 255
163 200 255
163 200 255
164 200 255
164 200 255
164 200 255
164 200 255
164 201 255
164 201 255
164 201 255
164 201 255
164 201 255
164 201 255
164 201 255
165 201 255
165 201 255
165 201 255
165 201 255
165 201 255
165 201 255
165 201 255
165 201 255
165 201 255
165 201 255
165 201 255
166 202 255
166 202 255
166 202 255
166 202 255
166 202 255
166 202 255
166 202 255
166 202 255
166 202 255
166 202 255
167 202 255
167 202 255
167 202 255
167 202 255
167 202 255
167 202 255
167 202 255
167 203 255
167 203 255
167 203 255
167 203 255
168 203 255
168 203 255
168 203 255
168 203 255
168 203 255
168 203 255
168 203 255
168 203 255
168 203 255
168 203 255
168 203 255
169 203 255
169 203 255
169 203 255
169 203 255
169 204 255
169 204 255
169 204 255
169 204 255
169 204 255
169 204 255
169 204 255
170 204 255
170 204 255
170 204 255
170 204 255
170 204 255
170 204 255
170 204 255
170 204 255
170 204 255
170 204 255
170 204 255
170 204 255
170 204 255
171 205 255
171 205 255
171 205 255
171 205 255
171 205 255
171 205 255
171 205 255
171 205 255
171 205 255
171 205 255
171 205 255
171 205 255
171 205 255
172 205 255
172 205 255
172 205 255
172 205 255
172 205 255
172 205 255
172 205 255
172 205 255
172 205 255
172 206 255
172 206 255
172 206 255
172 206 255
172 206 255
173 206 255
173 206 255
173 206 255
173 206 255
173 206 255
173 206 255
173 206 255
173 206 255
173 206 255
173 206 255
173 206 255
173 206 255
173 206 255
173 206 255
173 206 255
174 206 255
174 206 255
174 206 255
174 206 255
174 206 255
174 206 255
173 206 255
173 206 255
173 206 255
173 206 255
173 206 255
173 206 255
173 206 255
173 206 255
173 206 255
173 206 255
173 206 255
173 206 255
173 206 255
173 206 255
173 206 255
172 206 255
172 206 255
172 206 255
172 206 255
172 206 255
172 205 255
172 205 255
172 205 255
172 205 255
172 205 255
172 205 255
172 205 255
172 205 255
172 205 255
171 205 255
171 205 255
171 205 255
171 205 255
171 205 255
171 205 255
171 205 255
171 205 255
171 205 255
171 205 255
171 205 255
171 205 255
171 205 255
170 204 255
170 204 255
170 204 255
170 204 255
170 204 255
170 204 255
170 204 255
170 204 255
170 204 255
170 204 255
170 204 255
170 204 255
169 204 255
169 204 255
169 204 255
169 204 255
169 204 255
169 204 255
169 204 255
169 204 255
169 203 255
169 203 255
169 203 255
169 203 255
168 203 255
168 203 255
168 203 255
168 203 255
168 203 255
168 203 255
168 203 255
168 203 255
168 203 255
168 203 255
168 203 255
167 203 255
167 203 255
167 203 255
167 202 255
167 202 255
167 202 255
167 202 255
167 202 255
167 202 255
167 202 255
167 202 255
166 202 255
166 202 255
166 202 255
166 202 255
166 202 255
166 202 255
166 202 255
166 202 255
166 202 255
166 202 255
165 201 255
165 201 255
165 201 255
165 201 255
165 201 255
165 201 255
165 201 255
165 201 255
165 201 255
165 201 255
165 201 255
164 201 255
164 201 255
164 201 255
164 201 255
164 201 255
164 201 255
164 201 255
164 200 255
164 200 255
164 200 255
163 200 255
163 200 255
163 200 255
163 200 255
163 200 255
163 200 255
163 200 255
163 200 255
163 200 255
163 200 255
163 200 255
162 200 255
162 200 255
162 200 255
162 200 255
162 199 255
162 199 255
162 199 255
162 199 255
162 199 255
162 199 255
162 199 255
162 199 255
161 199 255
161 199 255
161 199 255
161 199 255
161 199 255
161 199 255
161 199 255
161 199 255
161 199 255
161 199 255
161 199 255
161 199 255
161 199 255
161 199 255
160 198 255
160 198 255
160 198 255
160 198 255
160 198 255
160 198 255
160 198 255
160 198 255
160 198 255
160 198 255
160 198 255
160 198 255
160 198 255
160 198 255
160 198 255
160 198 255
160 198 255
160 198 255
160 198 255
159 198 255
159 198 255
159 198 255
159 198 255
159 198 255
159 198 255
159 198 255
159 198 255
159 198 255
159 198 255
159 198 255
159 198 255
159 198 255
159 198 255
159 198 255
159 198 255
159 198 255
159 198 255
159 198 255
159 198 255
159 198 255
159 198 255
159 198 255
159 198 255
159 198 255
159 198 255
159 198 255
159 198 255
159 198 255
159 198 255
159 198 255
159 198 255
159 198 255
159 198 255
159 198 255
159 198 255
159 198 255
159 198 255
159 198 255
159 198 255
160 198 255
160 198 255
160 198 255
160 198 255
160 198 255
160 198 255
160 198 255
160 198 255
160 198 255
160 198 255
160 198 255
160 198 255
160 198 255
160 198 255
160 198 255
160 198 255
160 198 255
160 198 255
160 198 255
161 199 255
161 199 255
161 199 255
161 199 255
161 199 255
161 199 255
161 199 255
161 199 255
161 199 255
161 199 255
161 199 255
161 199 255
161 199 255
161 199 255
162 199 255
162 199 255
162 199 255
162 199 255
162 199 255
162 199 255
162 199 255
162 199 255
162 200 255
162 200 255
162 200 255
162 200 255
163 200 255
163 200 255
163 200 255
163 200 255
163 200 255
163 200 255
163 200 255
163 200 255
163 200 255
163 200 255
163 200 255
164 200 255
164 200 255
164 200 255
164 201 255
164 201 255
164 201 255
164 201 255
164 201 255
164 201 255
164 201 255
165 201 255
165 201 255
165 201 255
165 201 255
165 201 255
165 201 255
165 201 255
165 201 255
165 201 255
165 201 255
165 201 255
166 202 255
166 202 255
166 202 255
166 202 255
166 202 255
166 202 255
166 202 255
166 202 255
166 202 255
166 202 255
167 202 255
167 202 255
167 202 255
167 202 255
167 202 255
167 202 255
167 202 255
167 202 255
167 203 255
167 203 255
167 203 255
168 203 255
168 203 255
168 203 255
168 203 255
168 203 255
168 203 255
168 203 255
168 203 255
168 203 255
168 203 255
168 203 255
169 203 255
169 203 255
169 203 255
169 203 255
169 204 255
169 204 255
169 204 255
169 204 255
169 204 255
169 204 255
169 204 255
169 204 255
170 204 255
170 204 255
170 204 255
170 204 255
170 204 255
170 204 255
170 204 255
170 204 255
170 204 255
170 204 255
170 204 255
170 204 255
171 205 255
171 205 255
171 205 255
171 205 255
171 205 255
171 205 255
171 205 255
171 205 255
171 205 255
171 205 255
171 205 255
171 205 255
171 205 255
172 205 255
172 205 255
172 205 255
172 205 255
172 205 255
172 205 255
172 205 255
172 205 255
172 205 255
172 206 255
172 206 255
172 206 255
172 206 255
172 206 255
173 206 255
173 206 255
173 206 255
173 206 255
173 206 255
173 206 255
173 206 255
173 206 255
173 206 255
173 206 255
173 206 255
173 206 255
173 206 255
173 206 255
173 206 255
174 206 255
174 206 255
174 206 255
174 206 255
174 206 255
174 207 255
174 207 255
174 207 255
174 207 255
174 206 255
174 206 255
174 206 255
174 206 255
174 206 255
173 206 255
173 206 255
173 206 255
173 206 255
173 206 255
173 206 255
173 206 255
173 206 255
173 206 255
173 206 255
173 206 255
173 206 255
173 206 255
173 206 255
173 206 255
172 206 255
172 206 255
172 206 255
172 206 255
172 205 255
172 205 255
172 205 255
172 205 255
172 205 255
172 205 255
172 205 255
172 205 255
172 205 255
171 205 255
171 205 255
171 205 255
171 205 255
171 205 255
171 205 255
171 205 255
171 205 255
171 205 255
171 205 255
171 205 255
171 205 255
171 205 255
170 204 255
170 204 255
170 204 255
170 204 255
170 204 255
170 204 255
170 204 255
170 204 255
170 204 255
170 204 255
170 204 255
170 204 255
170 204 255
169 204 255
169 204 255
169 204 255
169 204 255
169 204 255
169 204 255
169 204 255
169 203 255
169 203 255
169 203 255
169 203 255
168 203 255
168 203 255
168 203 255
168 203 255
168 203 255
168 203 255
168 203 255
168 203 255
168 203 255
168 203 255
168 203 255
167 203 255
167 203 255
167 203 255
167 203 255
167 202 255
167 202 255
167 202 255
167 202 255
167 202 255
167 202 255
167 202 255
166 202 255
166 202 255
166 202 255
166 202 255
166 202 255
166 202 255
166 202 255
166 202 255
166 202 255
166 202 255
166 202 255
165 201 255
165 201 255
165 201 255
165 201 255
165 201 255
165 201 255
165 201 255
165 201 255
165 201 255
165 201 255
164 201 255
164 201 255
164 201 255
164 201 255
164 201 255
164 201 255
164 201 255
164 200 255
164 200 255
164 200 255
164 200 255
163 200 255
163 200 255
163 200 255
163 200 255
163 200 255
163 200 255
163 200 255
163 200 255
163 200 255
163 200 255
163 200 255
162 200 255
162 200 255
162 200 255
162 200 255
162 199 255
162 199 255
162 199 255
162 199 255
162 199 255
162 199 255
162 199 255
162 199 255
161 199 255
161 199 255
161 199 255
161 199 255
161 199 255
161 199 255
161 199 255
161 199 255
161 199 255
161 199 255
161 199 255
161 199 255
161 199 255
161 199 255
161 199 255
160 198 255
160 198 255
160 198 255
160 198 255
160 198 255
160 198 255
160 198 255
160 198 255
160 198 255
160 198 255
160 198 255
160 198 255
160 198 255
160 198 255
160 198 255
160 198 255
160 198 255
160 198 255
160 198 255
160 198 255
160 198 255
160 198 255
160 198 255
160 198 255
160 198 255
160 198 255
160 198 255
150 186 239
142 177 228
134 166 215
127 157 204
123 153 197
124 154 200
117 145 188
126 158 204
119 147 190
125 155 200
127 157 203
132 165 214
145 180 232
148 184 238
158 196 253
160 198 255
160 198 255
160 198 255
160 198 255
160 198 255
160 198 255
160 198 255
160 198 255
160 198 255
160 198 255
160 198 255
160 198 255
160 198 255
160 198 255
160 198 255
160 198 255
160 198 255
160 198 255
160 198 255
160 198 255
160 198 255
160 198 255
160 198 255
160 198 255
160 198 255
161 199 255
161 199 255
161 199 255
161 199 255
161 199 255
161 199 255
161 199 255
161 199 255
161 199 255
161 199 255
161 199 255
161 199 255
161 199 255
161 199 255
161 199 255
161 199 255
162 199 255
162 199 255
162 199 255
162 199 255
162 199 255
162 199 255
162 199 255
162 199 255
162 200 255
162 200 255
162 200 255
162 200 255
163 200 255
163 200 255
163 200 255
163 200 255
163 200 255
163 200 255
163 200 255
163 200 255
163 200 255
163 200 255
163 200 255
164 200 255
164 200 255
164 200 255
164 200 255
164 201 255
164 201 255
164 201 255
164 201 255
164 201 255
164 201 255
164 201 255
165 201 255
165 201 255
165 201 255
165 201 255
165 201 255
165 201 255
165 201 255
165 201 255
165 201 255
165 201 255
166 202 255
166 202 255
166 202 255
166 202 255
166 202 255
166 202 255
166 202 255
166 202 255
166 202 255
166 202 255
166 202 255
167 202 255
167 202 255
167 202 255
167 202 255
167 202 255
167 202 255
167 202 255
167 203 255
167 203 255
167 203 255
167 203 255
168 203 255
168 203 255
168 203 255
168 203 255
168 203 255
168 203 255
168 203 255
168 203 255
168 203 255
168 203 255
168 203 255
169 203 255
169 203 255
169 203 255
169 203 255
169 204 255
169 204 255
169 204 255
169 204 255
169 204 255
169 204 255
169 204 255
170 204 255
170 204 255
170 204 255
170 204 255
170 204 255
170 204 255
170 204 255
170 204 255
170 204 255
170 204 255
170 204 255
170 204 255
170 204 255
171 205 255
171 205 255
171 205 255
171 205 255
171 205 255
171 205 255
171 205 255
171 205 255
171 205 255
171 205 255
171 205 255
171 205 255
172 205 255
172 205 255
172 205 255
172 205 255
172 205 255
172 205 255
172 205 255
172 205 255
172 205 255
172 205 255
172 206 255
172 206 255
172 206 255
172 206 255
173 206 255
173 206 255
173 206 255
173 206 255
173 206 255
173 206 255
173 206 255
173 206 255
173 206 255
173 206 255
173 206 255
173 206 255
173 206 255
173 206 255
173 206 255
174 206 255
174 206 255
174 206 255
174 206 255
174 206 255
174 206 255
174 207 255
174 207 255
174 207 255
174 207 255
174 207 255
174 207 255
174 207 255
174 207 255
174 207 255
174 207 255
174 207 255
174 206 255
174 206 255
174 206 255
174 206 255
174 206 255
173 206 255
173 206 255
173 206 255
173 206 255
173 206 255
173 206 255
173 206 255
173 206 255
173 206 255
173 206 255
173 206 255
173 206 255
173 206 255
173 206 255
172 206 255
172 206 255
172 206 255
172 206 255
172 206 255
172 205 255
172 205 255
172 205 255
172 205 255
172 205 255
172 205 255
172 205 255
172 205 255
172 205 255
171 205 255
171 205 255
171 205 255
171 205 255
171 205 255
171 205 255
171 205 255
171 205 255
171 205 255
171 205 255
171 205 255
171 205 255
171 205 255
170 204 255
170 204 255
170 204 255
170 204 255
170 204 255
170 204 255
170 204 255
170 204 255
170 204 255
170 204 255
170 204 255
170 204 255
169 204 255
169 204 255
169 204 255
169 204 255
169 204 255
169 204 255
169 204 255
169 204 255
169 203 255
169 203 255
169 203 255
169 203 255
168 203 255
168 203 255
168 203 255
168 203 255
168 203 255
168 203 255
168 203 255
168 203 255
168 203 255
168 203 255
168 203 255
167 203 255
167 203 255
167 203 255
167 202 255
167 202 255
167 202 255
167 202 255
167 202 255
167 202 255
167 202 255
166 202 255
166 202 255
166 202 255
166 202 255
166 202 255
166 202 255
166 202 255
166 202 255
166 202 255
166 202 255
166 202 255
165 201 255
165 201 255
165 201 255
165 201 255
165 201 255
165 201 255
165 201 255
165 201 255
165 201 255
165 201 255
165 201 255
164 201 255
164 201 255
164 201 255
164 201 255
164 201 255
164 201 255
164 201 255
164 200 255
164 200 255
164 200 255
164 200 255
163 200 255
163 200 255
163 200 255
163 200 255
163 200 255
163 200 255
163 200 255
163 200 255
163 200 255
163 200 255
163 200 255
162 200 255
162 200 255
162 200 255
162 200 255
162 200 255
162 199 255
162 199 255
162 199 255
162 199 255
162 199 255
162 199 255
162 199 255
162 199 255
162 199 255
161 199 255
161 199 255
161 199 255
161 199 255
161 199 255
161 199 255
161 199 255
161 199 255
161 199 255
161 199 255
161 199 255
161 199 255
161 199 255
161 199 255
161 199 255
161 199 255
160 198 255
160 198 255
160 198 255
160 198 255
160 198 255
160 198 255
160 198 255
160 198 255
160 198 255
160 198 255
160 198 255
160 198 255
160 198 255
158 195 252
134 166 215
109 136 177
119 147 190
93 116 150
84 106 139
79 97 125
75 93 120
70 89 117
73 91 118
73 90 117
72 90 118
71 89 115
75 93 120
70 87 113
73 91 117
73 91 119
73 92 120
71 90 118
72 89 116
75 93 120
76 94 121
80 100 130
97 120 156
115 142 184
128 159 206
135 168 216
157 195 251
160 198 255
160 198 255
160 198 255
160 198 255
160 198 255
160 198 255
160 198 255
160 198 255
160 198 255
160 198 255
160 198 255
160 198 255
161 199 255
161 199 255
161 199 255
161 199 255
161 199 255
161 199 255
161 199 255
161 199 255
161 199 255
161 199 255
161 199 255
161 199 255
161 199 255
161 199 255
161 199 255
161 199 255
161 199 255
161 199 255
162 199 255
162 199 255
162 199 255
162 199 255
162 199 255
162 199 255
162 199 255
162 199 255
162 200 255
162 200 255
162 200 255
162 200 255
163 200 255
163 200 255
163 200 255
163 200 255
163 200 255
163 200 255
163 200 255
163 200 255
163 200 255
163 200 255
163 200 255
163 200 255
164 200 255
164 200 255
164 200 255
164 200 255
164 201 255
164 201 255
164 201 255
164 201 255
164 201 255
164 201 255
164 201 255
165 201 255
165 201 255
165 201 255
165 201 255
165 201 255
165 201 255
165 201 255
165 201 255
165 201 255
165 201 255
165 201 255
166 202 255
166 202 255
166 202 255
166 202 255
166 202 255
166 202 255
166 202 255
166 202 255
166 202 255
166 202 255
166 202 255
167 202 255
167 202 255
167 202 255
167 202 255
167 202 255
167 202 255
167 202 255
167 203 255
167 203 255
167 203 255
168 203 255
168 203 255
168 203 255
168 203 255
168 203 255
168 203 255
168 203 255
168 203 255
168 203 255
168 203 255
168 203 255
169 203 255
169 203 255
169 203 255
169 203 255
169 204 255
169 204 255
169 204 255
169 204 255
169 204 255
169 204 255
169 204 255
169 204 255
170 204 255
170 204 255
170 204 255
170 204 255
170 204 255
170 204 255
170 204 255
170 204 255
170 204 255
170 204 255
170 204 255
170 204 255
171 205 255
171 205 255
171 205 255
171 205 255
171 205 255
171 205 255
171 205 255
171 205 255
171 205 255
171 205 255
171 205 255
171 205 255
171 205 255
172 205 255
172 205 255
172 205 255
172 205 255
172 205 255
172 205 255
172 205 255
172 205 255
172 205 255
172 206 255
172 206 255
172 206 255
172 206 255
173 206 255
173 206 255
173 206 255
173 206 255
173 206 255
173 206 255
173 206 255
173 206 255
173 206 255
173 206 255
173 206 255
173 206 255
173 206 255
173 206 255
173 206 255
174 206 255
174 206 255
174 206 255
174 206 255
174 206 255
174 207 255
174 207 255
174 207 255
174 207 255
174 207 255
174 207 255
174 207 255
174 207 255
175 207 255
174 207 255
174 207 255
174 207 255
174 207 255
174 207 255
174 207 255
174 207 255
174 207 255
174 207 255
174 207 255
174 206 255
174 206 255
174 206 255
174 206 255
174 206 255
174 206 255
173 206 255
173 206 255
173 206 255
173 206 255
173 206 255
173 206 255
173 206 255
173 206 255
173 206 255
173 206 255
173 206 255
173 206 255
173 206 255
173 206 255
173 206 255
172 206 255
172 206 255
172 206 255
172 206 255
172 205 255
172 205 255
172 205 255
172 205 255
172 205 255
172 205 255
172 205 255
172 205 255
172 205 255
171 205 255
171 205 255
171 205 255
171 205 255
171 205 255
171 205 255
171 205 255
171 205 255
171 205 255
171 205 255
171 205 255
171 205 255
171 205 255
170 204 255
170 204 255
170 204 255
170 204 255
170 204 255
170 204 255
170 204 255
170 204 255
170 204 255
170 204 255
170 204 255
170 204 255
169 204 255
169 204 255
169 204 255
169 204 255
169 204 255
169 204 255
169 204 255
169 203 255
169 203 255
169 203 255
169 203 255
168 203 255
168 203 255
168 203 255
168 203 255
168 203 255
168 203 255
168 203 255
168 203 255
168 203 255
168 203 255
168 203 255
167 203 255
167 203 255
167 203 255
167 203 255
167 202 255
167 202 255
167 202 255
167 202 255
167 202 255
167 202 255
167 202 255
166 202 255
166 202 255
166 202 255
166 202 255
166 202 255
166 202 255
166 202 255
166 202 255
166 202 255
166 202 255
166 202 255
165 201 255
165 201 255
165 201 255
165 201 255
165 201 255
165 201 255
165 201 255
165 201 255
165 201 255
165 201 255
165 201 255
164 201 255
164 201 255
164 201 255
164 201 255
164 201 255
164 201 255
164 201 255
164 200 255
164 200 255
164 200 255
164 200 255
163 200 255
163 200 255
163 200 255
163 200 255
163 200 255
163 200 255
163 200 255
163 200 255
163 200 255
163 200 255
163 200 255
163 200 255
162 200 255
162 200 255
162 200 255
162 200 255
162 199 255
162 199 255
162 199 255
162 199 255
162 199 255
162 199 255
162 199 255
162 199 255
162 199 255
162 199 255
161 199 255
161 199 255
161 199 255
161 199 255
161 199 255
161 199 255
161 199 255
161 199 255
161 199 255
161 199 255
161 199 255
161 199 255
161 199 255
161 199 255
161 199 255
161 199 255
161 199 255
161 199 255
161 199 255
161 199 255
152 188 241
131 162 209
108 133 171
89 110 142
73 91 117
73 90 117
71 88 114
75 94 121
72 91 119
74 92 120
71 88 115
73 92 120
71 89 116
74 91 117
74 93 122
75 93 121
74 92 119
75 92 118
74 93 121
70 88 115
73 91 117
75 93 120
71 88 113
73 92 119
74 91 117
71 89 117
74 93 120
72 90 117
74 93 120
73 91 118
73 90 116
75 93 120
95 117 151
125 154 199
133 164 211
157 194 249
161 199 255
161 199 255
161 199 255
161 199 255
161 199 255
161 199 255
161 199 255
161 199 255
161 199 255
161 199 255
161 199 255
161 199 255
161 199 255
161 199 255
161 199 255
161 199 255
161 199 255
161 199 255
161 199 255
161 199 255
162 199 255
162 199 255
162 199 255
162 199 255
162 199 255
162 199 255
162 199 255
162 199 255
162 199 255
162 199 255
162 200 255
162 200 255
162 200 255
162 200 255
163 200 255
163 200 255
163 200 255
163 200 255
163 200 255
163 200 255
163 200 255
163 200 255
163 200 255
163 200 255
163 200 255
163 200 255
164 200 255
164 200 255
164 200 255
164 200 255
164 201 255
164 201 255
164 201 255
164 201 255
164 201 255
164 201 255
164 201 255
165 201 255
165 201 255
165 201 255
165 201 255
165 201 255
165 201 255
165 201 255
165 201 255
165 201 255
165 201 255
165 201 255
166 202 255
166 202 255
166 202 255
166 202 255
166 202 255
166 202 255
166 202 255
166 202 255
166 202 255
166 202 255
166 202 255
167 202 255
167 202 255
167 202 255
167 202 255
167 202 255
167 202 255
167 202 255
167 203 255
167 203 255
167 203 255
167 203 255
168 203 255
168 203 255
168 203 255
168 203 255
168 203 255
168 203 255
168 203 255
168 203 255
168 203 255
168 203 255
168 203 255
169 203 255
169 203 255
169 203 255
169 203 255
169 204 255
169 204 255
169 204 255
169 204 255
169 204 255
169 204 255
169 204 255
170 204 255
170 204 255
170 204 255
170 204 255
170 204 255
170 204 255
170 204 255
170 204 255
170 204 255
170 204 255
170 204 255
170 204 255
171 205 255
171 205 255
171 205 255
171 205 255
171 205 255
171 205 255
171 205 255
171 205 255
171 205 255
171 205 255
171 205 255
171 205 255
171 205 255
172 205 255
172 205 255
172 205 255
172 205 255
172 205 255
172 205 255
172 205 255
172 205 255
172 205 255
172 206 255
172 206 255
172 206 255
172 206 255
173 206 255
173 206 255
173 206 255
173 206 255
173 206 255
173 206 255
173 206 255
173 206 255
173 206 255
173 206 255
173 206 255
173 206 255
173 206 255
173 206 255
173 206 255
174 206 255
174 206 255
174 206 255
174 206 255
174 206 255
174 207 255
174 207 255
174 207 255
174 207 255
174 207 255
174 207 255
174 207 255
174 207 255
174 207 255
174 207 255
174 207 255
175 207 255
175 207 255
175 207 255
175 207 255
175 207 255
175 207 255
174 207 255
174 207 255
174 207 255
174 207 255
174 207 255
174 207 255
174 207 255
174 207 255
174 207 255
174 207 255
174 207 255
174 206 255
174 206 255
174 206 255
174 206 255
174 206 255
173 206 255
173 206 255
173 206 255
173 206 255
173 206 255
173 206 255
173 206 255
173 206 255
173 206 255
173 206 255
173 206 255
173 206 255
173 206 255
173 206 255
172 206 255
172 206 255
172 206 255
172 206 255
172 206 255
172 205 255
172 205 255
172 205 255
172 205 255
172 205 255
172 205 255
172 205 255
172 205 255
172 205 255
171 205 255
171 205 255
171 205 255
171 205 255
171 205 255
171 205 255
171 205 255
171 205 255
171 205 255
171 205 255
171 205 255
171 205 255
170 204 255
170 204 255
170 204 255
170 204 255
170 204 255
170 204 255
170 204 255
170 204 255
170 204 255
170 204 255
170 204 255
170 204 255
169 204 255
169 204 255
169 204 255
169 204 255
169 204 255
169 204 255
169 204 255
169 204 255
169 203 255
169 203 255
169 203 255
169 203 255
168 203 255
168 203 255
168 203 255
168 203 255
168 203 255
168 203 255
168 203 255
168 203 255
168 203 255
168 203 255
168 203 255
167 203 255
167 203 255
167 203 255
167 203 255
167 202 255
167 202 255
167 202 255
167 202 255
167 202 255
167 202 255
167 202 255
166 202 255
166 202 255
166 202 255
166 202 255
166 202 255
166 202 255
166 202 255
166 202 255
166 202 255
166 202 255
166 201 255
165 201 255
165 201 255
165 201 255
165 201 255
165 201 255
165 201 255
165 201 255
165 201 255
165 201 255
165 201 255
165 201 255
164 201 255
164 201 255
164 201 255
164 201 255
164 201 255
164 201 255
164 201 255
164 200 255
164 200 255
164 200 255
164 200 255
163 200 255
163 200 255
163 200 255
163 200 255
163 200 255
163 200 255
163 200 255
163 200 255
163 200 255
163 200 255
163 200 255
163 200 255
163 200 255
162 200 255
162 200 255
162 200 255
162 200 255
162 200 255
162 199 255
162 199 255
162 199 255
162 199 255
162 199 255
162 199 255
162 199 255
162 199 255
162 199 255
162 199 255
161 199 255
161 199 255
161 199 255
161 199 255
161 199 255
161 199 255
161 199 255
161 199 255
161 199 255
161 199 255
161 199 255
154 191 245
126 155 200
95 118 153
78 98 127
69 86 111
74 92 119
71 88 114
75 92 118
75 93 120
73 91 117
73 90 115
72 90 117
72 90 117
75 93 120
70 86 111
72 90 117
70 87 114
69 86 112
70 87 113
73 90 115
69 88 115
71 88 114
72 91 119
71 88 113
72 91 118
76 94 120
70 88 115
69 87 114
72 90 117
70 87 113
71 88 114
72 90 117
71 88 113
73 91 119
73 91 119
74 91 118
73 92 120
75 93 120
78 97 125
92 114 147
118 146 188
149 184 238
161 199 255
161 199 255
161 199 255
161 199 255
161 199 255
161 199 255
161 199 255
161 199 255
161 199 255
161 199 255
161 199 255
162 199 255
162 199 255
162 199 255
162 199 255
162 199 255
162 199 255
162 199 255
162 199 255
162 199 255
162 199 255
162 200 255
162 200 255
162 200 255
162 200 255
162 200 255
163 200 255
163 200 255
163 200 255
163 200 255
163 200 255
163 200 255
163 200 255
163 200 255
163 200 255
163 200 255
163 200 255
163 200 255
163 200 255
164 200 255
164 200 255
164 200 255
164 200 255
164 201 255
164 201 255
164 201 255
164 201 255
164 201 255
164 201 255
164 201 255
165 201 255
165 201 255
165 201 255
165 201 255
165 201 255
165 201 255
165 201 255
165 201 255
165 201 255
165 201 255
165 201 255
166 202 255
166 202 255
166 202 255
166 202 255
166 202 255
166 202 255
166 202 255
166 202 255
166 202 255
166 202 255
166 202 255
167 202 255
167 202 255
167 202 255
167 202 255
167 202 255
167 202 255
167 202 255
167 203 255
167 203 255
167 203 255
167 203 255
168 203 255
168 203 255
168 203 255
168 203 255
168 203 255
168 203 255
168 203 255
168 203 255
168 203 255
168 203 255
168 203 255
169 203 255
169 203 255
169 203 255
169 203 255
169 204 255
169 204 255
169 204 255
169 204 255
169 204 255
169 204 255
169 204 255
170 204 255
170 204 255
170 204 255
170 204 255
170 204 255
170 204 255
170 204 255
170 204 255
170 204 255
170 204 255
170 204 255
170 204 255
171 205 255
171 205 255
171 205 255
171 205 255
171 205 255
171 205 255
171 205 255
171 205 255
171 205 255
171 205 255
171 205 255
171 205 255
171 205 255
172 205 255
172 205 255
172 205 255
172 205 255
172 205 255
172 205 255
172 205 255
172 205 255
172 205 255
172 206 255
172 206 255
172 206 255
172 206 255
172 206 255
173 206 255
173 206 255
173 206 255
173 206 255
173 206 255
173 206 255
173 206 255
173 206 255
173 206 255
173 206 255
173 206 255
173 206 255
173 206 255
173 206 255
174 206 255
174 206 255
174 206 255
174 206 255
174 206 255
174 207 255
174 207 255
174 207 255
174 207 255
174 207 255
174 207 255
174 207 255
174 207 255
174 207 255
174 207 255
174 207 255
175 207 255
175 207 255
175 207 255
175 207 255
175 207 255
175 207 255
175 207 255
175 207 255
175 207 255
175 207 255
175 207 255
175 207 255
175 207 255
175 207 255
174 207 255
174 207 255
174 207 255
174 207 255
174 207 255
174 207 255
174 207 255
174 207 255
174 207 255
174 207 255
174 207 255
174 206 255
174 206 255
174 206 255
174 206 255
174 206 255
173 206 255
173 206 255
173 206 255
173 206 255
173 206 255
173 206 255
173 206 255
173 206 255
173 206 255
173 206 255
173 206 255
173 206 255
173 206 255
173 206 255
172 206 255
172 206 255
172 206 255
172 206 255
172 206 255
172 205 255
172 205 255
172 205 255
172 205 255
172 205 255
172 205 255
172 205 255
172 205 255
172 205 255
171 205 255
171 205 255
171 205 255
171 205 255
171 205 255
171 205 255
171 205 255
171 205 255
171 205 255
171 205 255
171 205 255
171 205 255
170 204 255
170 204 255
170 204 255
170 204 255
170 204 255
170 204 255
170 204 255
170 204 255
170 204 255
170 204 255
170 204 255
170 204 255
169 204 255
169 204 255
169 204 255
169 204 255
169 204 255
169 204 255
169 204 255
169 204 255
169 203 255
169 203 255
169 203 255
169 203 255
168 203 255
168 203 255
168 203 255
168 203 255
168 203 255
168 203 255
168 203 255
168 203 255
168 203 255
168 203 255
167 203 255
167 203 255
167 203 255
167 203 255
167 202 255
167 202 255
167 202 255
167 202 255
167 202 255
167 202 255
167 202 255
166 202 255
166 202 255
166 202 255
166 202 255
166 202 255
166 202 255
166 202 255
166 202 255
166 202 255
166 202 255
166 202 255
165 201 255
165 201 255
165 201 255
165 201 255
165 201 255
165 201 255
165 201 255
165 201 255
165 201 255
165 201 255
165 201 255
165 201 255
164 201 255
164 201 255
164 201 255
164 201 255
164 201 255
164 201 255
164 201 255
164 201 255
164 200 255
164 200 255
164 200 255
164 200 255
163 200 255
163 200 255
163 200 255
163 200 255
163 200 255
163 200 255
163 200 255
163 200 255
163 200 255
163 200 255
163 200 255
163 200 255
163 200 255
162 200 255
162 200 255
162 200 255
162 200 255
162 200 255
162 199 255
162 199 255
162 199 255
162 199 255
162 199 255
162 199 255
162 199 255
162 199 255
162 199 255
162 199 255
162 199 255
162 199 255
162 199 255
151 186 238
124 153 197
104 128 165
72 90 115
72 91 119
71 88 115
74 92 119
73 90 117
72 91 119
71 89 117
71 89 116
74 91 117
70 87 113
74 92 119
73 91 118
74 92 120
72 89 115
70 88 115
71 89 115
72 89 116
71 90 117
73 90 115
73 91 118
72 89 115
73 92 120
70 88 114
72 89 114
75 92 119
72 89 115
74 91 118
72 90 117
68 86 111
73 91 118
72 90 117
75 92 119
72 89 115
75 93 120
71 89 115
71 88 114
73 91 117
69 87 114
71 88 114
70 87 113
74 93 120
72 91 119
87 108 139
125 154 198
157 194 249
162 199 255
162 199 255
162 199 255
162 199 255
162 199 255
162 199 255
162 199 255
162 199 255
162 199 255
162 199 255
162 199 255
162 199 255
162 199 255
162 200 255
162 200 255
162 200 255
162 200 255
163 200 255
163 200 255
163 200 255
163 200 255
163 200 255
163 200 255
163 200 255
163 200 255
163 200 255
163 200 255
163 200 255
163 200 255
163 200 255
163 200 255
164 200 255
164 200 255
164 200 255
164 200 255
164 200 255
164 201 255
164 201 255
164 201 255
164 201 255
164 201 255
164 201 255
164 201 255
165 201 255
165 201 255
165 201 255
165 201 255
165 201 255
165 201 255
165 201 255
165 201 255
165 201 255
165 201 255
165 201 255
165 201 255
166 202 255
166 202 255
166 202 255
166 202 255
166 202 255
166 202 255
166 202 255
166 202 255
166 202 255
166 202 255
167 202 255
167 202 255
167 202 255
167 202 255
167 202 255
167 202 255
167 202 255
167 202 255
167 203 255
167 203 255
167 203 255
168 203 255
168 203 255
168 203 255
168 203 255
168 203 255
168 203 255
168 203 255
168 203 255
168 203 255
168 203 255
168 203 255
169 203 255
169 203 255
169 203 255
169 203 255
169 204 255
169 204 255
169 204 255
169 204 255
169 204 255
169 204 255
169 204 255
169 204 255
170 204 255
170 204 255
170 204 255
170 204 255
170 204 255
170 204 255
170 204 255
170 204 255
170 204 255
170 204 255
170 204 255
170 204 255
171 205 255
171 205 255
171 205 255
171 205 255
171 205 255
171 205 255
171 205 255
171 205 255
171 205 255
171 205 255
171 205 255
171 205 255
172 205 255
172 205 255
172 205 255
172 205 255
172 205 255
172 205 255
172 205 255
172 205 255
172 205 255
172 206 255
172 206 255
172 206 255
172 206 255
172 206 255
173 206 255
173 206 255
173 206 255
173 206 255
173 206 255
173 206 255
173 206 255
173 206 255
173 206 255
173 206 255
173 206 255
173 206 255
173 206 255
173 206 255
174 206 255
174 206 255
174 206 255
174 206 255
174 206 255
174 207 255
174 207 255
174 207 255
174 207 255
174 207 255
174 207 255
174 207 255
174 207 255
174 207 255
174 207 255
174 207 255
175 207 255
175 207 255
175 207 255
175 207 255
175 207 255
175 207 255
175 207 255
175 207 255
175 207 255
175 207 255
175 207 255
175 207 255
175 207 255
175 207 255
175 207 255
175 207 255
175 207 255
175 207 255
175 207 255
175 207 255
175 207 255
175 207 255
175 207 255
174 207 255
174 207 255
174 207 255
174 207 255
174 207 255
174 207 255
174 207 255
174 207 255
174 207 255
174 207 255
174 206 255
174 206 255
174 206 255
174 206 255
174 206 255
173 206 255
173 206 255
173 206 255
173 206 255
173 206 255
173 206 255
173 206 255
173 206 255
173 206 255
173 206 255
173 206 255
173 206 255
173 206 255
173 206 255
172 206 255
172 206 255
172 206 255
172 206 255
172 206 255
172 205 255
172 205 255
172 205 255
172 205 255
172 205 255
172 205 255
172 205 255
172 205 255
171 205 255
171 205 255
171 205 255
171 205 255
171 205 255
171 205 255
171 205 255
171 205 255
171 205 255
171 205 255
171 205 255
171 205 255
171 205 255
170 204 255
170 204 255
170 204 255
170 204 255
170 204 255
170 204 255
170 204 255
170 204 255
170 204 255
170 204 255
170 204 255
170 204 255
169 204 255
169 204 255
169 204 255
169 204 255
169 204 255
169 204 255
169 204 255
169 203 255
169 203 255
169 203 255
169 203 255
168 203 255
168 203 255
168 203 255
168 203 255
168 203 255
168 203 255
168 203 255
168 203 255
168 203 255
168 203 255
168 203 255
167 203 255
167 203 255
167 203 255
167 203 255
167 202 255
167 202 255
167 202 255
167 202 255
167 202 255
167 202 255
167 202 255
166 202 255
166 202 255
166 202 255
166 202 255
166 202 255
166 202 255
166 202 255
166 202 255
166 202 255
166 202 255
166 202 255
165 201 255
165 201 255
165 201 255
165 201 255
165 201 255
165 201 255
165 201 255
165 201 255
165 201 255
165 201 255
165 201 255
165 201 255
164 201 255
164 201 255
164 201 255
164 201 255
164 201 255
164 201 255
164 201 255
164 201 255
164 200 255
164 200 255
164 200 255
164 200 255
164 200 255
163 200 255
163 200 255
163 200 255
163 200 255
163 200 255
163 200 255
163 200 255
163 200 255
163 200 255
163 200 255
163 200 255
163 200 255
163 200 255
163 200 255
162 200 255
162 200 255
162 200 255
162 200 255
162 200 255
162 200 255
162 199 255
162 199 255
162 199 255
162 199 255
139 171 219
102 127 165
77 96 125
71 89 116
69 86 113
72 90 117
69 87 113
71 88 115
66 83 109
72 90 117
74 92 120
73 91 118
72 90 118
69 86 110
73 91 118
73 91 119
74 91 117
70 87 114
68 85 110
72 89 114
72 89 115
69 87 112
71 88 112
71 88 114
71 90 117
72 88 112
71 88 115
70 87 113
70 88 115
69 87 113
71 88 114
71 89 115
70 88 115
70 87 113
72 89 115
73 90 117
74 91 118
71 88 113
71 87 112
71 89 115
67 84 110
70 88 116
74 91 117
71 89 116
72 90 117
71 88 114
71 88 115
69 88 115
74 92 120
77 95 122
103 127 164
148 182 234
162 199 255
162 199 255
162 199 255
162 199 255
162 200 255
162 200 255
162 200 255
162 200 255
162 200 255
162 200 255
163 200 255
163 200 255
163 200 255
163 200 255
163 200 255
163 200 255
163 200 255
163 200 255
163 200 255
163 200 255
163 200 255
163 200 255
163 200 255
163 200 255
164 200 255
164 200 255
164 200 255
164 200 255
164 200 255
164 201 255
164 201 255
164 201 255
164 201 255
164 201 255
164 201 255
164 201 255
164 201 255
165 201 255
165 201 255
165 201 255
165 201 255
165 201 255
165 201 255
165 201 255
165 201 255
165 201 255
165 201 255
165 201 255
165 201 255
166 202 255
166 202 255
166 202 255
166 202 255
166 202 255
166 202 255
166 202 255
166 202 255
166 202 255
166 202 255
166 202 255
167 202 255
167 202 255
167 202 255
167 202 255
167 202 255
167 202 255
167 202 255
167 203 255
167 203 255
167 203 255
167 203 255
168 203 255
168 203 255
168 203 255
168 203 255
168 203 255
168 203 255
168 203 255
168 203 255
168 203 255
168 203 255
168 203 255
169 203 255
169 203 255
169 203 255
169 203 255
169 204 255
169 204 255
169 204 255
169 204 255
169 204 255
169 204 255
169 204 255
170 204 255
170 204 255
170 204 255
170 204 255
170 204 255
170 204 255
170 204 255
170 204 255
170 204 255
170 204 255
170 204 255
170 204 255
171 205 255
171 205 255
171 205 255
171 205 255
171 205 255
171 205 255
171 205 255
171 205 255
171 205 255
171 205 255
171 205 255
171 205 255
171 205 255
172 205 255
172 205 255
172 205 255
172 205 255
172 205 255
172 205 255
172 205 255
172 205 255
172 206 255
172 206 255
172 206 255
172 206 255
172 206 255
173 206 255
173 206 255
173 206 255
173 206 255
173 206 255
173 206 255
173 206 255
173 206 255
173 206 255
173 206 255
173 206 255
173 206 255
173 206 255
173 206 255
174 206 255
174 206 255
174 206 255
174 206 255
174 206 255
174 207 255
174 207 255
174 207 255
174 207 255
174 207 255
174 207 255
174 207 255
174 207 255
174 207 255
174 207 255
174 207 255
175 207 255
175 207 255
175 207 255
175 207 255
175 207 255
175 207 255
175 207 255
175 207 255
175 207 255
175 207 255
175 207 255
175 207 255
175 207 255
176 208 255
175 207 255
175 207 255
175 207 255
175 207 255
175 207 255
175 207 255
175 207 255
175 207 255
175 207 255
175 207 255
175 207 255
175 207 255
175 207 255
175 207 255
175 207 255
175 207 255
174 207 255
174 207 255
174 207 255
174 207 255
174 207 255
174 207 255
174 207 255
174 207 255
174 207 255
174 207 255
174 207 255
174 206 255
174 206 255
174 206 255
174 206 255
174 206 255
173 206 255
173 206 255
173 206 255
173 206 255
173 206 255
173 206 255
173 206 255
173 206 255
173 206 255
173 206 255
173 206 255
173 206 255
173 206 255
173 206 255
172 206 255
172 206 255
172 206 255
172 206 255
172 205 255
172 205 255
172 205 255
172 205 255
172 205 255
172 205 255
172 205 255
172 205 255
172 205 255
171 205 255
171 205 255
171 205 255
171 205 255
171 205 255
171 205 255
171 205 255
171 205 255
171 205 255
171 205 255
171 205 255
171 205 255
171 205 255
170 204 255
170 204 255
170 204 255
170 204 255
170 204 255
170 204 255
170 204 255
170 204 255
170 204 255
170 204 255
170 204 255
170 204 255
169 204 255
169 204 255
169 204 255
169 204 255
169 204 255
169 204 255
169 204 255
169 203 255
169 203 255
169 203 255
169 203 255
168 203 255
168 203 255
168 203 255
168 203 255
168 203 255
168 203 255
168 203 255
168 203 255
168 203 255
168 203 255
168 203 255
167 203 255
167 203 255
167 203 255
167 203 255
167 202 255
167 202 255
167 202 255
167 202 255
167 202 255
167 202 255
167 202 255
166 202 255
166 202 255
166 202 255
166 202 255
166 202 255
166 202 255
166 202 255
166 202 255
166 202 255
166 202 255
166 202 255
166 202 255
165 201 255
165 201 255
165 201 255
165 201 255
165 201 255
165 201 255
165 201 255
165 201 255
165 201 255
165 201 255
165 201 255
164 201 255
164 201 255
164 201 255
164 201 255
164 201 255
164 201 255
164 201 255
164 201 255
164 201 255
164 200 255
164 200 255
164 200 255
164 200 255
164 200 255
163 200 255
163 200 255
163 200 255
163 200 255
163 200 255
163 200 255
163 200 255
163 200 255
163 200 255
163 200 255
163 200 255
163 200 255
163 200 255
163 200 255
163 200 255
163 200 255
162 200 255
130 160 206
96 119 152
71 89 115
69 87 114
72 90 117
70 88 114
66 83 109
73 91 117
71 88 114
71 87 111
72 90 116
72 89 115
67 84 111
71 88 113
71 89 115
70 87 113
70 88 115
71 89 115
70 88 114
73 90 115
73 91 117
71 87 113
68 85 110
69 86 113
70 88 116
72 90 116
71 89 116
71 89 115
70 87 112
69 86 111
72 89 114
72 89 115
70 86 111
71 89 116
67 84 109
72 91 120
69 85 109
71 89 115
70 87 112
68 84 110
72 90 119
72 89 115
70 87 112
70 87 111
73 91 119
71 89 117
73 90 117
72 90 119
73 89 115
74 91 118
73 90 117
69 87 114
73 91 119
70 88 115
94 117 151
136 167 215
159 196 251
163 200 255
163 200 255
163 200 255
163 200 255
163 200 255
163 200 255
163 200 255
163 200 255
163 200 255
163 200 255
163 200 255
163 200 255
163 200 255
163 200 255
163 200 255
163 200 255
164 200 255
164 200 255
164 200 255
164 200 255
164 200 255
164 201 255
164 201 255
164 201 255
164 201 255
164 201 255
164 201 255
164 201 255
164 201 255
165 201 255
165 201 255
165 201 255
165 201 255
165 201 255
165 201 255
165 201 255
165 201 255
165 201 255
165 201 255
165 201 255
165 201 255
166 202 255
166 202 255
166 202 255
166 202 255
166 202 255
166 202 255
166 202 255
166 202 255
166 202 255
166 202 255
166 202 255
166 202 255
167 202 255
167 202 255
167 202 255
167 202 255
167 202 255
167 202 255
167 202 255
167 203 255
167 203 255
167 203 255
167 203 255
168 203 255
168 203 255
168 203 255
168 203 255
168 203 255
168 203 255
168 203 255
168 203 255
168 203 255
168 203 255
168 203 255
169 203 255
169 203 255
169 203 255
169 203 255
169 204 255
169 204 255
169 204 255
169 204 255
169 204 255
169 204 255
169 204 255
170 204 255
170 204 255
170 204 255
170 204 255
170 204 255
170 204 255
170 204 255
170 204 255
170 204 255
170 204 255
170 204 255
170 204 255
171 205 255
171 205 255
171 205 255
171 205 255
171 205 255
171 205 255
171 205 255
171 205 255
171 205 255
171 205 255
171 205 255
171 205 255
171 205 255
172 205 255
172 205 255
172 205 255
172 205 255
172 205 255
172 205 255
172 205 255
172 205 255
172 206 255
172 206 255
172 206 255
172 206 255
172 206 255
173 206 255
173 206 255
173 206 255
173 206 255
173 206 255
173 206 255
173 206 255
173 206 255
173 206 255
173 206 255
173 206 255
173 206 255
173 206 255
173 206 255
174 206 255
174 206 255
174 206 255
174 206 255
174 206 255
174 207 255
174 207 255
174 207 255
174 207 255
174 207 255
174 207 255
174 207 255
174 207 255
174 207 255
174 207 255
175 207 255
175 207 255
175 207 255
175 207 255
175 207 255
175 207 255
175 207 255
175 207 255
175 207 255
175 207 255
175 207 255
175 207 255
175 207 255
175 207 255
175 207 255
175 207 255
175 207 255
176 208 255
176 208 255
176 208 255
176 208 255
176 208 255
176 208 255
176 208 255
175 207 255
175 207 255
175 207 255
175 207 255
175 207 255
175 207 255
175 207 255
175 207 255
175 207 255
175 207 255
175 207 255
175 207 255
175 207 255
175 207 255
175 207 255
175 207 255
174 207 255
174 207 255
174 207 255
174 207 255
174 207 255
174 207 255
174 207 255
174 207 255
174 207 255
174 207 255
174 206 255
174 206 255
174 206 255
174 206 255
174 206 255
173 206 255
173 206 255
173 206 255
173 206 255
173 206 255
173 206 255
173 206 255
173 206 255
173 206 255
173 206 255
173 206 255
173 206 255
173 206 255
173 206 255
172 206 255
172 206 255
172 206 255
172 206 255
172 206 255
172 205 255
172 205 255
172 205 255
172 205 255
172 205 255
172 205 255
172 205 255
172 205 255
171 205 255
171 205 255
171 205 255
171 205 255
171 205 255
171 205 255
171 205 255
171 205 255
171 205 255
171 205 255
171 205 255
171 205 255
171 205 255
170 204 255
170 204 255
170 204 255
170 204 255
170 204 255
170 204 255
170 204 255
170 204 255
170 204 255
170 204 255
170 204 255
169 204 255
169 204 255
169 204 255
169 204 255
169 204 255
169 204 255
169 204 255
169 204 255
169 203 255
169 203 255
169 203 255
169 203 255
168 203 255
168 203 255
168 203 255
168 203 255
168 203 255
168 203 255
168 203 255
168 203 255
168 203 255
168 203 255
168 203 255
167 203 255
167 203 255
167 203 255
167 203 255
167 202 255
167 202 255
167 202 255
167 202 255
167 202 255
167 202 255
167 202 255
166 202 255
166 202 255
166 202 255
166 202 255
166 202 255
166 202 255
166 202 255
166 202 255
166 202 255
166 202 255
166 202 255
166 202 255
165 201 255
165 201 255
165 201 255
165 201 255
165 201 255
165 201 255
165 201 255
165 201 255
165 201 255
165 201 255
165 201 255
165 201 255
164 201 255
164 201 255
164 201 255
164 201 255
164 201 255
164 201 255
164 201 255
164 201 255
164 201 255
164 201 255
164 200 255
164 200 255
164 200 255
164 200 255
164 200 255
163 200 255
163 200 255
163 200 255
163 200 255
163 200 255
163 200 255
163 200 255
163 200 255
162 199 254
131 161 206
93 115 149
72 90 117
71 88 113
73 91 119
72 90 117
70 87 112
71 89 115
68 86 111
69 86 111
69 86 111
72 90 117
68 84 109
74 92 119
70 87 113
72 89 114
71 88 113
73 90 116
68 86 113
74 91 117
68 86 113
71 88 114
70 88 115
70 88 115
71 89 115
75 92 119
68 85 111
70 87 112
69 87 114
66 82 106
71 88 113
73 90 116
73 90 115
71 88 114
70 87 113
70 88 114
69 86 111
70 87 112
73 91 117
69 86 112
71 89 117
68 86 112
70 86 111
68 84 108
68 85 111
69 86 112
70 87 112
74 91 117
70 87 112
71 88 114
73 91 119
71 89 115
74 91 118
69 87 113
68 85 110
74 91 117
72 90 116
71 89 116
86 107 137
132 162 208
161 198 253
163 200 255
163 200 255
163 200 255
163 200 255
163 200 255
163 200 255
163 200 255
163 200 255
164 200 255
164 200 255
164 200 255
164 200 255
164 200 255
164 200 255
164 201 255
164 201 255
164 201 255
164 201 255
164 201 255
164 201 255
164 201 255
164 201 255
164 201 255
165 201 255
165 201 255
165 201 255
165 201 255
165 201 255
165 201 255
165 201 255
165 201 255
165 201 255
165 201 255
165 201 255
165 201 255
166 202 255
166 202 255
166 202 255
166 202 255
166 202 255
166 202 255
166 202 255
166 202 255
166 202 255
166 202 255
166 202 255
166 202 255
167 202 255
167 202 255
167 202 255
167 202 255
167 202 255
167 202 255
167 202 255
167 203 255
167 203 255
167 203 255
167 203 255
168 203 255
168 203 255
168 203 255
168 203 255
168 203 255
168 203 255
168 203 255
168 203 255
168 203 255
168 203 255
168 203 255
169 203 255
169 203 255
169 203 255
169 203 255
169 204 255
169 204 255
169 204 255
169 204 255
169 204 255
169 204 255
169 204 255
169 204 255
170 204 255
170 204 255
170 204 255
170 204 255
170 204 255
170 204 255
170 204 255
170 204 255
170 204 255
170 204 255
170 204 255
171 205 255
171 205 255
171 205 255
171 205 255
171 205 255
171 205 255
171 205 255
171 205 255
171 205 255
171 205 255
171 205 255
171 205 255
171 205 255
172 205 255
172 205 255
172 205 255
172 205 255
172 205 255
172 205 255
172 205 255
172 205 255
172 206 255
172 206 255
172 206 255
172 206 255
172 206 255
173 206 255
173 206 255
173 206 255
173 206 255
173 206 255
173 206 255
173 206 255
173 206 255
173 206 255
173 206 255
173 206 255
173 206 255
173 206 255
173 206 255
174 206 255
174 206 255
174 206 255
174 206 255
174 206 255
174 207 255
174 207 255
174 207 255
174 207 255
174 207 255
174 207 255
174 207 255
174 207 255
174 207 255
174 207 255
175 207 255
175 207 255
175 207 255
175 207 255
175 207 255
175 207 255
175 207 255
175 207 255
175 207 255
175 207 255
175 207 255
175 207 255
175 207 255
175 207 255
175 207 255
175 207 255
176 208 255
176 208 255
176 208 255
176 208 255
176 208 255
176 208 255
176 208 255
176 208 255
176 208 255
176 208 255
176 208 255
176 208 255
176 208 255
176 208 255
176 208 255
176 208 255
175 207 255
175 207 255
175 207 255
175 207 255
175 207 255
175 207 255
175 207 255
175 207 255
175 207 255
175 207 255
175 207 255
175 207 255
175 207 255
175 207 255
175 207 255
175 207 255
174 207 255
174 207 255
174 207 255
174 207 255
174 207 255
174 207 255
174 207 255
174 207 255
174 207 255
174 207 255
174 206 255
174 206 255
174 206 255
174 206 255
174 206 255
173 206 255
173 206 255
173 206 255
173 206 255
173 206 255
173 206 255
173 206 255
173 206 255
173 206 255
173 206 255
173 206 255
173 206 255
173 206 255
173 206 255
172 206 255
172 206 255
172 206 255
172 206 255
172 206 255
172 205 255
172 205 255
172 205 255
172 205 255
172 205 255
172 205 255
172 205 255
172 205 255
171 205 255
171 205 255
171 205 255
171 205 255
171 205 255
171 205 255
171 205 255
171 205 255
171 205 255
171 205 255
171 205 255
171 205 255
170 204 255
170 204 255
170 204 255
170 204 255
170 204 255
170 204 255
170 204 255
170 204 255
170 204 255
170 204 255
170 204 255
170 204 255
169 204 255
169 204 255
169 204 255
169 204 255
169 204 255
169 204 255
169 204 255
169 204 255
169 203 255
169 203 255
169 203 255
169 203 255
168 203 255
168 203 255
168 203 255
168 203 255
168 203 255
168 203 255
168 203 255
168 203 255
168 203 255
168 203 255
168 203 255
167 203 255
167 203 255
167 203 255
167 203 255
167 202 255
167 202 255
167 202 255
167 202 255
167 202 255
167 202 255
167 202 255
167 202 255
166 202 255
166 202 255
166 202 255
166 202 255
166 202 255
166 202 255
166 202 255
166 202 255
166 202 255
166 202 255
166 202 255
165 201 255
165 201 255
165 201 255
165 201 255
165 201 255
165 201 255
165 201 255
165 201 255
165 201 255
165 201 255
165 201 255
165 201 255
165 201 255
165 201 255
164 201 255
164 201 255
164 201 255
164 201 255
164 201 255
164 201 255
164 201 255
164 201 255
164 201 255
164 201 255
164 200 255
164 200 255
164 200 255
164 200 255
164 200 255
163 200 255
139 171 218
84 104 134
75 93 120
76 93 120
71 88 114
70 87 113
71 89 115
70 88 115
68 85 111
71 89 116
70 85 109
69 85 110
68 85 111
69 86 111
74 93 120
72 89 114
69 86 113
71 89 115
67 84 110
71 88 115
72 89 115
70 87 112
71 88 113
66 83 108
66 83 108
70 86 110
71 89 115
73 90 117
69 86 111
72 90 117
74 91 118
72 89 115
72 88 111
70 87 112
73 90 116
73 91 117
70 86 111
71 89 116
73 91 117
68 84 108
68 85 110
71 88 114
71 89 115
69 85 110
68 84 109
68 85 110
68 85 110
71 88 113
71 88 113
67 84 110
67 84 110
69 85 111
71 88 114
70 88 114
70 88 116
73 90 117
72 91 118
72 89 115
71 89 115
72 91 119
73 90 116
75 93 120
91 112 143
136 166 213
163 200 255
164 200 255
164 200 255
164 200 255
164 200 255
164 200 255
164 200 255
164 201 255
164 201 255
164 201 255
164 201 255
164 201 255
164 201 255
164 201 255
164 201 255
164 201 255
164 201 255
165 201 255
165 201 255
165 201 255
165 201 255
165 201 255
165 201 255
165 201 255
165 201 255
165 201 255
165 201 255
165 201 255
165 201 255
166 202 255
166 202 255
166 202 255
166 202 255
166 202 255
166 202 255
166 202 255
166 202 255
166 202 255
166 202 255
166 202 255
166 202 255
167 202 255
167 202 255
167 202 255
167 202 255
167 202 255
167 202 255
167 202 255
167 202 255
167 203 255
167 203 255
167 203 255
167 203 255
168 203 255
168 203 255
168 203 255
168 203 255
168 203 255
168 203 255
168 203 255
168 203 255
168 203 255
168 203 255
168 203 255
169 203 255
169 203 255
169 203 255
169 203 255
169 204 255
169 204 255
169 204 255
169 204 255
169 204 255
169 204 255
169 204 255
169 204 255
170 204 255
170 204 255
170 204 255
170 204 255
170 204 255
170 204 255
170 204 255
170 204 255
170 204 255
170 204 255
170 204 255
171 205 255
171 205 255
171 205 255
171 205 255
171 205 255
171 205 255
171 205 255
171 205 255
171 205 255
171 205 255
171 205 255
171 205 255
171 205 255
172 205 255
172 205 255
172 205 255
172 205 255
172 205 255
172 205 255
172 205 255
172 205 255
172 206 255
172 206 255
172 206 255
172 206 255
173 206 255
173 206 255
173 206 255
173 206 255
173 206 255
173 206 255
173 206 255
173 206 255
173 206 255
173 206 255
173 206 255
173 206 255
173 206 255
173 206 255
173 206 255
174 206 255
174 206 255
174 206 255
174 206 255
174 207 255
174 207 255
174 207 255
174 207 255
174 207 255
174 207 255
174 207 255
174 207 255
174 207 255
174 207 255
174 207 255
175 207 255
175 207 255
175 207 255
175 207 255
175 207 255
175 207 255
175 207 255
175 207 255
175 207 255
175 207 255
175 207 255
175 207 255
175 207 255
175 207 255
175 207 255
175 207 255
176 208 255
176 208 255
176 208 255
176 208 255
176 208 255
176 208 255
176 208 255
176 208 255
176 208 255
176 208 255
176 208 255
176 208 255
176 208 255
176 208 255
176 208 255
176 208 255
176 208 255
176 208 255
176 208 255
176 208 255
176 208 255
176 208 255
176 208 255
176 208 255
176 208 255
175 207 255
175 207 255
175 207 255
175 207 255
175 207 255
175 207 255
175 207 255
175 207 255
175 207 255
175 207 255
175 207 255
175 207 255
175 207 255
175 207 255
175 207 255
175 207 255
174 207 255
174 207 255
174 207 255
174 207 255
174 207 255
174 207 255
174 207 255
174 207 255
174 207 255
174 207 255
174 206 255
174 206 255
174 206 255
174 206 255
174 206 255
173 206 255
173 206 255
173 206 255
173 206 255
173 206 255
173 206 255
173 206 255
173 206 255
173 206 255
173 206 255
173 206 255
173 206 255
173 206 255
172 206 255
172 206 255
172 206 255
172 206 255
172 206 255
172 205 255
172 205 255
172 205 255
172 205 255
172 205 255
172 205 255
172 205 255
172 205 255
171 205 255
171 205 255
171 205 255
171 205 255
171 205 255
171 205 255
171 205 255
171 205 255
171 205 255
171 205 255
171 205 255
171 205 255
171 205 255
170 204 255
170 204 255
170 204 255
170 204 255
170 204 255
170 204 255
170 204 255
170 204 255
170 204 255
170 204 255
170 204 255
169 204 255
169 204 255
169 204 255
169 204 255
169 204 255
169 204 255
169 204 255
169 204 255
169 203 255
169 203 255
169 203 255
169 203 255
168 203 255
168 203 255
168 203 255
168 203 255
168 203 255
168 203 255
168 203 255
168 203 255
168 203 255
168 203 255
168 203 255
168 203 255
167 203 255
167 203 255
167 203 255
167 202 255
167 202 255
167 202 255
167 202 255
167 202 255
167 202 255
167 202 255
167 202 255
166 202 255
166 202 255
166 202 255
166 202 255
166 202 255
166 202 255
166 202 255
166 202 255
166 202 255
166 202 255
166 202 255
166 202 255
165 201 255
165 201 255
165 201 255
165 201 255
165 201 255
165 201 255
165 201 255
165 201 255
165 201 255
165 201 255
165 201 255
165 201 255
165 201 255
165 201 255
164 201 255
164 201 255
164 201 255
164 201 255
164 201 255
164 201 255
164 201 255
164 201 255
164 201 255
151 185 236
98 121 156
72 90 117
72 90 116
73 89 113
73 90 116
69 85 110
73 90 116
71 88 115
72 89 113
72 90 116
71 89 115
70 87 113
71 88 115
74 91 118
70 88 115
70 87 112
71 88 115
67 83 108
71 87 111
68 85 111
70 87 112
65 82 108
65 82 107
71 88 113
71 87 111
69 86 113
72 88 112
71 89 116
69 85 109
69 86 111
70 87 114
72 90 117
66 83 108
69 86 112
70 88 114
72 90 117
70 88 115
72 89 115
71 87 112
70 86 112
71 88 113
71 89 116
68 85 111
70 87 111
71 89 115
69 86 112
71 89 116
71 88 114
72 89 116
73 90 117
73 90 115
70 86 111
73 91 119
71 89 115
69 86 112
71 88 115
68 84 110
72 90 115
71 88 113
71 87 112
72 90 116
69 87 115
73 91 119
74 92 120
70 88 115
99 122 156
151 185 236
164 201 255
164 201 255
164 201 255
164 201 255
164 201 255
164 201 255
164 201 255
164 201 255
164 201 255
165 201 255
165 201 255
165 201 255
165 201 255
165 201 255
165 201 255
165 201 255
165 201 255
165 201 255
165 201 255
165 201 255
165 201 255
165 201 255
165 201 255
166 202 255
166 202 255
166 202 255
166 202 255
166 202 255
166 202 255
166 202 255
166 202 255
166 202 255
166 202 255
166 202 255
166 202 255
167 202 255
167 202 255
167 202 255
167 202 255
167 202 255
167 202 255
167 202 255
167 202 255
167 203 255
167 203 255
167 203 255
167 203 255
168 203 255
168 203 255
168 203 255
168 203 255
168 203 255
168 203 255
168 203 255
168 203 255
168 203 255
168 203 255
168 203 255
169 203 255
169 203 255
169 203 255
169 203 255
169 204 255
169 204 255
169 204 255
169 204 255
169 204 255
169 204 255
169 204 255
170 204 255
170 204 255
170 204 255
170 204 255
170 204 255
170 204 255
170 204 255
170 204 255
170 204 255
170 204 255
170 204 255
170 204 255
171 205 255
171 205 255
171 205 255
171 205 255
171 205 255
171 205 255
171 205 255
171 205 255
171 205 255
171 205 255
171 205 255
171 205 255
171 205 255
172 205 255
172 205 255
172 205 255
172 205 255
172 205 255
172 205 255
172 205 255
172 205 255
172 206 255
172 206 255
172 206 255
172 206 255
172 206 255
173 206 255
173 206 255
173 206 255
173 206 255
173 206 255
173 206 255
173 206 255
173 206 255
173 206 255
173 206 255
173 206 255
173 206 255
173 206 255
174 206 255
174 206 255
174 206 255
174 206 255
174 206 255
174 206 255
174 207 255
174 207 255
174 207 255
174 207 255
174 207 255
174 207 255
174 207 255
174 207 255
174 207 255
175 207 255
175 207 255
175 207 255
175 207 255
175 207 255
175 207 255
175 207 255
175 207 255
175 207 255
175 207 255
175 207 255
175 207 255
175 207 255
175 207 255
175 207 255
175 207 255
176 208 255
176 208 255
176 208 255
176 208 255
176 208 255
176 208 255
176 208 255
176 208 255
176 208 255
176 208 255
176 208 255
176 208 255
176 208 255
176 208 255
176 208 255
177 208 255
176 208 255
176 208 255
176 208 255
176 208 255
176 208 255
176 208 255
176 208 255
176 208 255
176 208 255
176 208 255
176 208 255
176 208 255
176 208 255
176 208 255
176 208 255
176 208 255
176 208 255
176 208 255
175 207 255
175 207 255
175 207 255
175 207 255
175 207 255
175 207 255
175 207 255
175 207 255
175 207 255
175 207 255
175 207 255
175 207 255
175 207 255
175 207 255
175 207 255
175 207 255
174 207 255
174 207 255
174 207 255
174 207 255
174 207 255
174 207 255
174 207 255
174 207 255
174 207 255
174 207 255
174 206 255
174 206 255
174 206 255
174 206 255
174 206 255
173 206 255
173 206 255
173 206 255
173 206 255
173 206 255
173 206 255
173 206 255
173 206 255
173 206 255
173 206 255
173 206 255
173 206 255
173 206 255
172 206 255
172 206 255
172 206 255
172 206 255
172 206 255
172 205 255
172 205 255
172 205 255
172 205 255
172 205 255
172 205 255
172 205 255
172 205 255
171 205 255
171 205 255
171 205 255
171 205 255
171 205 255
171 205 255
171 205 255
171 205 255
171 205 255
171 205 255
171 205 255
171 205 255
171 205 255
170 204 255
170 204 255
170 204 255
170 204 255
170 204 255
170 204 255
170 204 255
170 204 255
170 204 255
170 204 255
170 204 255
169 204 255
169 204 255
169 204 255
169 204 255
169 204 255
169 204 255
169 204 255
169 204 255
169 203 255
169 203 255
169 203 255
169 203 255
168 203 255
168 203 255
168 203 255
168 203 255
168 203 255
168 203 255
168 203 255
168 203 255
168 203 255
168 203 255
168 203 255
168 203 255
167 203 255
167 203 255
167 203 255
167 203 255
167 202 255
167 202 255
167 202 255
167 202 255
167 202 255
167 202 255
167 202 255
167 202 255
166 202 255
166 202 255
166 202 255
166 202 255
166 202 255
166 202 255
166 202 255
166 202 255
166 202 255
166 202 255
166 202 255
166 202 255
166 202 255
165 201 255
165 201 255
165 201 255
165 201 255
165 201 255
165 201 255
165 201 255
165 201 255
165 201 255
165 201 255
165 201 255
165 201 255
165 201 255
165 201 255
165 201 255
159 195 248
114 141 181
69 87 114
70 88 113
72 90 116
68 86 112
71 89 117
73 90 115
72 89 114
70 88 114
68 85 110
69 87 113
71 88 114
71 87 112
71 88 114
69 86 110
68 86 111
68 84 109
70 87 113
70 87 113
72 89 114
71 88 112
74 90 115
69 85 109
67 84 109
70 88 113
67 84 108
68 85 110
70 87 112
69 86 112
70 87 113
71 88 113
69 85 109
70 87 112
69 87 114
72 90 116
73 91 118
71 88 114
68 85 112
72 89 115
69 86 111
71 89 117
70 87 113
65 80 103
67 84 110
68 85 110
67 84 109
70 87 112
69 85 110
69 87 114
74 91 117
71 88 114
64 80 105
69 86 112
70 88 115
72 90 116
72 90 117
70 87 113
69 85 110
69 87 112
74 91 117
72 89 115
67 84 110
70 87 113
65 82 107
74 91 117
68 85 110
69 87 113
74 93 120
76 94 122
121 149 191
163 199 253
165 201 255
165 201 255
165 201 255
165 201 255
165 201 255
165 201 255
165 201 255
165 201 255
165 201 255
165 201 255
165 201 255
165 201 255
165 201 255
165 201 255
165 201 255
165 201 255
166 202 255
166 202 255
166 202 255
166 202 255
166 202 255
166 202 255
166 202 255
166 202 255
166 202 255
166 202 255
166 202 255
166 202 255
167 202 255
167 202 255
167 202 255
167 202 255
167 202 255
167 202 255
167 202 255
167 202 255
167 203 255
167 203 255
167 203 255
167 203 255
168 203 255
168 203 255
168 203 255
168 203 255
168 203 255
168 203 255
168 203 255
168 203 255
168 203 255
168 203 255
168 203 255
168 203 255
169 203 255
169 203 255
169 203 255
169 203 255
169 204 255
169 204 255
169 204 255
169 204 255
169 204 255
169 204 255
169 204 255
169 204 255
170 204 255
170 204 255
170 204 255
170 204 255
170 204 255
170 204 255
170 204 255
170 204 255
170 204 255
170 204 255
170 204 255
171 205 255
171 205 255
171 205 255
171 205 255
171 205 255
171 205 255
171 205 255
171 205 255
171 205 255
171 205 255
171 205 255
171 205 255
171 205 255
172 205 255
172 205 255
172 205 255
172 205 255
172 205 255
172 205 255
172 205 255
172 205 255
172 206 255
172 206 255
172 206 255
172 206 255
172 206 255
173 206 255
173 206 255
173 206 255
173 206 255
173 206 255
173 206 255
173 206 255
173 206 255
173 206 255
173 206 255
173 206 255
173 206 255
173 206 255
174 206 255
174 206 255
174 206 255
174 206 255
174 206 255
174 207 255
174 207 255
174 207 255
174 207 255
174 207 255
174 207 255
174 207 255
174 207 255
174 207 255
174 207 255
175 207 255
175 207 255
175 207 255
175 207 255
175 207 255
175 207 255
175 207 255
175 207 255
175 207 255
175 207 255
175 207 255
175 207 255
175 207 255
175 207 255
175 207 255
175 207 255
176 208 255
176 208 255
176 208 255
176 208 255
176 208 255
176 208 255
176 208 255
176 208 255
176 208 255
176 208 255
176 208 255
176 208 255
176 208 255
176 208 255
176 208 255
176 208 255
176 208 255
177 208 255
177 208 255
177 208 255
177 208 255
177 208 255
177 208 255
177 208 255
177 208 255
176 208 255
176 208 255
176 208 255
176 208 255
176 208 255
176 208 255
176 208 255
176 208 255
176 208 255
176 208 255
176 208 255
176 208 255
176 208 255
176 208 255
176 208 255
176 208 255
176 208 255
176 208 255
175 207 255
175 207 255
175 207 255
175 207 255
175 207 255
175 207 255
175 207 255
175 207 255
175 207 255
175 207 255
175 207 255
175 207 255
175 207 255
175 207 255
175 207 255
174 207 255
174 207 255
174 207 255
174 207 255
174 207 255
174 207 255
174 207 255
174 207 255
174 207 255
174 207 255
174 206 255
174 206 255
174 206 255
174 206 255
174 206 255
173 206 255
173 206 255
173 206 255
173 206 255
173 206 255
173 206 255
173 206 255
173 206 255
173 206 255
173 206 255
173 206 255
173 206 255
173 206 255
173 206 255
172 206 255
172 206 255
172 206 255
172 206 255
172 205 255
172 205 255
172 205 255
172 205 255
172 205 255
172 205 255
172 205 255
172 205 255
172 205 255
171 205 255
171 205 255
171 205 255
171 205 255
171 205 255
171 205 255
171 205 255
171 205 255
171 205 255
171 205 255
171 205 255
171 205 255
170 204 255
170 204 255
170 204 255
170 204 255
170 204 255
170 204 255
170 204 255
170 204 255
170 204 255
170 204 255
170 204 255
170 204 255
169 204 255
169 204 255
169 204 255
169 204 255
169 204 255
169 204 255
169 204 255
169 203 255
169 203 255
169 203 255
169 203 255
168 203 255
168 203 255
168 203 255
168 203 255
168 203 255
168 203 255
168 203 255
168 203 255
168 203 255
168 203 255
168 203 255
168 203 255
167 203 255
167 203 255
167 203 255
167 203 255
167 202 255
167 202 255
167 202 255
167 202 255
167 202 255
167 202 255
167 202 255
167 202 255
167 202 255
166 202 255
166 202 255
166 202 255
166 202 255
166 202 255
166 202 255
166 202 255
166 202 255
166 202 255
166 202 255
166 202 255
166 202 255
166 202 255
165 201 255
165 201 255
165 201 255
165 201 255
165 201 255
165 201 255
165 201 255
165 201 255
165 201 255
138 169 216
90 110 141
71 89 117
68 84 108
66 83 109
72 89 115
70 87 112
72 89 115
68 86 112
68 85 111
68 84 108
70 87 112
72 89 114
67 84 108
70 87 112
71 87 112
67 83 107
74 91 115
68 85 111
72 90 118
70 87 112
68 84 108
68 85 110
69 87 113
68 84 110
71 90 117
72 88 114
73 90 115
72 90 115
68 84 110
65 81 104
67 85 113
67 84 110
67 84 108
66 83 109
72 89 115
68 85 111
72 90 115
67 84 110
65 82 107
68 86 112
71 89 115
73 91 117
68 84 109
67 83 109
69 86 112
68 85 110
74 91 117
61 77 101
72 90 115
71 89 115
68 85 110
64 81 106
70 87 113
71 89 115
66 81 105
70 87 112
70 87 112
69 87 114
70 86 110
66 82 105
72 89 115
71 90 117
66 83 108
67 84 110
67 84 109
73 90 116
72 89 114
72 89 115
70 88 115
70 87 113
70 87 113
83 104 135
140 171 219
165 201 255
165 201 255
165 201 255
165 201 255
165 201 255
165 201 255
165 201 255
165 201 255
165 201 255
166 202 255
166 202 255
166 202 255
166 202 255
166 202 255
166 202 255
166 202 255
166 202 255
166 202 255
166 202 255
166 202 255
166 202 255
166 202 255
166 202 255
167 202 255
167 202 255
167 202 255
167 202 255
167 202 255
167 202 255
167 202 255
167 202 255
167 203 255
167 203 255
167 203 255
167 203 255
168 203 255
168 203 255
168 203 255
168 203 255
168 203 255
168 203 255
168 203 255
168 203 255
168 203 255
168 203 255
168 203 255
168 203 255
169 203 255
169 203 255
169 203 255
169 203 255
169 204 255
169 204 255
169 204 255
169 204 255
169 204 255
169 204 255
169 204 255
170 204 255
170 204 255
170 204 255
170 204 255
170 204 255
170 204 255
170 204 255
170 204 255
170 204 255
170 204 255
170 204 255
170 204 255
171 205 255
171 205 255
171 205 255
171 205 255
171 205 255
171 205 255
171 205 255
171 205 255
171 205 255
171 205 255
171 205 255
171 205 255
172 205 255
172 205 255
172 205 255
172 205 255
172 205 255
172 205 255
172 205 255
172 205 255
172 205 255
172 206 255
172 206 255
172 206 255
172 206 255
173 206 255
173 206 255
173 206 255
173 206 255
173 206 255
173 206 255
173 206 255
173 206 255
173 206 255
173 206 255
173 206 255
173 206 255
173 206 255
173 206 255
174 206 255
174 206 255
174 206 255
174 206 255
174 206 255
174 207 255
174 207 255
174 207 255
174 207 255
174 207 255
174 207 255
174 207 255
174 207 255
174 207 255
174 207 255
175 207 255
175 207 255
175 207 255
175 207 255
175 207 255
175 207 255
175 207 255
175 207 255
175 207 255
175 207 255
175 207 255
175 207 255
175 207 255
175 207 255
175 207 255
176 208 255
176 208 255
176 208 255
176 208 255
176 208 255
176 208 255
176 208 255
176 208 255
176 208 255
176 208 255
176 208 255
176 208 255
176 208 255
176 208 255
176 208 255
176 208 255
176 208 255
176 208 255
177 208 255
177 208 255
177 208 255
177 208 255
177 208 255
177 208 255
177 208 255
177 208 255
177 208 255
177 208 255
177 208 255
177 208 255
177 208 255
177 208 255
177 208 255
177 208 255
177 208 255
176 208 255
176 208 255
176 208 255
176 208 255
176 208 255
176 208 255
176 208 255
176 208 255
176 208 255
176 208 255
176 208 255
176 208 255
176 208 255
176 208 255
176 208 255
176 208 255
176 208 255
175 207 255
175 207 255
175 207 255
175 207 255
175 207 255
175 207 255
175 207 255
175 207 255
175 207 255
175 207 255
175 207 255
175 207 255
175 207 255
175 207 255
175 207 255
175 207 255
174 207 255
174 207 255
174 207 255
174 207 255
174 207 255
174 207 255
174 207 255
174 207 255
174 207 255
174 207 255
174 206 255
174 206 255
174 206 255
174 206 255
173 206 255
173 206 255
173 206 255
173 206 255
173 206 255
173 206 255
173 206 255
173 206 255
173 206 255
173 206 255
173 206 255
173 206 255
173 206 255
173 206 255
172 206 255
172 206 255
172 206 255
172 206 255
172 205 255
172 205 255
172 205 255
172 205 255
172 205 255
172 205 255
172 205 255
172 205 255
172 205 255
171 205 255
171 205 255
171 205 255
171 205 255
171 205 255
171 205 255
171 205 255
171 205 255
171 205 255
171 205 255
171 205 255
171 205 255
170 204 255
170 204 255
170 204 255
170 204 255
170 204 255
170 204 255
170 204 255
170 204 255
170 204 255
170 204 255
170 204 255
170 204 255
169 204 255
169 204 255
169 204 255
169 204 255
169 204 255
169 204 255
169 204 255
169 204 255
169 203 255
169 203 255
169 203 255
169 203 255
168 203 255
168 203 255
168 203 255
168 203 255
168 203 255
168 203 255
168 203 255
168 203 255
168 203 255
168 203 255
168 203 255
168 203 255
167 203 255
167 203 255
167 203 255
167 203 255
167 202 255
167 202 255
167 202 255
167 202 255
167 202 255
167 202 255
167 202 255
167 202 255
167 202 255
166 202 255
166 202 255
166 202 255
166 202 255
166 202 255
166 202 255
166 202 255
166 202 255
166 202 255
166 202 255
166 202 255
166 202 255
166 202 255
166 202 255
166 202 255
163 198 252
119 145 185
71 89 114
72 90 116
71 89 117
71 88 113
71 88 113
73 91 117
73 90 117
70 86 111
69 86 113
72 90 116
71 87 112
72 90 117
68 84 109
68 85 110
69 85 111
69 85 109
71 88 113
71 88 113
72 89 116
71 88 114
68 85 111
69 86 111
71 88 113
71 88 113
68 85 110
68 85 110
66 83 107
71 88 114
71 87 111
66 82 105
72 88 113
70 86 110
68 85 111
65 83 108
70 87 113
69 86 111
66 82 105
67 83 108
68 84 109
69 86 111
70 87 112
68 85 110
67 84 108
63 80 105
72 89 114
68 86 113
71 88 113
67 84 109
68 85 110
68 84 109
68 85 109
66 82 107
65 82 108
70 86 112
72 89 115
70 86 111
70 86 111
67 84 109
70 86 110
71 88 114
68 85 110
70 87 113
68 84 109
66 84 110
70 88 115
66 82 106
68 85 110
71 89 114
70 88 114
72 90 117
73 90 116
67 84 110
71 88 114
69 87 113
116 142 181
164 200 253
166 202 255
166 202 255
166 202 255
166 202 255
166 202 255
166 202 255
166 202 255
166 202 255
166 202 255
166 202 255
166 202 255
166 202 255
166 202 255
166 202 255
166 202 255
167 202 255
167 202 255
167 202 255
167 202 255
167 202 255
167 202 255
167 202 255
167 202 255
167 202 255
167 203 255
167 203 255
167 203 255
167 203 255
168 203 255
168 203 255
168 203 255
168 203 255
168 203 255
168 203 255
168 203 255
168 203 255
168 203 255
168 203 255
168 203 255
168 203 255
169 203 255
169 203 255
169 203 255
169 203 255
169 203 255
169 204 255
169 204 255
169 204 255
169 204 255
169 204 255
169 204 255
169 204 255
170 204 255
170 204 255
170 204 255
170 204 255
170 204 255
170 204 255
170 204 255
170 204 255
170 204 255
170 204 255
170 204 255
170 204 255
171 205 255
171 205 255
171 205 255
171 205 255
171 205 255
171 205 255
171 205 255
171 205 255
171 205 255
171 205 255
171 205 255
171 205 255
172 205 255
172 205 255
172 205 255
172 205 255
172 205 255
172 205 255
172 205 255
172 205 255
172 205 255
172 206 255
172 206 255
172 206 255
172 206 255
173 206 255
173 206 255
173 206 255
173 206 255
173 206 255
173 206 255
173 206 255
173 206 255
173 206 255
173 206 255
173 206 255
173 206 255
173 206 255
173 206 255
174 206 255
174 206 255
174 206 255
174 206 255
174 207 255
174 207 255
174 207 255
174 207 255
174 207 255
174 207 255
174 207 255
174 207 255
174 207 255
174 207 255
175 207 255
175 207 255
175 207 255
175 207 255
175 207 255
175 207 255
175 207 255
175 207 255
175 207 255
175 207 255
175 207 255
175 207 255
175 207 255
175 207 255
175 207 255
175 207 255
176 208 255
176 208 255
176 208 255
176 208 255
176 208 255
176 208 255
176 208 255
176 208 255
176 208 255
176 208 255
176 208 255
176 208 255
176 208 255
176 208 255
176 208 255
176 208 255
176 208 255
177 208 255
177 208 255
177 208 255
177 208 255
177 208 255
177 208 255
177 208 255
177 208 255
177 208 255
177 208 255
177 208 255
177 209 255
177 209 255
177 209 255
177 209 255
177 208 255
177 208 255
177 208 255
177 208 255
177 208 255
177 208 255
177 208 255
177 208 255
177 208 255
177 208 255
177 208 255
177 208 255
176 208 255
176 208 255
176 208 255
176 208 255
176 208 255
176 208 255
176 208 255
176 208 255
176 208 255
176 208 255
176 208 255
176 208 255
176 208 255
176 208 255
176 208 255
176 208 255
176 208 255
175 207 255
175 207 255
175 207 255
175 207 255
175 207 255
175 207 255
175 207 255
175 207 255
175 207 255
175 207 255
175 207 255
175 207 255
175 207 255
175 207 255
175 207 255
175 207 255
174 207 255
174 207 255
174 207 255
174 207 255
174 207 255
174 207 255
174 207 255
174 207 255
174 207 255
174 206 255
174 206 255
174 206 255
174 206 255
174 206 255
173 206 255
173 206 255
173 206 255
173 206 255
173 206 255
173 206 255
173 206 255
173 206 255
173 206 255
173 206 255
173 206 255
173 206 255
173 206 255
172 206 255
172 206 255
172 206 255
172 206 255
172 205 255
172 205 255
172 205 255
172 205 255
172 205 255
172 205 255
172 205 255
172 205 255
172 205 255
171 205 255
171 205 255
171 205 255
171 205 255
171 205 255
171 205 255
171 205 255
171 205 255
171 205 255
171 205 255
171 205 255
171 205 255
170 204 255
170 204 255
170 204 255
170 204 255
170 204 255
170 204 255
170 204 255
170 204 255
170 204 255
170 204 255
170 204 255
170 204 255
169 204 255
169 204 255
169 204 255
169 204 255
169 204 255
169 204 255
169 204 255
169 204 255
169 203 255
169 203 255
169 203 255
169 203 255
168 203 255
168 203 255
168 203 255
168 203 255
168 203 255
168 203 255
168 203 255
168 203 255
168 203 255
168 203 255
168 203 255
168 203 255
168 203 255
167 203 255
167 203 255
167 203 255
167 203 255
167 202 255
167 202 255
167 202 255
167 202 255
167 202 255
167 202 255
167 202 255
167 202 255
167 202 255
167 202 255
166 202 255
166 202 255
166 202 255
166 202 255
166 202 255
166 202 255
166 202 255
166 202 255
154 187 238
89 110 141
69 87 115
72 89 114
69 86 112
67 85 110
73 90 115
68 84 108
70 88 115
68 85 110
68 86 112
68 84 109
67 83 107
71 88 113
72 89 115
65 82 106
70 87 113
69 85 110
65 82 108
70 87 113
69 85 110
66 82 105
68 85 111
68 85 111
71 88 115
69 86 111
65 81 105
72 88 112
66 84 110
70 86 110
65 81 105
68 85 110
66 83 109
70 87 113
71 88 113
67 84 109
66 83 107
69 86 111
71 89 115
71 88 114
67 84 110
70 87 112
65 82 107
70 86 111
67 83 107
73 91 118
70 88 116
72 90 116
67 82 105
66 83 108
70 86 110
70 87 112
70 87 111
70 87 112
70 87 112
70 89 117
73 91 117
67 83 107
68 84 108
68 85 112
71 88 113
69 86 111
66 83 109
66 83 108
72 91 118
69 85 108
70 87 113
70 87 113
69 87 113
72 89 115
64 81 105
68 86 112
70 87 113
68 85 111
70 88 114
72 90 116
71 88 113
73 91 118
85 105 136
159 193 243
166 202 255
166 202 255
166 202 255
166 202 255
166 202 255
166 202 255
166 202 255
166 202 255
167 202 255
167 202 255
167 202 255
167 202 255
167 202 255
167 202 255
167 202 255
167 202 255
167 202 255
167 202 255
167 203 255
167 203 255
167 203 255
167 203 255
168 203 255
168 203 255
168 203 255
168 203 255
168 203 255
168 203 255
168 203 255
168 203 255
168 203 255
168 203 255
168 203 255
168 203 255
168 203 255
169 203 255
169 203 255
169 203 255
169 203 255
169 204 255
169 204 255
169 204 255
169 204 255
169 204 255
169 204 255
169 204 255
169 204 255
170 204 255
170 204 255
170 204 255
170 204 255
170 204 255
170 204 255
170 204 255
170 204 255
170 204 255
170 204 255
170 204 255
170 204 255
171 205 255
171 205 255
171 205 255
171 205 255
171 205 255
171 205 255
171 205 255
171 205 255
171 205 255
171 205 255
171 205 255
171 205 255
172 205 255
172 205 255
172 205 255
172 205 255
172 205 255
172 205 255
172 205 255
172 205 255
172 205 255
172 206 255
172 206 255
172 206 255
172 206 255
173 206 255
173 206 255
173 206 255
173 206 255
173 206 255
173 206 255
173 206 255
173 206 255
173 206 255
173 206 255
173 206 255
173 206 255
173 206 255
174 206 255
174 206 255
174 206 255
174 206 255
174 206 255
174 207 255
174 207 255
174 207 255
174 207 255
174 207 255
174 207 255
174 207 255
174 207 255
174 207 255
175 207 255
175 207 255
175 207 255
175 207 255
175 207 255
175 207 255
175 207 255
175 207 255
175 207 255
175 207 255
175 207 255
175 207 255
175 207 255
175 207 255
175 207 255
175 207 255
176 208 255
176 208 255
176 208 255
176 208 255
176 208 255
176 208 255
176 208 255
176 208 255
176 208 255
176 208 255
176 208 255
176 208 255
176 208 255
176 208 255
176 208 255
176 208 255
176 208 255
177 208 255
177 208 255
177 208 255
177 208 255
177 208 255
177 208 255
177 208 255
177 208 255
177 208 255
177 208 255
177 208 255
177 208 255
177 209 255
177 209 255
177 209 255
177 209 255
178 209 255
178 209 255
177 209 255
177 209 255
177 209 255
177 209 255
177 209 255
177 209 255
177 209 255
177 208 255
177 208 255
177 208 255
177 208 255
177 208 255
177 208 255
177 208 255
177 208 255
177 208 255
177 208 255
177 208 255
177 208 255
176 208 255
176 208 255
176 208 255
176 208 255
176 208 255
176 208 255
176 208 255
176 208 255
176 208 255
176 208 255
176 208 255
176 208 255
176 208 255
176 208 255
176 208 255
176 208 255
175 207 255
175 207 255
175 207 255
175 207 255
175 207 255
175 207 255
175 207 255
175 207 255
175 207 255
175 207 255
175 207 255
175 207 255
175 207 255
175 207 255
175 207 255
175 207 255
174 207 255
174 207 255
174 207 255
174 207 255
174 207 255
174 207 255
174 207 255
174 207 255
174 207 255
174 206 255
174 206 255
174 206 255
174 206 255
174 206 255
173 206 255
173 206 255
173 206 255
173 206 255
173 206 255
173 206 255
173 206 255
173 206 255
173 206 255
173 206 255
173 206 255
173 206 255
173 206 255
173 206 255
172 206 255
172 206 255
172 206 255
172 206 255
172 205 255
172 205 255
172 205 255
172 205 255
172 205 255
172 205 255
172 205 255
172 205 255
171 205 255
171 205 255
171 205 255
171 205 255
171 205 255
171 205 255
171 205 255
171 205 255
171 205 255
171 205 255
171 205 255
171 205 255
170 204 255
170 204 255
170 204 255
170 204 255
170 204 255
170 204 255
170 204 255
170 204 255
170 204 255
170 204 255
170 204 255
170 204 255
170 204 255
169 204 255
169 204 255
169 204 255
169 204 255
169 204 255
169 204 255
169 204 255
169 204 255
169 203 255
169 203 255
169 203 255
169 203 255
168 203 255
168 203 255
168 203 255
168 203 255
168 203 255
168 203 255
168 203 255
168 203 255
168 203 255
168 203 255
168 203 255
168 203 255
168 203 255
167 203 255
167 203 255
167 203 255
167 203 255
167 203 255
167 202 255
167 202 255
167 202 255
167 202 255
167 202 255
167 202 255
167 202 255
167 202 255
167 202 255
167 202 255
166 202 255
137 166 211
74 92 120
70 88 115
69 86 112
71 88 114
70 87 113
71 89 114
72 89 114
74 91 117
74 92 118
68 84 109
70 86 112
73 90 115
68 85 111
72 89 114
68 85 111
70 87 111
67 83 107
67 83 108
71 87 113
67 83 108
70 87 112
70 87 113
67 84 110
68 84 110
67 84 109
68 85 111
71 87 112
69 85 110
67 83 107
69 86 111
67 85 111
69 86 113
69 86 112
67 84 109
67 84 108
70 86 111
70 87 112
67 83 108
71 89 115
70 88 114
69 86 113
68 84 108
69 85 111
68 85 111
71 89 115
68 85 111
67 84 109
70 87 112
64 80 105
68 84 108
68 85 110
69 85 110
64 79 103
67 84 110
68 85 110
68 84 108
69 86 110
70 87 113
67 84 108
66 83 107
68 85 110
64 80 104
72 89 115
67 85 111
67 83 108
67 84 108
69 86 112
70 87 113
67 84 110
69 86 111
68 85 110
68 85 110
70 87 112
67 84 110
72 90 116
69 85 109
71 89 115
71 88 113
69 87 114
79 97 126
141 172 219
166 202 255
167 202 255
167 202 255
167 202 255
167 202 255
167 202 255
167 202 255
167 202 255
167 202 255
167 202 255
167 202 255
167 203 255
167 203 255
167 203 255
167 203 255
167 203 255
168 203 255
168 203 255
168 203 255
168 203 255
168 203 255
168 203 255
168 203 255
168 203 255
168 203 255
168 203 255
168 203 255
168 203 255
168 203 255
169 203 255
169 203 255
169 203 255
169 203 255
169 204 255
169 204 255
169 204 255
169 204 255
169 204 255
169 204 255
169 204 255
169 204 255
170 204 255
170 204 255
170 204 255
170 204 255
170 204 255
170 204 255
170 204 255
170 204 255
170 204 255
170 204 255
170 204 255
170 204 255
171 205 255
171 205 255
171 205 255
171 205 255
171 205 255
171 205 255
171 205 255
171 205 255
171 205 255
171 205 255
171 205 255
171 205 255
172 205 255
172 205 255
172 205 255
172 205 255
172 205 255
172 205 255
172 205 255
172 205 255
172 205 255
172 206 255
172 206 255
172 206 255
172 206 255
173 206 255
173 206 255
173 206 255
173 206 255
173 206 255
173 206 255
173 206 255
173 206 255
173 206 255
173 206 255
173 206 255
173 206 255
173 206 255
173 206 255
174 206 255
174 206 255
174 206 255
174 206 255
174 207 255
174 207 255
174 207 255
174 207 255
174 207 255
174 207 255
174 207 255
174 207 255
174 207 255
174 207 255
175 207 255
175 207 255
175 207 255
175 207 255
175 207 255
175 207 255
175 207 255
175 207 255
175 207 255
175 207 255
175 207 255
175 207 255
175 207 255
175 207 255
175 207 255
176 208 255
176 208 255
176 208 255
176 208 255
176 208 255
176 208 255
176 208 255
176 208 255
176 208 255
176 208 255
176 208 255
176 208 255
176 208 255
176 208 255
176 208 255
176 208 255
176 208 255
177 208 255
177 208 255
177 208 255
177 208 255
177 208 255
177 208 255
177 208 255
177 208 255
177 208 255
177 208 255
177 208 255
177 208 255
177 209 255
177 209 255
177 209 255
177 209 255
177 209 255
177 209 255
177 209 255
178 209 255
178 209 255
178 209 255
178 209 255
178 209 255
178 209 255
178 209 255
178 209 255
178 209 255
177 209 255
177 209 255
177 209 255
177 209 255
177 209 255
177 209 255
177 209 255
177 208 255
177 208 255
177 208 255
177 208 255
177 208 255
177 208 255
177 208 255
177 208 255
177 208 255
177 208 255
177 208 255
177 208 255
176 208 255
176 208 255
176 208 255
176 208 255
176 208 255
176 208 255
176 208 255
176 208 255
176 208 255
176 208 255
176 208 255
176 208 255
176 208 255
176 208 255
176 208 255
176 208 255
175 207 255
175 207 255
175 207 255
175 207 255
175 207 255
175 207 255
175 207 255
175 207 255
175 207 255
175 207 255
175 207 255
175 207 255
175 207 255
175 207 255
175 207 255
175 207 255
174 207 255
174 207 255
174 207 255
174 207 255
174 207 255
174 207 255
174 207 255
174 207 255
174 207 255
174 206 255
174 206 255
174 206 255
174 206 255
174 206 255
173 206 255
173 206 255
173 206 255
173 206 255
173 206 255
173 206 255
173 206 255
173 206 255
173 206 255
173 206 255
173 206 255
173 206 255
173 206 255
172 206 255
172 206 255
172 206 255
172 206 255
172 206 255
172 205 255
172 205 255
172 205 255
172 205 255
172 205 255
172 205 255
172 205 255
172 205 255
171 205 255
171 205 255
171 205 255
171 205 255
171 205 255
171 205 255
171 205 255
171 205 255
171 205 255
171 205 255
171 205 255
171 205 255
170 204 255
170 204 255
170 204 255
170 204 255
170 204 255
170 204 255
170 204 255
170 204 255
170 204 255
170 204 255
170 204 255
170 204 255
170 204 255
169 204 255
169 204 255
169 204 255
169 204 255
169 204 255
169 204 255
169 204 255
169 204 255
169 203 255
169 203 255
169 203 255
169 203 255
168 203 255
168 203 255
168 203 255
168 203 255
168 203 255
168 203 255
168 203 255
168 203 255
168 203 255
168 203 255
168 203 255
168 203 255
168 203 255
168 203 255
167 203 255
167 203 255
167 203 255
167 203 255
167 203 255
167 202 255
167 202 255
167 202 255
167 202 255
122 150 192
71 88 114
70 88 115
72 88 113
70 86 111
69 87 112
68 85 110
70 87 112
72 89 115
72 90 116
67 83 107
68 84 109
68 85 111
70 87 111
69 85 109
67 83 107
72 90 117
70 87 112
69 85 110
65 81 106
68 84 109
70 86 111
70 88 115
69 85 111
65 82 107
68 84 108
66 82 106
66 82 107
68 86 111
67 83 108
71 87 112
73 90 116
71 89 115
65 82 107
70 87 111
68 85 110
69 86 112
66 83 108
64 80 103
68 86 111
67 84 109
71 88 113
68 84 108
68 84 108
67 84 109
66 82 106
67 83 107
67 83 108
70 86 111
67 85 111
68 85 110
68 85 110
65 81 105
68 85 110
70 87 112
71 89 115
68 85 110
70 87 112
70 86 111
70 87 112
70 87 112
70 86 110
68 84 109
64 80 104
67 83 107
69 86 111
68 84 108
71 88 113
69 86 113
70 87 113
68 84 109
67 83 107
71 88 114
67 83 107
70 87 112
68 86 113
72 88 113
69 86 111
70 87 111
68 84 110
68 85 110
71 88 114
69 86 111
117 143 183
167 202 255
167 202 255
167 202 255
167 202 255
167 203 255
167 203 255
167 203 255
167 203 255
167 203 255
168 203 255
168 203 255
168 203 255
168 203 255
168 203 255
168 203 255
168 203 255
168 203 255
168 203 255
168 203 255
168 203 255
168 203 255
168 203 255
168 203 255
169 203 255
169 203 255
169 203 255
169 203 255
169 204 255
169 204 255
169 204 255
169 204 255
169 204 255
169 204 255
169 204 255
169 204 255
169 204 255
170 204 255
170 204 255
170 204 255
170 204 255
170 204 255
170 204 255
170 204 255
170 204 255
170 204 255
170 204 255
170 204 255
170 204 255
171 205 255
171 205 255
171 205 255
171 205 255
171 205 255
171 205 255
171 205 255
171 205 255
171 205 255
171 205 255
171 205 255
171 205 255
172 205 255
172 205 255
172 205 255
172 205 255
172 205 255
172 205 255
172 205 255
172 205 255
172 205 255
172 206 255
172 206 255
172 206 255
172 206 255
173 206 255
173 206 255
173 206 255
173 206 255
173 206 255
173 206 255
173 206 255
173 206 255
173 206 255
173 206 255
173 206 255
173 206 255
173 206 255
174 206 255
174 206 255
174 206 255
174 206 255
174 206 255
174 207 255
174 207 255
174 207 255
174 207 255
174 207 255
174 207 255
174 207 255
174 207 255
174 207 255
175 207 255
175 207 255
175 207 255
175 207 255
175 207 255
175 207 255
175 207 255
175 207 255
175 207 255
175 207 255
175 207 255
175 207 255
175 207 255
175 207 255
175 207 255
175 207 255
176 208 255
176 208 255
176 208 255
176 208 255
176 208 255
176 208 255
176 208 255
176 208 255
176 208 255
176 208 255
176 208 255
176 208 255
176 208 255
176 208 255
176 208 255
176 208 255
177 208 255
177 208 255
177 208 255
177 208 255
177 208 255
177 208 255
177 208 255
177 208 255
177 208 255
177 208 255
177 208 255
177 208 255
177 209 255
177 209 255
177 209 255
177 209 255
177 209 255
177 209 255
177 209 255
178 209 255
178 209 255
178 209 255
178 209 255
178 209 255
178 209 255
178 209 255
178 209 255
178 209 255
178 209 255
178 209 255
178 209 255
178 209 255
178 209 255
178 209 255
178 209 255
178 209 255
178 209 255
178 209 255
177 209 255
177 209 255
177 209 255
177 209 255
177 209 255
177 209 255
177 209 255
177 208 255
177 208 255
177 208 255
177 208 255
177 208 255
177 208 255
177 208 255
177 208 255
177 208 255
177 208 255
177 208 255
177 208 255
176 208 255
176 208 255
176 208 255
176 208 255
176 208 255
176 208 255
176 208 255
176 208 255
176 208 255
176 208 255
176 208 255
176 208 255
176 208 255
176 208 255
176 208 255
176 208 255
175 207 255
175 207 255
175 207 255
175 207 255
175 207 255
175 207 255
175 207 255
175 207 255
175 207 255
175 207 255
175 207 255
175 207 255
175 207 255
175 207 255
175 207 255
174 207 255
174 207 255
174 207 255
174 207 255
174 207 255
174 207 255
174 207 255
174 207 255
174 207 255
174 207 255
174 206 255
174 206 255
174 206 255
174 206 255
173 206 255
173 206 255
173 206 255
173 206 255
173 206 255
173 206 255
173 206 255
173 206 255
173 206 255
173 206 255
173 206 255
173 206 255
173 206 255
173 206 255
172 206 255
172 206 255
172 206 255
172 206 255
172 205 255
172 205 255
172 205 255
172 205 255
172 205 255
172 205 255
172 205 255
172 205 255
171 205 255
171 205 255
171 205 255
171 205 255
171 205 255
171 205 255
171 205 255
171 205 255
171 205 255
171 205 255
171 205 255
171 205 255
171 205 255
170 204 255
170 204 255
170 204 255
170 204 255
170 204 255
170 204 255
170 204 255
170 204 255
170 204 255
170 204 255
170 204 255
170 204 255
170 204 255
169 204 255
169 204 255
169 204 255
169 204 255
169 204 255
169 204 255
169 204 255
169 204 255
169 203 255
169 203 255
169 203 255
169 203 255
168 203 255
168 203 255
168 203 255
168 203 255
168 203 255
168 203 255
168 203 255
168 203 255
168 203 255
168 203 255
168 203 255
168 203 255
168 203 255
168 203 255
168 203 255
167 203 255
163 198 249
110 135 173
67 84 109
72 89 115
67 84 110
71 88 113
68 84 109
68 85 109
71 88 113
70 88 114
69 87 113
68 85 110
70 88 114
68 84 109
69 85 110
69 86 111
67 83 107
70 86 111
69 85 109
66 82 107
70 87 111
65 81 104
67 84 108
68 85 111
68 85 109
63 78 102
70 86 111
72 88 113
64 79 101
66 83 108
66 82 105
64 80 103
67 84 110
65 81 106
70 87 111
68 83 107
70 87 112
65 81 105
68 84 109
70 88 113
68 85 110
70 87 111
68 84 109
72 90 116
66 83 109
68 85 110
65 81 105
67 84 108
64 81 106
65 81 106
64 81 105
70 87 113
62 78 102
65 81 105
68 85 111
70 87 113
66 83 109
67 84 110
67 82 106
69 86 111
66 83 107
67 84 110
68 85 110
67 83 107
68 84 108
67 84 108
65 81 104
69 86 112
70 86 111
72 88 113
68 84 108
67 84 110
67 84 109
67 84 108
68 84 108
67 83 108
70 87 114
71 87 111
67 84 108
68 85 110
72 89 115
70 88 113
70 88 114
65 83 109
69 86 113
66 83 108
103 126 160
165 200 252
167 203 255
168 203 255
168 203 255
168 203 255
168 203 255
168 203 255
168 203 255
168 203 255
168 203 255
168 203 255
168 203 255
168 203 255
168 203 255
168 203 255
168 203 255
169 203 255
169 203 255
169 203 255
169 203 255
169 203 255
169 204 255
169 204 255
169 204 255
169 204 255
169 204 255
169 204 255
169 204 255
169 204 255
169 204 255
170 204 255
170 204 255
170 204 255
170 204 255
170 204 255
170 204 255
170 204 255
170 204 255
170 204 255
170 204 255
170 204 255
170 204 255
171 205 255
171 205 255
171 205 255
171 205 255
171 205 255
171 205 255
171 205 255
171 205 255
171 205 255
171 205 255
171 205 255
171 205 255
171 205 255
172 205 255
172 205 255
172 205 255
172 205 255
172 205 255
172 205 255
172 205 255
172 205 255
172 206 255
172 206 255
172 206 255
172 206 255
173 206 255
173 206 255
173 206 255
173 206 255
173 206 255
173 206 255
173 206 255
173 206 255
173 206 255
173 206 255
173 206 255
173 206 255
173 206 255
173 206 255
174 206 255
174 206 255
174 206 255
174 206 255
174 207 255
174 207 255
174 207 255
174 207 255
174 207 255
174 207 255
174 207 255
174 207 255
174 207 255
174 207 255
175 207 255
175 207 255
175 207 255
175 207 255
175 207 255
175 207 255
175 207 255
175 207 255
175 207 255
175 207 255
175 207 255
175 207 255
175 207 255
175 207 255
175 207 255
176 208 255
176 208 255
176 208 255
176 208 255
176 208 255
176 208 255
176 208 255
176 208 255
176 208 255
176 208 255
176 208 255
176 208 255
176 208 255
176 208 255
176 208 255
176 208 255
176 208 255
177 208 255
177 208 255
177 208 255
177 208 255
177 208 255
177 208 255
177 208 255
177 208 255
177 208 255
177 208 255
177 208 255
177 209 255
177 209 255
177 209 255
177 209 255
177 209 255
177 209 255
177 209 255
178 209 255
178 209 255
178 209 255
178 209 255
178 209 255
178 209 255
178 209 255
178 209 255
178 209 255
178 209 255
178 209 255
178 209 255
178 209 255
178 209 255
178 209 255
178 209 255
178 209 255
178 209 255
178 209 255
178 209 255
178 209 255
178 209 255
178 209 255
178 209 255
178 209 255
178 209 255
178 209 255
178 209 255
178 209 255
178 209 255
177 209 255
177 209 255
177 209 255
177 209 255
177 209 255
177 209 255
177 208 255
177 208 255
177 208 255
177 208 255
177 208 255
177 208 255
177 208 255
177 208 255
177 208 255
177 208 255
177 208 255
177 208 255
176 208 255
176 208 255
176 208 255
176 208 255
176 208 255
176 208 255
176 208 255
176 208 255
176 208 255
176 208 255
176 208 255
176 208 255
176 208 255
176 208 255
176 208 255
176 208 255
175 207 255
175 207 255
175 207 255
175 207 255
175 207 255
175 207 255
175 207 255
175 207 255
175 207 255
175 207 255
175 207 255
175 207 255
175 207 255
175 207 255
175 207 255
174 207 255
174 207 255
174 207 255
174 207 255
174 207 255
174 207 255
174 207 255
174 207 255
174 207 255
174 206 255
174 206 255
174 206 255
174 206 255
174 206 255
173 206 255
173 206 255
173 206 255
173 206 255
173 206 255
173 206 255
173 206 255
173 206 255
173 206 255
173 206 255
173 206 255
173 206 255
173 206 255
172 206 255
172 206 255
172 206 255
172 206 255
172 206 255
172 205 255
172 205 255
172 205 255
172 205 255
172 205 255
172 205 255
172 205 255
172 205 255
171 205 255
171 205 255
171 205 255
171 205 255
171 205 255
171 205 255
171 205 255
171 205 255
171 205 255
171 205 255
171 205 255
171 205 255
171 205 255
170 204 255
170 204 255
170 204 255
170 204 255
170 204 255
170 204 255
170 204 255
170 204 255
170 204 255
170 204 255
170 204 255
170 204 255
170 204 255
169 204 255
169 204 255
169 204 255
169 204 255
169 204 255
169 204 255
169 204 255
169 204 255
169 204 255
169 203 255
169 203 255
169 203 255
169 203 255
168 203 255
168 203 255
168 203 255
168 203 255
168 203 255
168 203 255
168 203 255
168 203 255
168 203 255
162 196 247
104 127 163
72 90 116
69 85 110
67 83 107
68 85 109
70 86 110
69 87 114
70 87 112
66 82 106
70 87 113
67 84 108
67 85 111
66 83 109
65 82 108
61 77 101
71 88 112
68 85 111
67 83 107
65 81 104
68 86 113
70 87 113
65 81 104
67 83 108
68 86 113
70 87 112
68 86 112
65 81 105
69 85 111
67 84 109
69 86 111
71 88 114
67 85 111
68 83 106
69 86 111
69 85 109
66 81 104
67 84 109
70 87 112
69 85 109
70 87 113
65 82 107
67 85 110
67 83 108
70 87 112
68 84 109
70 87 113
70 86 111
68 85 111
67 84 109
70 87 113
71 87 112
69 86 112
67 84 110
64 80 104
71 88 112
67 83 107
65 81 105
65 80 103
70 87 113
64 81 106
65 83 109
65 81 105
67 83 107
69 85 110
67 84 110
65 81 105
68 84 110
72 89 114
69 86 112
67 84 110
67 83 108
70 87 113
70 86 111
68 86 112
64 80 103
73 90 116
69 86 111
71 88 114
68 84 109
72 88 112
66 82 106
67 84 109
65 81 106
66 84 109
68 85 110
69 86 111
73 89 113
102 124 158
163 197 248
168 203 255
168 203 255
168 203 255
168 203 255
168 203 255
168 203 255
168 203 255
168 203 255
168 203 255
169 203 255
169 203 255
169 203 255
169 203 255
169 204 255
169 204 255
169 204 255
169 204 255
169 204 255
169 204 255
169 204 255
169 204 255
169 204 255
170 204 255
170 204 255
170 204 255
170 204 255
170 204 255
170 204 255
170 204 255
170 204 255
170 204 255
170 204 255
170 204 255
170 204 255
170 204 255
171 205 255
171 205 255
171 205 255
171 205 255
171 205 255
171 205 255
171 205 255
171 205 255
171 205 255
171 205 255
171 205 255
171 205 255
171 205 255
172 205 255
172 205 255
172 205 255
172 205 255
172 205 255
172 205 255
172 205 255
172 205 255
172 205 255
172 206 255
172 206 255
172 206 255
172 206 255
173 206 255
173 206 255
173 206 255
173 206 255
173 206 255
173 206 255
173 206 255
173 206 255
173 206 255
173 206 255
173 206 255
173 206 255
173 206 255
174 206 255
174 206 255
174 206 255
174 206 255
174 206 255
174 207 255
174 207 255
174 207 255
174 207 255
174 207 255
174 207 255
174 207 255
174 207 255
174 207 255
175 207 255
175 207 255
175 207 255
175 207 255
175 207 255
175 207 255
175 207 255
175 207 255
175 207 255
175 207 255
175 207 255
175 207 255
175 207 255
175 207 255
175 207 255
176 208 255
176 208 255
176 208 255
176 208 255
176 208 255
176 208 255
176 208 255
176 208 255
176 208 255
176 208 255
176 208 255
176 208 255
176 208 255
176 208 255
176 208 255
176 208 255
177 208 255
177 208 255
177 208 255
177 208 255
177 208 255
177 208 255
177 208 255
177 208 255
177 208 255
177 208 255
177 208 255
177 208 255
177 209 255
177 209 255
177 209 255
177 209 255
177 209 255
177 209 255
178 209 255
178 209 255
178 209 255
178 209 255
178 209 255
178 209 255
178 209 255
178 209 255
178 209 255
178 209 255
178 209 255
178 209 255
178 209 255
178 209 255
178 209 255
178 209 255
178 209 255
178 209 255
179 209 255
179 209 255
179 209 255
178 209 255
178 209 255
178 209 255
178 209 255
178 209 255
178 209 255
178 209 255
178 209 255
178 209 255
178 209 255
178 209 255
178 209 255
178 209 255
178 209 255
178 209 255
178 209 255
178 209 255
178 209 255
178 209 255
178 209 255
177 209 255
177 209 255
177 209 255
177 209 255
177 209 255
177 209 255
177 208 255
177 208 255
177 208 255
177 208 255
177 208 255
177 208 255
177 208 255
177 208 255
177 208 255
177 208 255
177 208 255
177 208 255
176 208 255
176 208 255
176 208 255
176 208 255
176 208 255
176 208 255
176 208 255
176 208 255
176 208 255
176 208 255
176 208 255
176 208 255
176 208 255
176 208 255
176 208 255
176 208 255
175 207 255
175 207 255
175 207 255
175 207 255
175 207 255
175 207 255
175 207 255
175 207 255
175 207 255
175 207 255
175 207 255
175 207 255
175 207 255
175 207 255
175 207 255
174 207 255
174 207 255
174 207 255
174 207 255
174 207 255
174 207 255
174 207 255
174 207 255
174 207 255
174 206 255
174 206 255
174 206 255
174 206 255
174 206 255
173 206 255
173 206 255
173 206 255
173 206 255
173 206 255
173 206 255
173 206 255
173 206 255
173 206 255
173 206 255
173 206 255
173 206 255
173 206 255
172 206 255
172 206 255
172 206 255
172 206 255
172 205 255
172 205 255
172 205 255
172 205 255
172 205 255
172 205 255
172 205 255
172 205 255
172 205 255
171 205 255
171 205 255
171 205 255
171 205 255
171 205 255
171 205 255
171 205 255
171 205 255
171 205 255
171 205 255
171 205 255
171 205 255
171 205 255
170 204 255
170 204 255
170 204 255
170 204 255
170 204 255
170 204 255
170 204 255
170 204 255
170 204 255
170 204 255
170 204 255
170 204 255
170 204 255
169 204 255
169 204 255
169 204 255
169 204 255
169 204 255
169 204 255
169 204 255
169 204 255
169 204 255
169 204 255
169 203 255
169 203 255
169 203 255
169 203 255
169 203 255
168 203 255
161 194 245
91 111 142
69 86 112
70 88 114
73 90 115
67 84 110
71 88 112
73 90 116
65 80 104
69 85 108
71 88 113
69 86 111
64 80 104
70 88 115
66 81 104
68 85 111
68 84 108
66 83 108
67 84 109
72 88 111
68 84 108
69 86 111
64 79 101
66 82 107
69 85 109
69 85 109
71 88 114
65 81 105
67 83 106
65 82 108
66 82 107
66 82 104
68 85 110
69 85 109
72 89 116
66 82 107
69 86 111
73 90 117
68 84 108
66 83 108
66 82 106
68 85 112
66 82 107
68 84 107
69 86 111
67 83 107
68 85 110
72 89 115
69 85 108
66 82 107
67 84 108
66 82 105
69 86 111
68 84 109
71 88 113
66 82 107
68 85 110
68 84 109
68 84 110
69 86 111
70 87 112
66 82 106
69 86 110
68 84 109
66 82 106
65 81 105
70 86 111
68 85 111
70 87 112
72 88 113
70 86 110
65 81 106
67 83 108
66 82 107
64 81 105
67 83 108
67 83 108
68 85 110
70 86 111
66 83 108
65 81 104
71 87 113
69 86 112
67 83 109
69 87 112
71 88 113
64 79 103
71 87 111
67 84 109
70 87 112
88 109 140
163 197 248
168 203 255
169 203 255
169 203 255
169 203 255
169 203 255
169 203 255
169 203 255
169 204 255
169 204 255
169 204 255
169 204 255
169 204 255
169 204 255
169 204 255
169 204 255
169 204 255
170 204 255
170 204 255
170 204 255
170 204 255
170 204 255
170 204 255
170 204 255
170 204 255
170 204 255
170 204 255
170 204 255
170 204 255
170 204 255
171 205 255
171 205 255
171 205 255
171 205 255
171 205 255
171 205 255
171 205 255
171 205 255
171 205 255
171 205 255
171 205 255
171 205 255
171 205 255
172 205 255
172 205 255
172 205 255
172 205 255
172 205 255
172 205 255
172 205 255
172 205 255
172 205 255
172 206 255
172 206 255
172 206 255
172 206 255
173 206 255
173 206 255
173 206 255
173 206 255
173 206 255
173 206 255
173 206 255
173 206 255
173 206 255
173 206 255
173 206 255
173 206 255
173 206 255
174 206 255
174 206 255
174 206 255
174 206 255
174 206 255
174 207 255
174 207 255
174 207 255
174 207 255
174 207 255
174 207 255
174 207 255
174 207 255
174 207 255
175 207 255
175 207 255
175 207 255
175 207 255
175 207 255
175 207 255
175 207 255
175 207 255
175 207 255
175 207 255
175 207 255
175 207 255
175 207 255
175 207 255
175 207 255
176 208 255
176 208 255
176 208 255
176 208 255
176 208 255
176 208 255
176 208 255
176 208 255
176 208 255
176 208 255
176 208 255
176 208 255
176 208 255
176 208 255
176 208 255
176 208 255
177 208 255
177 208 255
177 208 255
177 208 255
177 208 255
177 208 255
177 208 255
177 208 255
177 208 255
177 208 255
177 208 255
177 208 255
177 209 255
177 209 255
177 209 255
177 209 255
177 209 255
177 209 255
178 209 255
178 209 255
178 209 255
178 209 255
178 209 255
178 209 255
178 209 255
178 209 255
178 209 255
178 209 255
178 209 255
178 209 255
178 209 255
178 209 255
178 209 255
178 209 255
178 209 255
178 209 255
178 209 255
178 209 255
179 209 255
179 209 255
179 209 255
179 210 255
179 210 255
179 209 255
179 209 255
179 209 255
179 209 255
179 209 255
179 209 255
179 209 255
178 209 255
178 209 255
178 209 255
178 209 255
178 209 255
178 209 255
178 209 255
178 209 255
178 209 255
178 209 255
178 209 255
178 209 255
178 209 255
178 209 255
178 209 255
178 209 255
178 209 255
178 209 255
178 209 255
178 209 255
177 209 255
177 209 255
177 209 255
177 209 255
177 209 255
177 208 255
177 208 255
177 208 255
177 208 255
177 208 255
177 208 255
177 208 255
177 208 255
177 208 255
177 208 255
177 208 255
177 208 255
176 208 255
176 208 255
176 208 255
176 208 255
176 208 255
176 208 255
176 208 255
176 208 255
176 208 255
176 208 255
176 208 255
176 208 255
176 208 255
176 208 255
176 208 255
176 208 255
175 207 255
175 207 255
175 207 255
175 207 255
175 207 255
175 207 255
175 207 255
175 207 255
175 207 255
175 207 255
175 207 255
175 207 255
175 207 255
175 207 255
175 207 255
174 207 255
174 207 255
174 207 255
174 207 255
174 207 255
174 207 255
174 207 255
174 207 255
174 207 255
174 206 255
174 206 255
174 206 255
174 206 255
174 206 255
173 206 255
173 206 255
173 206 255
173 206 255
173 206 255
173 206 255
173 206 255
173 206 255
173 206 255
173 206 255
173 206 255
173 206 255
173 206 255
172 206 255
172 206 255
172 206 255
172 206 255
172 205 255
172 205 255
172 205 255
172 205 255
172 205 255
172 205 255
172 205 255
172 205 255
172 205 255
171 205 255
171 205 255
171 205 255
171 205 255
171 205 255
171 205 255
171 205 255
171 205 255
171 205 255
171 205 255
171 205 255
171 205 255
171 205 255
170 204 255
170 204 255
170 204 255
170 204 255
170 204 255
170 204 255
170 204 255
170 204 255
170 204 255
170 204 255
170 204 255
170 204 255
170 204 255
170 204 255
169 204 255
169 204 255
169 204 255
169 204 255
169 204 255
169 204 255
169 204 255
169 204 255
169 204 255
164 198 248
92 113 146
72 88 113
68 85 111
74 91 117
71 88 113
69 86 112
68 85 111
68 84 107
69 84 108
67 84 110
68 84 108
67 83 107
68 84 109
71 87 112
69 85 109
64 80 104
68 85 111
70 86 112
62 78 101
70 86 111
69 85 108
69 86 111
70 86 111
65 81 104
69 86 111
69 85 110
69 86 112
67 83 109
68 84 109
69 85 108
66 83 107
68 86 111
69 85 110
70 87 111
68 84 109
68 85 110
68 85 111
66 82 106
69 86 111
69 86 112
68 84 108
70 87 112
65 81 104
67 83 108
70 86 110
67 83 107
61 78 102
71 87 111
66 81 104
67 83 108
67 84 109
67 84 110
67 84 108
67 84 108
67 82 106
68 85 110
69 85 110
69 86 111
71 86 109
65 80 103
65 81 106
66 82 107
66 82 106
66 83 108
69 86 111
67 83 106
67 83 107
69 85 110
67 83 106
67 83 106
68 84 108
64 79 103
68 84 109
66 82 107
69 85 110
65 81 104
68 85 111
67 84 110
69 86 112
65 82 108
68 85 110
69 85 109
71 88 115
70 87 112
65 81 106
68 84 108
66 82 107
70 87 112
68 85 110
69 86 112
70 87 113
88 109 140
159 192 241
169 204 255
169 204 255
169 204 255
169 204 255
169 204 255
169 204 255
169 204 255
169 204 255
169 204 255
170 204 255
170 204 255
170 204 255
170 204 255
170 204 255
170 204 255
170 204 255
170 204 255
170 204 255
170 204 255
170 204 255
170 204 255
170 204 255
170 204 255
171 205 255
171 205 255
171 205 255
171 205 255
171 205 255
171 205 255
171 205 255
171 205 255
171 205 255
171 205 255
171 205 255
171 205 255
171 205 255
172 205 255
172 205 255
172 205 255
172 205 255
172 205 255
172 205 255
172 205 255
172 205 255
172 205 255
172 206 255
172 206 255
172 206 255
172 206 255
173 206 255
173 206 255
173 206 255
173 206 255
173 206 255
173 206 255
173 206 255
173 206 255
173 206 255
173 206 255
173 206 255
173 206 255
173 206 255
174 206 255
174 206 255
174 206 255
174 206 255
174 206 255
174 207 255
174 207 255
174 207 255
174 207 255
174 207 255
174 207 255
174 207 255
174 207 255
174 207 255
175 207 255
175 207 255
175 207 255
175 207 255
175 207 255
175 207 255
175 207 255
175 207 255
175 207 255
175 207 255
175 207 255
175 207 255
175 207 255
175 207 255
175 207 255
176 208 255
176 208 255
176 208 255
176 208 255
176 208 255
176 208 255
176 208 255
176 208 255
176 208 255
176 208 255
176 208 255
176 208 255
176 208 255
176 208 255
176 208 255
176 208 255
177 208 255
177 208 255
177 208 255
177 208 255
177 208 255
177 208 255
177 208 255
177 208 255
177 208 255
177 208 255
177 208 255
177 209 255
177 209 255
177 209 255
177 209 255
177 209 255
177 209 255
177 209 255
178 209 255
178 209 255
178 209 255
178 209 255
178 209 255
178 209 255
178 209 255
178 209 255
178 209 255
178 209 255
178 209 255
178 209 255
178 209 255
178 209 255
178 209 255
178 209 255
178 209 255
178 209 255
178 209 255
179 209 255
179 209 255
179 209 255
179 209 255
179 209 255
179 209 255
179 209 255
179 210 255
179 210 255
179 210 255
179 210 255
179 210 255
179 210 255
179 210 255
179 210 255
179 210 255
179 209 255
179 209 255
179 209 255
179 209 255
179 209 255
179 209 255
179 209 255
179 209 255
178 209 255
178 209 255
178 209 255
178 209 255
178 209 255
178 209 255
178 209 255
178 209 255
178 209 255
178 209 255
178 209 255
178 209 255
178 209 255
178 209 255
178 209 255
178 209 255
178 209 255
178 209 255
178 209 255
177 209 255
177 209 255
177 209 255
177 209 255
177 209 255
177 209 255
177 208 255
177 208 255
177 208 255
177 208 255
177 208 255
177 208 255
177 208 255
177 208 255
177 208 255
177 208 255
177 208 255
176 208 255
176 208 255
176 208 255
176 208 255
176 208 255
176 208 255
176 208 255
176 208 255
176 208 255
176 208 255
176 208 255
176 208 255
176 208 255
176 208 255
176 208 255
176 208 255
175 207 255
175 207 255
175 207 255
175 207 255
175 207 255
175 207 255
175 207 255
175 207 255
175 207 255
175 207 255
175 207 255
175 207 255
175 207 255
175 207 255
175 207 255
174 207 255
174 207 255
174 207 255
174 207 255
174 207 255
174 207 255
174 207 255
174 207 255
174 207 255
174 206 255
174 206 255
174 206 255
174 206 255
173 206 255
173 206 255
173 206 255
173 206 255
173 206 255
173 206 255
173 206 255
173 206 255
173 206 255
173 206 255
173 206 255
173 206 255
173 206 255
173 206 255
172 206 255
172 206 255
172 206 255
172 206 255
172 205 255
172 205 255
172 205 255
172 205 255
172 205 255
172 205 255
172 205 255
172 205 255
172 205 255
171 205 255
171 205 255
171 205 255
171 205 255
171 205 255
171 205 255
171 205 255
171 205 255
171 205 255
171 205 255
171 205 255
171 205 255
171 205 255
171 205 255
170 204 255
170 204 255
170 204 255
170 204 255
170 204 255
170 204 255
170 204 255
170 204 255
170 204 255
170 204 255
170 204 255
170 204 255
170 204 255
170 204 255
169 204 255
169 204 255
164 198 248
93 115 148
68 86 112
68 84 109
64 80 104
67 84 109
70 87 112
68 84 109
70 88 114
70 88 115
69 86 112
68 84 108
65 82 106
68 84 109
69 85 110
65 81 105
68 84 107
67 84 110
69 86 112
70 87 113
70 86 111
68 85 111
67 84 110
64 80 104
69 87 114
67 84 109
68 84 107
68 84 108
70 87 111
66 82 105
69 86 111
61 77 100
67 83 107
68 84 108
66 82 105
67 83 108
65 80 104
67 84 110
67 83 106
68 84 109
71 87 111
67 82 106
67 83 106
65 80 103
68 85 110
69 86 110
67 83 107
66 83 108
67 84 110
70 87 111
68 84 109
69 86 111
64 80 103
70 86 110
69 87 112
67 83 107
68 84 109
67 82 106
67 83 107
68 85 110
63 79 103
64 81 106
65 82 107
68 84 108
69 86 110
67 84 110
67 82 104
67 84 110
65 82 106
69 86 111
65 81 106
68 84 109
68 84 108
71 88 113
65 80 104
70 87 112
66 83 108
71 88 113
66 82 105
67 85 110
67 83 109
72 90 115
66 83 108
68 85 110
68 83 107
69 85 108
64 81 107
65 81 105
68 85 110
67 85 111
66 82 106
67 84 110
70 87 112
68 85 110
87 108 139
166 200 250
169 204 255
169 204 255
170 204 255
170 204 255
170 204 255
170 204 255
170 204 255
170 204 255
170 204 255
170 204 255
170 204 255
170 204 255
170 204 255
170 204 255
170 204 255
170 204 255
171 205 255
171 205 255
171 205 255
171 205 255
171 205 255
171 205 255
171 205 255
171 205 255
171 205 255
171 205 255
171 205 255
171 205 255
171 205 255
171 205 255
172 205 255
172 205 255
172 205 255
172 205 255
172 205 255
172 205 255
172 205 255
172 205 255
172 205 255
172 206 255
172 206 255
172 206 255
172 206 255
173 206 255
173 206 255
173 206 255
173 206 255
173 206 255
173 206 255
173 206 255
173 206 255
173 206 255
173 206 255
173 206 255
173 206 255
173 206 255
173 206 255
174 206 255
174 206 255
174 206 255
174 206 255
174 207 255
174 207 255
174 207 255
174 207 255
174 207 255
174 207 255
174 207 255
174 207 255
174 207 255
175 207 255
175 207 255
175 207 255
175 207 255
175 207 255
175 207 255
175 207 255
175 207 255
175 207 255
175 207 255
175 207 255
175 207 255
175 207 255
175 207 255
175 207 255
176 208 255
176 208 255
176 208 255
176 208 255
176 208 255
176 208 255
176 208 255
176 208 255
176 208 255
176 208 255
176 208 255
176 208 255
176 208 255
176 208 255
176 208 255
176 208 255
177 208 255
177 208 255
177 208 255
177 208 255
177 208 255
177 208 255
177 208 255
177 208 255
177 208 255
177 208 255
177 208 255
177 209 255
177 209 255
177 209 255
177 209 255
177 209 255
177 209 255
178 209 255
178 209 255
178 209 255
178 209 255
178 209 255
178 209 255
178 209 255
178 209 255
178 209 255
178 209 255
178 209 255
178 209 255
178 209 255
178 209 255
178 209 255
178 209 255
178 209 255
178 209 255
178 209 255
179 209 255
179 209 255
179 209 255
179 209 255
179 209 255
179 209 255
179 209 255
179 210 255
179 210 255
179 210 255
179 210 255
179 210 255
179 210 255
179 210 255
179 210 255
179 210 255
179 210 255
179 210 255
179 210 255
179 210 255
179 210 255
179 210 255
179 210 255
179 210 255
179 210 255
179 210 255
179 210 255
179 210 255
179 209 255
179 209 255
179 209 255
179 209 255
179 209 255
179 209 255
179 209 255
178 209 255
178 209 255
178 209 255
178 209 255
178 209 255
178 209 255
178 209 255
178 209 255
178 209 255
178 209 255
178 209 255
178 209 255
178 209 255
178 209 255
178 209 255
178 209 255
178 209 255
178 209 255
178 209 255
177 209 255
177 209 255
177 209 255
177 209 255
177 209 255
177 209 255
177 208 255
177 208 255
177 208 255
177 208 255
177 208 255
177 208 255
177 208 255
177 208 255
177 208 255
177 208 255
177 208 255
176 208 255
176 208 255
176 208 255
176 208 255
176 208 255
176 208 255
176 208 255
176 208 255
176 208 255
176 208 255
176 208 255
176 208 255
176 208 255
176 208 255
176 208 255
176 208 255
175 207 255
175 207 255
175 207 255
175 207 255
175 207 255
175 207 255
175 207 255
175 207 255
175 207 255
175 207 255
175 207 255
175 207 255
175 207 255
175 207 255
175 207 255
174 207 255
174 207 255
174 207 255
174 207 255
174 207 255
174 207 255
174 207 255
174 207 255
174 207 255
174 206 255
174 206 255
174 206 255
174 206 255
174 206 255
173 206 255
173 206 255
173 206 255
173 206 255
173 206 255
173 206 255
173 206 255
173 206 255
173 206 255
173 206 255
173 206 255
173 206 255
173 206 255
172 206 255
172 206 255
172 206 255
172 206 255
172 206 255
172 205 255
172 205 255
172 205 255
172 205 255
172 205 255
172 205 255
172 205 255
172 205 255
172 205 255
171 205 255
171 205 255
171 205 255
171 205 255
171 205 255
171 205 255
171 205 255
171 205 255
171 205 255
171 205 255
171 205 255
171 205 255
171 205 255
171 205 255
170 204 255
170 204 255
170 204 255
170 204 255
170 204 255
170 204 255
170 204 255
170 204 255
170 204 255
170 204 255
99 121 154
70 88 114
67 83 107
67 83 107
68 84 109
70 86 111
68 85 110
67 84 109
67 83 108
70 86 109
64 81 106
64 80 105
68 85 110
68 84 107
69 86 112
67 83 108
68 85 111
66 81 105
67 83 107
69 86 111
66 82 105
67 83 108
69 86 110
65 81 105
66 81 104
66 82 106
66 82 105
68 84 108
66 83 108
68 85 111
67 84 108
65 81 103
69 86 111
68 85 109
68 84 109
67 83 107
65 82 106
67 83 107
69 84 107
69 87 114
70 86 111
67 82 104
65 80 103
64 80 103
68 85 110
65 82 107
68 84 108
69 85 109
70 87 111
69 85 109
70 86 110
66 83 109
72 89 114
70 86 111
72 90 116
66 82 106
70 86 110
67 84 110
67 83 108
71 88 113
67 84 110
69 85 110
65 80 103
64 80 105
65 81 104
67 83 108
67 82 106
68 85 110
67 83 107
64 80 104
70 86 110
68 85 110
69 86 111
69 85 110
66 81 105
64 81 106
71 87 112
63 79 103
68 84 109
69 85 108
70 87 112
67 84 110
66 82 107
69 86 112
65 82 106
69 86 112
67 84 108
64 79 102
66 82 107
66 81 105
68 84 107
69 85 110
72 90 116
69 86 112
67 85 110
96 117 149
168 202 253
170 204 255
170 204 255
170 204 255
170 204 255
170 204 255
170 204 255
170 204 255
170 204 255
170 204 255
171 205 255
171 205 255
171 205 255
171 205 255
171 205 255
171 205 255
171 205 255
171 205 255
171 205 255
171 205 255
171 205 255
171 205 255
171 205 255
171 205 255
172 205 255
172 205 255
172 205 255
172 205 255
172 205 255
172 205 255
172 205 255
172 205 255
172 205 255
172 205 255
172 206 255
172 206 255
172 206 255
172 206 255
173 206 255
173 206 255
173 206 255
173 206 255
173 206 255
173 206 255
173 206 255
173 206 255
173 206 255
173 206 255
173 206 255
173 206 255
173 206 255
173 206 255
174 206 255
174 206 255
174 206 255
174 206 255
174 207 255
174 207 255
174 207 255
174 207 255
174 207 255
174 207 255
174 207 255
174 207 255
174 207 255
175 207 255
175 207 255
175 207 255
175 207 255
175 207 255
175 207 255
175 207 255
175 207 255
175 207 255
175 207 255
175 207 255
175 207 255
175 207 255
175 207 255
175 207 255
176 208 255
176 208 255
176 208 255
176 208 255
176 208 255
176 208 255
176 208 255
176 208 255
176 208 255
176 208 255
176 208 255
176 208 255
176 208 255
176 208 255
176 208 255
176 208 255
177 208 255
177 208 255
177 208 255
177 208 255
177 208 255
177 208 255
177 208 255
177 208 255
177 208 255
177 208 255
177 208 255
177 209 255
177 209 255
177 209 255
177 209 255
177 209 255
177 209 255
178 209 255
178 209 255
178 209 255
178 209 255
178 209 255
178 209 255
178 209 255
178 209 255
178 209 255
178 209 255
178 209 255
178 209 255
178 209 255
178 209 255
178 209 255
178 209 255
178 209 255
178 209 255
178 209 255
179 209 255
179 209 255
179 209 255
179 209 255
179 209 255
179 209 255
179 209 255
179 210 255
179 210 255
179 210 255
179 210 255
179 210 255
179 210 255
179 210 255
179 210 255
179 210 255
179 210 255
179 210 255
179 210 255
179 210 255
180 210 255
180 210 255
180 210 255
180 210 255
180 210 255
179 210 255
179 210 255
179 210 255
179 210 255
179 210 255
179 210 255
179 210 255
179 210 255
179 210 255
179 210 255
179 210 255
179 210 255
179 210 255
179 210 255
179 209 255
179 209 255
179 209 255
179 209 255
179 209 255
179 209 255
179 209 255
178 209 255
178 209 255
178 209 255
178 209 255
178 209 255
178 209 255
178 209 255
178 209 255
178 209 255
178 209 255
178 209 255
178 209 255
178 209 255
178 209 255
178 209 255
178 209 255
178 209 255
178 209 255
178 209 255
177 209 255
177 209 255
177 209 255
177 209 255
177 209 255
177 208 255
177 208 255
177 208 255
177 208 255
177 208 255
177 208 255
177 208 255
177 208 255
177 208 255
177 208 255
177 208 255
177 208 255
176 208 255
176 208 255
176 208 255
176 208 255
176 208 255
176 208 255
176 208 255
176 208 255
176 208 255
176 208 255
176 208 255
176 208 255
176 208 255
176 208 255
176 208 255
175 207 255
175 207 255
175 207 255
175 207 255
175 207 255
175 207 255
175 207 255
175 207 255
175 207 255
175 207 255
175 207 255
175 207 255
175 207 255
175 207 255
175 207 255
174 207 255
174 207 255
174 207 255
174 207 255
174 207 255
174 207 255
174 207 255
174 207 255
174 207 255
174 206 255
174 206 255
174 206 255
174 206 255
174 206 255
173 206 255
173 206 255
173 206 255
173 206 255
173 206 255
173 206 255
173 206 255
173 206 255
173 206 255
173 206 255
173 206 255
173 206 255
173 206 255
173 206 255
172 206 255
172 206 255
172 206 255
172 206 255
172 205 255
172 205 255
172 205 255
172 205 255
172 205 255
172 205 255
172 205 255
172 205 255
172 205 255
172 205 255
171 205 255
171 205 255
171 205 255
171 205 255
171 205 255
171 205 255
171 205 255
171 205 255
171 205 255
171 205 255
171 205 255
171 205 255
171 205 255
171 205 255
170 204 255
170 204 255
170 204 255
105 127 160
68 85 111
68 84 108
71 89 115
66 83 108
70 86 110
69 85 109
65 82 107
70 86 110
70 86 111
67 84 109
66 83 108
66 82 107
63 80 104
69 85 109
71 87 111
70 86 111
70 87 112
67 83 107
67 83 107
64 81 106
63 80 104
66 83 108
68 85 109
70 86 111
67 85 111
64 79 102
68 86 113
64 81 105
63 79 102
64 80 104
67 83 107
65 82 107
70 86 109
72 90 116
64 81 106
68 85 110
67 83 108
68 84 108
65 81 104
63 79 103
69 86 112
65 80 103
66 81 105
68 84 109
65 81 104
64 80 105
70 87 111
66 82 106
69 86 111
67 83 106
66 82 107
68 84 107
67 84 109
67 83 108
64 80 104
66 83 108
66 82 108
66 82 107
67 83 106
65 81 106
68 84 107
63 80 104
69 85 109
67 84 110
70 87 112
62 77 99
68 84 109
68 84 109
66 84 110
69 85 110
70 87 112
67 82 106
68 85 111
68 84 108
68 84 109
63 77 100
70 86 111
64 79 102
66 82 104
65 81 104
71 88 112
68 86 112
68 84 108
68 84 110
66 83 107
68 85 111
66 82 107
69 86 111
66 82 107
69 85 109
70 87 113
69 86 111
65 81 105
68 86 112
68 85 110
69 86 111
101 124 158
170 204 255
170 204 255
170 204 255
171 205 255
171 205 255
171 205 255
171 205 255
171 205 255
171 205 255
171 205 255
171 205 255
171 205 255
171 205 255
171 205 255
171 205 255
171 205 255
171 205 255
172 205 255
172 205 255
172 205 255
172 205 255
172 205 255
172 205 255
172 205 255
172 205 255
172 205 255
172 205 255
172 206 255
172 206 255
172 206 255
172 206 255
172 206 255
173 206 255
173 206 255
173 206 255
173 206 255
173 206 255
173 206 255
173 206 255
173 206 255
173 206 255
173 206 255
173 206 255
173 206 255
173 206 255
174 206 255
174 206 255
174 206 255
174 206 255
174 206 255
174 207 255
174 207 255
174 207 255
174 207 255
174 207 255
174 207 255
174 207 255
174 207 255
174 207 255
175 207 255
175 207 255
175 207 255
175 207 255
175 207 255
175 207 255
175 207 255
175 207 255
175 207 255
175 207 255
175 207 255
175 207 255
175 207 255
175 207 255
175 207 255
176 208 255
176 208 255
176 208 255
176 208 255
176 208 255
176 208 255
176 208 255
176 208 255
176 208 255
176 208 255
176 208 255
176 208 255
176 208 255
176 208 255
176 208 255
176 208 255
177 208 255
177 208 255
177 208 255
177 208 255
177 208 255
177 208 255
177 208 255
177 208 255
177 208 255
177 208 255
177 208 255
177 209 255
177 209 255
177 209 255
177 209 255
177 209 255
178 209 255
178 209 255
178 209 255
178 209 255
178 209 255
178 209 255
178 209 255
178 209 255
178 209 255
178 209 255
178 209 255
178 209 255
178 209 255
178 209 255
178 209 255
178 209 255
178 209 255
178 209 255
178 209 255
179 209 255
179 209 255
179 209 255
179 209 255
179 209 255
179 209 255
179 209 255
179 210 255
179 210 255
179 210 255
179 210 255
179 210 255
179 210 255
179 210 255
179 210 255
179 210 255
179 210 255
179 210 255
179 210 255
179 210 255
179 210 255
180 210 255
180 210 255
180 210 255
180 210 255
180 210 255
180 210 255
180 210 255
180 210 255
180 210 255
180 210 255
180 210 255
180 210 255
180 210 255
180 210 255
180 210 255
180 210 255
179 210 255
179 210 255
179 210 255
179 210 255
179 210 255
179 210 255
179 210 255
179 210 255
179 210 255
179 210 255
179 210 255
179 210 255
179 210 255
179 210 255
179 209 255
179 209 255
179 209 255
179 209 255
179 209 255
179 209 255
179 209 255
178 209 255
178 209 255
178 209 255
178 209 255
178 209 255
178 209 255
178 209 255
178 209 255
178 209 255
178 209 255
178 209 255
178 209 255
178 209 255
178 209 255
178 209 255
178 209 255
178 209 255
178 209 255
177 209 255
177 209 255
177 209 255
177 209 255
177 209 255
177 209 255
177 208 255
177 208 255
177 208 255
177 208 255
177 208 255
177 208 255
177 208 255
177 208 255
177 208 255
177 208 255
177 208 255
176 208 255
176 208 255
176 208 255
176 208 255
176 208 255
176 208 255
176 208 255
176 208 255
176 208 255
176 208 255
176 208 255
176 208 255
176 208 255
176 208 255
176 208 255
175 207 255
175 207 255
175 207 255
175 207 255
175 207 255
175 207 255
175 207 255
175 207 255
175 207 255
175 207 255
175 207 255
175 207 255
175 207 255
175 207 255
175 207 255
174 207 255
174 207 255
174 207 255
174 207 255
174 207 255
174 207 255
174 207 255
174 207 255
174 207 255
174 207 255
174 206 255
174 206 255
174 206 255
174 206 255
173 206 255
173 206 255
173 206 255
173 206 255
173 206 255
173 206 255
173 206 255
173 206 255
173 206 255
173 206 255
173 206 255
173 206 255
173 206 255
173 206 255
172 206 255
172 206 255
172 206 255
172 206 255
172 206 255
172 205 255
172 205 255
172 205 255
172 205 255
172 205 255
172 205 255
172 205 255
172 205 255
172 205 255
172 205 255
171 205 255
171 205 255
171 205 255
171 205 255
171 205 255
171 205 255
171 205 255
171 205 255
171 205 255
171 205 255
106 128 163
71 88 114
72 89 114
65 82 108
72 88 112
71 88 113
68 84 108
69 85 109
67 83 107
68 85 111
72 88 113
69 85 109
70 87 112
68 85 111
70 87 114
70 87 113
66 82 107
64 80 104
65 80 103
64 80 104
69 85 109
67 84 109
65 81 105
71 88 115
68 85 110
64 80 104
69 86 111
65 79 101
60 76 100
67 84 109
68 84 109
69 86 112
69 85 108
68 85 111
66 83 108
67 84 110
67 84 110
67 83 107
67 83 106
67 83 107
68 84 109
67 82 105
66 82 106
66 83 108
69 85 110
65 81 105
66 82 107
66 83 110
61 77 101
71 87 113
68 85 110
62 77 100
66 82 106
69 86 110
67 82 105
71 88 114
66 83 107
65 80 103
66 83 107
72 88 113
65 82 108
67 83 107
69 87 113
68 83 107
66 82 106
64 80 103
67 83 107
72 89 114
69 87 113
66 82 106
69 84 108
64 80 104
66 82 107
65 81 105
67 83 108
67 83 107
71 87 112
72 89 115
66 83 107
70 87 114
69 86 111
64 81 106
63 79 102
72 89 115
66 82 106
66 82 107
66 82 107
67 83 108
69 85 109
70 86 110
66 83 108
67 83 107
68 85 110
67 83 108
65 81 104
69 85 109
70 87 112
71 88 113
68 84 108
115 140 178
171 205 255
171 205 255
171 205 255
171 205 255
171 205 255
171 205 255
171 205 255
171 205 255
171 205 255
171 205 255
171 205 255
172 205 255
172 205 255
172 205 255
172 205 255
172 205 255
172 205 255
172 205 255
172 205 255
172 205 255
172 206 255
172 206 255
172 206 255
172 206 255
172 206 255
173 206 255
173 206 255
173 206 255
173 206 255
173 206 255
173 206 255
173 206 255
173 206 255
173 206 255
173 206 255
173 206 255
173 206 255
173 206 255
173 206 255
174 206 255
174 206 255
174 206 255
174 206 255
174 207 255
174 207 255
174 207 255
174 207 255
174 207 255
174 207 255
174 207 255
174 207 255
174 207 255
174 207 255
175 207 255
175 207 255
175 207 255
175 207 255
175 207 255
175 207 255
175 207 255
175 207 255
175 207 255
175 207 255
175 207 255
175 207 255
175 207 255
175 207 255
176 208 255
176 208 255
176 208 255
176 208 255
176 208 255
176 208 255
176 208 255
176 208 255
176 208 255
176 208 255
176 208 255
176 208 255
176 208 255
176 208 255
176 208 255
176 208 255
177 208 255
177 208 255
177 208 255
177 208 255
177 208 255
177 208 255
177 208 255
177 208 255
177 208 255
177 208 255
177 208 255
177 209 255
177 209 255
177 209 255
177 209 255
177 209 255
177 209 255
178 209 255
178 209 255
178 209 255
178 209 255
178 209 255
178 209 255
178 209 255
178 209 255
178 209 255
178 209 255
178 209 255
178 209 255
178 209 255
178 209 255
178 209 255
178 209 255
178 209 255
178 209 255
179 209 255
179 209 255
179 209 255
179 209 255
179 209 255
179 209 255
179 209 255
179 210 255
179 210 255
179 210 255
179 210 255
179 210 255
179 210 255
179 210 255
179 210 255
179 210 255
179 210 255
179 210 255
179 210 255
179 210 255
179 210 255
180 210 255
180 210 255
180 210 255
180 210 255
180 210 255
180 210 255
180 210 255
180 210 255
180 210 255
180 210 255
180 210 255
180 210 255
180 210 255
180 210 255
180 210 255
180 210 255
180 210 255
180 210 255
180 210 255
180 210 255
180 210 255
180 210 255
180 210 255
180 210 255
180 210 255
180 210 255
180 210 255
180 210 255
179 210 255
179 210 255
179 210 255
179 210 255
179 210 255
179 210 255
179 210 255
179 210 255
179 210 255
179 210 255
179 210 255
179 210 255
179 210 255
179 210 255
179 209 255
179 209 255
179 209 255
179 209 255
179 209 255
179 209 255
178 209 255
178 209 255
178 209 255
178 209 255
178 209 255
178 209 255
178 209 255
178 209 255
178 209 255
178 209 255
178 209 255
178 209 255
178 209 255
178 209 255
178 209 255
178 209 255
178 209 255
178 209 255
178 209 255
177 209 255
177 209 255
177 209 255
177 209 255
177 209 255
177 209 255
177 208 255
177 208 255
177 208 255
177 208 255
177 208 255
177 208 255
177 208 255
177 208 255
177 208 255
177 208 255
177 208 255
176 208 255
176 208 255
176 208 255
176 208 255
176 208 255
176 208 255
176 208 255
176 208 255
176 208 255
176 208 255
176 208 255
176 208 255
176 208 255
176 208 255
176 208 255
175 207 255
175 207 255
175 207 255
175 207 255
175 207 255
175 207 255
175 207 255
175 207 255
175 207 255
175 207 255
175 207 255
175 207 255
175 207 255
175 207 255
174 207 255
174 207 255
174 207 255
174 207 255
174 207 255
174 207 255
174 207 255
174 207 255
174 207 255
174 207 255
174 206 255
174 206 255
174 206 255
174 206 255
174 206 255
173 206 255
173 206 255
173 206 255
173 206 255
173 206 255
173 206 255
173 206 255
173 206 255
173 206 255
173 206 255
173 206 255
173 206 255
173 206 255
173 206 255
172 206 255
172 206 255
172 206 255
172 206 255
172 206 255
172 205 255
172 205 255
172 205 255
172 205 255
172 205 255
172 205 255
172 205 255
172 205 255
172 205 255
172 205 255
171 205 255
171 205 255
171 205 255
125 151 189
70 87 112
67 83 108
69 86 110
65 81 105
67 83 106
62 77 100
68 84 107
71 87 111
65 80 103
69 87 113
65 82 107
66 82 105
67 84 109
68 85 110
67 83 108
67 83 107
68 86 111
67 84 109
67 84 108
66 83 107
66 83 108
73 89 113
64 80 105
68 84 109
66 82 106
65 81 105
65 80 104
69 86 112
65 80 104
71 87 112
71 88 113
67 82 106
67 83 106
66 82 107
66 82 105
65 81 105
68 85 111
67 83 106
64 80 104
65 81 105
64 79 103
70 88 114
67 83 108
67 84 108
64 81 105
73 90 116
66 83 107
66 83 108
67 82 106
66 81 104
65 81 104
66 82 107
68 85 109
68 84 110
68 84 109
65 81 105
70 87 112
68 83 107
65 80 104
65 81 105
67 83 107
68 84 108
65 80 103
65 82 106
63 79 103
69 85 108
65 80 104
63 78 100
70 86 110
64 80 104
73 89 114
65 82 106
71 88 113
70 86 110
65 81 106
69 87 112
64 80 104
70 87 112
68 84 110
68 85 109
66 82 106
66 83 107
70 86 110
67 84 108
66 82 106
66 82 107
67 81 103
70 87 113
70 86 110
71 88 114
66 83 108
67 84 110
67 84 109
62 77 101
72 90 117
69 86 111
66 82 107
66 83 108
68 84 108
68 86 112
129 156 196
171 205 255
171 205 255
171 205 255
172 205 255
172 205 255
172 205 255
172 205 255
172 205 255
172 205 255
172 205 255
172 205 255
172 205 255
172 205 255
172 206 255
172 206 255
172 206 255
172 206 255
172 206 255
173 206 255
173 206 255
173 206 255
173 206 255
173 206 255
173 206 255
173 206 255
173 206 255
173 206 255
173 206 255
173 206 255
173 206 255
173 206 255
173 206 255
174 206 255
174 206 255
174 206 255
174 206 255
174 206 255
174 207 255
174 207 255
174 207 255
174 207 255
174 207 255
174 207 255
174 207 255
174 207 255
174 207 255
174 207 255
175 207 255
175 207 255
175 207 255
175 207 255
175 207 255
175 207 255
175 207 255
175 207 255
175 207 255
175 207 255
175 207 255
175 207 255
175 207 255
175 207 255
176 208 255
176 208 255
176 208 255
176 208 255
176 208 255
176 208 255
176 208 255
176 208 255
176 208 255
176 208 255
176 208 255
176 208 255
176 208 255
176 208 255
176 208 255
176 208 255
177 208 255
177 208 255
177 208 255
177 208 255
177 208 255
177 208 255
177 208 255
177 208 255
177 208 255
177 208 255
177 208 255
177 209 255
177 209 255
177 209 255
177 209 255
177 209 255
178 209 255
178 209 255
178 209 255
178 209 255
178 209 255
178 209 255
178 209 255
178 209 255
178 209 255
178 209 255
178 209 255
178 209 255
178 209 255
178 209 255
178 209 255
178 209 255
178 209 255
178 209 255
178 209 255
179 209 255
179 209 255
179 209 255
179 209 255
179 209 255
179 209 255
179 210 255
179 210 255
179 210 255
179 210 255
179 210 255
179 210 255
179 210 255
179 210 255
179 210 255
179 210 255
179 210 255
179 210 255
179 210 255
179 210 255
180 210 255
180 210 255
180 210 255
180 210 255
180 210 255
180 210 255
180 210 255
180 210 255
180 210 255
180 210 255
180 210 255
180 210 255
180 210 255
180 210 255
180 210 255
180 210 255
180 210 255
180 210 255
180 210 255
180 210 255
180 210 255
180 210 255
180 210 255
180 210 255
180 210 255
180 210 255
180 210 255
180 210 255
180 210 255
180 210 255
180 210 255
180 210 255
180 210 255
180 210 255
180 210 255
180 210 255
180 210 255
180 210 255
180 210 255
180 210 255
179 210 255
179 210 255
179 210 255
179 210 255
179 210 255
179 210 255
179 210 255
179 210 255
179 210 255
179 210 255
179 210 255
179 210 255
179 210 255
179 210 255
179 209 255
179 209 255
179 209 255
179 209 255
179 209 255
179 209 255
178 209 255
178 209 255
178 209 255
178 209 255
178 209 255
178 209 255
178 209 255
178 209 255
178 209 255
178 209 255
178 209 255
178 209 255
178 209 255
178 209 255
178 209 255
178 209 255
178 209 255
178 209 255
178 209 255
177 209 255
177 209 255
177 209 255
177 209 255
177 209 255
177 208 255
177 208 255
177 208 255
177 208 255
177 208 255
177 208 255
177 208 255
177 208 255
177 208 255
177 208 255
177 208 255
176 208 255
176 208 255
176 208 255
176 208 255
176 208 255
176 208 255
176 208 255
176 208 255
176 208 255
176 208 255
176 208 255
176 208 255
176 208 255
176 208 255
176 208 255
176 208 255
175 207 255
175 207 255
175 207 255
175 207 255
175 207 255
175 207 255
175 207 255
175 207 255
175 207 255
175 207 255
175 207 255
175 207 255
175 207 255
175 207 255
174 207 255
174 207 255
174 207 255
174 207 255
174 207 255
174 207 255
174 207 255
174 207 255
174 207 255
174 207 255
174 206 255
174 206 255
174 206 255
174 206 255
174 206 255
173 206 255
173 206 255
173 206 255
173 206 255
173 206 255
173 206 255
173 206 255
173 206 255
173 206 255
173 206 255
173 206 255
173 206 255
173 206 255
173 206 255
173 206 255
172 206 255
172 206 255
172 206 255
172 206 255
172 206 255
172 205 255
172 205 255
172 205 255
172 205 255
172 205 255
148 178 222
66 83 107
67 83 107
66 83 108
66 82 105
63 78 102
69 86 111
63 78 99
68 84 109
71 88 113
71 87 112
69 85 110
67 83 107
66 83 109
67 83 107
64 80 104
65 82 107
67 84 109
63 79 103
63 78 101
68 83 105
64 81 107
64 80 104
65 80 103
68 84 108
67 83 106
69 85 109
67 84 110
66 82 106
68 84 108
64 79 101
69 86 111
68 85 110
65 81 105
64 80 105
71 88 114
68 83 106
66 82 105
65 80 103
64 80 105
64 79 103
71 86 110
68 85 110
64 78 100
67 84 108
66 82 105
68 85 109
66 82 105
65 81 104
67 83 107
68 85 110
64 80 103
68 84 109
66 83 108
68 85 109
65 81 105
66 82 106
66 83 107
67 83 107
66 82 105
62 78 101
67 84 109
65 82 108
64 80 104
70 87 112
66 81 104
65 81 105
64 80 103
66 82 104
67 83 106
70 86 111
66 82 105
66 82 107
68 85 112
71 87 112
65 81 104
67 84 109
65 81 106
65 82 106
69 85 108
69 86 110
67 83 107
69 86 111
65 81 107
66 82 106
65 82 106
68 84 108
65 81 105
66 82 105
69 86 111
64 80 103
66 82 105
71 87 112
65 81 105
67 83 106
70 86 110
68 84 108
66 83 107
65 81 106
68 84 108
70 86 110
69 86 110
74 92 118
151 181 227
172 205 255
172 205 255
172 205 255
172 205 255
172 205 255
172 206 255
172 206 255
172 206 255
172 206 255
172 206 255
173 206 255
173 206 255
173 206 255
173 206 255
173 206 255
173 206 255
173 206 255
173 206 255
173 206 255
173 206 255
173 206 255
173 206 255
173 206 255
173 206 255
173 206 255
174 206 255
174 206 255
174 206 255
174 206 255
174 206 255
174 207 255
174 207 255
174 207 255
174 207 255
174 207 255
174 207 255
174 207 255
174 207 255
174 207 255
174 207 255
175 207 255
175 207 255
175 207 255
175 207 255
175 207 255
175 207 255
175 207 255
175 207 255
175 207 255
175 207 255
175 207 255
175 207 255
175 207 255
175 207 255
176 208 255
176 208 255
176 208 255
176 208 255
176 208 255
176 208 255
176 208 255
176 208 255
176 208 255
176 208 255
176 208 255
176 208 255
176 208 255
176 208 255
176 208 255
176 208 255
177 208 255
177 208 255
177 208 255
177 208 255
177 208 255
177 208 255
177 208 255
177 208 255
177 208 255
177 208 255
177 208 255
177 209 255
177 209 255
177 209 255
177 209 255
177 209 255
178 209 255
178 209 255
178 209 255
178 209 255
178 209 255
178 209 255
178 209 255
178 209 255
178 209 255
178 209 255
178 209 255
178 209 255
178 209 255
178 209 255
178 209 255
178 209 255
178 209 255
178 209 255
178 209 255
179 209 255
179 209 255
179 209 255
179 209 255
179 209 255
179 209 255
179 210 255
179 210 255
179 210 255
179 210 255
179 210 255
179 210 255
179 210 255
179 210 255
179 210 255
179 210 255
179 210 255
179 210 255
179 210 255
180 210 255
180 210 255
180 210 255
180 210 255
180 210 255
180 210 255
180 210 255
180 210 255
180 210 255
180 210 255
180 210 255
180 210 255
180 210 255
180 210 255
180 210 255
180 210 255
180 210 255
180 210 255
180 210 255
180 210 255
180 210 255
180 210 255
180 210 255
180 210 255
181 211 255
181 211 255
181 211 255
181 211 255
181 211 255
181 211 255
181 211 255
180 210 255
180 210 255
180 210 255
180 210 255
180 210 255
180 210 255
180 210 255
180 210 255
180 210 255
180 210 255
180 210 255
180 210 255
180 210 255
180 210 255
180 210 255
180 210 255
180 210 255
180 210 255
180 210 255
180 210 255
180 210 255
180 210 255
179 210 255
179 210 255
179 210 255
179 210 255
179 210 255
179 210 255
179 210 255
179 210 255
179 210 255
179 210 255
179 210 255
179 210 255
179 210 255
179 210 255
179 209 255
179 209 255
179 209 255
179 209 255
179 209 255
179 209 255
179 209 255
178 209 255
178 209 255
178 209 255
178 209 255
178 209 255
178 209 255
178 209 255
178 209 255
178 209 255
178 209 255
178 209 255
178 209 255
178 209 255
178 209 255
178 209 255
178 209 255
178 209 255
177 209 255
177 209 255
177 209 255
177 209 255
177 209 255
177 209 255
177 208 255
177 208 255
177 208 255
177 208 255
177 208 255
177 208 255
177 208 255
177 208 255
177 208 255
177 208 255
177 208 255
176 208 255
176 208 255
176 208 255
176 208 255
176 208 255
176 208 255
176 208 255
176 208 255
176 208 255
176 208 255
176 208 255
176 208 255
176 208 255
176 208 255
176 208 255
175 207 255
175 207 255
175 207 255
175 207 255
175 207 255
175 207 255
175 207 255
175 207 255
175 207 255
175 207 255
175 207 255
175 207 255
175 207 255
175 207 255
175 207 255
174 207 255
174 207 255
174 207 255
174 207 255
174 207 255
174 207 255
174 207 255
174 207 255
174 207 255
174 207 255
174 206 255
174 206 255
174 206 255
174 206 255
174 206 255
173 206 255
173 206 255
173 206 255
173 206 255
173 206 255
173 206 255
173 206 255
173 206 255
173 206 255
173 206 255
173 206 255
173 206 255
173 206 255
173 206 255
173 206 255
173 206 255
172 206 255
172 206 255
165 197 246
81 101 130
65 81 105
68 85 109
68 85 111
71 88 115
70 86 110
66 84 109
68 85 110
66 83 107
70 87 112
65 82 108
66 83 108
68 83 107
69 84 108
66 81 105
65 81 104
65 81 105
68 84 109
67 84 109
68 84 108
68 85 109
69 85 110
66 83 108
65 82 108
66 83 107
70 86 111
69 86 111
67 84 109
62 78 100
67 83 106
64 80 103
66 82 107
65 82 107
65 81 105
65 81 105
67 83 107
63 79 102
64 80 105
67 82 105
67 83 107
66 82 105
64 80 104
64 80 104
65 81 104
62 78 101
66 83 109
67 83 107
64 79 103
68 84 110
66 81 103
63 79 104
66 81 105
71 88 112
68 85 111
64 79 101
62 76 97
67 83 107
65 81 105
67 84 109
66 82 106
68 84 107
62 78 101
64 79 102
68 84 108
68 83 107
70 85 108
64 80 103
67 83 107
67 84 110
69 86 111
66 82 106
69 86 111
69 86 111
67 84 110
65 80 103
66 82 106
67 84 108
65 81 105
70 86 110
64 79 101
66 83 108
66 82 105
68 84 109
70 87 111
68 84 109
64 81 105
67 83 108
64 80 105
66 82 107
65 81 104
68 84 108
70 87 112
67 82 105
66 82 107
67 83 108
66 83 108
69 87 113
67 82 106
65 81 106
69 85 109
66 82 108
69 86 111
67 84 108
78 96 122
166 199 247
172 206 255
172 206 255
173 206 255
173 206 255
173 206 255
173 206 255
173 206 255
173 206 255
173 206 255
173 206 255
173 206 255
173 206 255
173 206 255
173 206 255
173 206 255
173 206 255
173 206 255
173 206 255
174 206 255
174 206 255
174 206 255
174 206 255
174 206 255
174 207 255
174 207 255
174 207 255
174 207 255
174 207 255
174 207 255
174 207 255
174 207 255
174 207 255
174 207 255
175 207 255
175 207 255
175 207 255
175 207 255
175 207 255
175 207 255
175 207 255
175 207 255
175 207 255
175 207 255
175 207 255
175 207 255
175 207 255
175 207 255
175 207 255
176 208 255
176 208 255
176 208 255
176 208 255
176 208 255
176 208 255
176 208 255
176 208 255
176 208 255
176 208 255
176 208 255
176 208 255
176 208 255
176 208 255
176 208 255
177 208 255
177 208 255
177 208 255
177 208 255
177 208 255
177 208 255
177 208 255
177 208 255
177 208 255
177 208 255
177 208 255
177 209 255
177 209 255
177 209 255
177 209 255
177 209 255
177 209 255
178 209 255
178 209 255
178 209 255
178 209 255
178 209 255
178 209 255
178 209 255
178 209 255
178 209 255
178 209 255
178 209 255
178 209 255
178 209 255
178 209 255
178 209 255
178 209 255
178 209 255
179 209 255
179 209 255
179 209 255
179 209 255
179 209 255
179 209 255
179 209 255
179 210 255
179 210 255
179 210 255
179 210 255
179 210 255
179 210 255
179 210 255
179 210 255
179 210 255
179 210 255
179 210 255
179 210 255
179 210 255
179 210 255
180 210 255
180 210 255
180 210 255
180 210 255
180 210 255
180 210 255
180 210 255
180 210 255
180 210 255
180 210 255
180 210 255
180 210 255
180 210 255
180 210 255
180 210 255
180 210 255
180 210 255
180 210 255
180 210 255
180 210 255
180 210 255
180 210 255
181 211 255
181 211 255
181 211 255
181 211 255
181 211 255
181 211 255
181 211 255
181 211 255
181 211 255
181 211 255
181 211 255
181 211 255
181 211 255
181 211 255
181 211 255
181 211 255
181 211 255
181 211 255
181 211 255
181 211 255
181 211 255
180 210 255
180 210 255
180 210 255
180 210 255
180 210 255
180 210 255
180 210 255
180 210 255
180 210 255
180 210 255
180 210 255
180 210 255
180 210 255
180 210 255
180 210 255
180 210 255
180 210 255
180 210 255
180 210 255
180 210 255
180 210 255
179 210 255
179 210 255
179 210 255
179 210 255
179 210 255
179 210 255
179 210 255
179 210 255
179 210 255
179 210 255
179 210 255
179 210 255
179 210 255
179 210 255
179 209 255
179 209 255
179 209 255
179 209 255
179 209 255
179 209 255
178 209 255
178 209 255
178 209 255
178 209 255
178 209 255
178 209 255
178 209 255
178 209 255
178 209 255
178 209 255
178 209 255
178 209 255
178 209 255
178 209 255
178 209 255
178 209 255
178 209 255
178 209 255
177 209 255
177 209 255
177 209 255
177 209 255
177 209 255
177 209 255
177 208 255
177 208 255
177 208 255
177 208 255
177 208 255
177 208 255
177 208 255
177 208 255
177 208 255
177 208 255
177 208 255
176 208 255
176 208 255
176 208 255
176 208 255
176 208 255
176 208 255
176 208 255
176 208 255
176 208 255
176 208 255
176 208 255
176 208 255
176 208 255
176 208 255
176 208 255
175 207 255
175 207 255
175 207 255
175 207 255
175 207 255
175 207 255
175 207 255
175 207 255
175 207 255
175 207 255
175 207 255
175 207 255
175 207 255
175 207 255
175 207 255
174 207 255
174 207 255
174 207 255
174 207 255
174 207 255
174 207 255
174 207 255
174 207 255
174 207 255
174 207 255
174 206 255
174 206 255
174 206 255
174 206 255
174 206 255
174 206 255
173 206 255
173 206 255
173 206 255
173 206 255
173 206 255
173 206 255
173 206 255
173 206 255
173 206 255
173 206 255
173 206 255
99 121 154
66 83 107
71 87 112
67 84 109
62 77 100
64 80 104
69 85 110
68 85 110
67 84 108
65 81 105
65 82 108
61 75 97
68 84 107
68 84 107
66 82 106
67 83 106
65 81 106
70 87 112
65 82 106
68 84 109
66 83 108
65 80 104
63 79 102
66 83 107
62 77 100
68 84 108
67 82 105
69 85 109
68 84 108
70 86 111
68 84 108
66 82 107
65 80 102
67 83 106
65 81 105
65 82 107
68 85 109
65 80 103
67 83 108
66 82 107
59 74 97
67 84 110
67 83 107
65 80 104
62 77 100
65 80 104
68 85 110
68 83 107
67 83 108
69 85 109
68 84 108
66 82 105
64 80 104
68 85 109
68 85 110
68 84 109
64 79 103
70 87 111
67 83 106
67 83 107
67 83 107
66 82 106
70 86 111
69 85 111
67 83 108
64 79 101
69 86 110
72 89 115
70 86 111
68 84 107
68 83 107
67 84 109
68 85 111
66 82 106
66 82 107
67 82 106
67 83 108
67 82 106
64 79 101
66 83 108
64 79 103
65 81 104
71 88 112
65 81 105
62 78 102
65 81 106
69 86 110
64 81 106
68 84 108
65 80 103
62 78 102
66 83 107
65 81 104
68 85 110
67 84 108
67 83 108
69 86 111
68 85 109
65 81 104
64 80 104
65 81 104
67 84 108
64 80 104
65 82 107
69 85 110
98 119 152
173 206 255
173 206 255
173 206 255
173 206 255
173 206 255
173 206 255
173 206 255
173 206 255
173 206 255
173 206 255
173 206 255
173 206 255
174 206 255
174 206 255
174 206 255
174 206 255
174 206 255
174 207 255
174 207 255
174 207 255
174 207 255
174 207 255
174 207 255
174 207 255
174 207 255
174 207 255
174 207 255
175 207 255
175 207 255
175 207 255
175 207 255
175 207 255
175 207 255
175 207 255
175 207 255
175 207 255
175 207 255
175 207 255
175 207 255
175 207 255
175 207 255
175 207 255
176 208 255
176 208 255
176 208 255
176 208 255
176 208 255
176 208 255
176 208 255
176 208 255
176 208 255
176 208 255
176 208 255
176 208 255
176 208 255
176 208 255
176 208 255
177 208 255
177 208 255
177 208 255
177 208 255
177 208 255
177 208 255
177 208 255
177 208 255
177 208 255
177 208 255
177 208 255
177 209 255
177 209 255
177 209 255
177 209 255
177 209 255
177 209 255
178 209 255
178 209 255
178 209 255
178 209 255
178 209 255
178 209 255
178 209 255
178 209 255
178 209 255
178 209 255
178 209 255
178 209 255
178 209 255
178 209 255
178 209 255
178 209 255
178 209 255
179 209 255
179 209 255
179 209 255
179 209 255
179 209 255
179 209 255
179 209 255
179 210 255
179 210 255
179 210 255
179 210 255
179 210 255
179 210 255
179 210 255
179 210 255
179 210 255
179 210 255
179 210 255
179 210 255
179 210 255
180 210 255
180 210 255
180 210 255
180 210 255
180 210 255
180 210 255
180 210 255
180 210 255
180 210 255
180 210 255
180 210 255
180 210 255
180 210 255
180 210 255
180 210 255
180 210 255
180 210 255
180 210 255
180 210 255
180 210 255
180 210 255
180 210 255
180 210 255
181 211 255
181 211 255
181 211 255
181 211 255
181 211 255
181 211 255
181 211 255
181 211 255
181 211 255
181 211 255
181 211 255
181 211 255
181 211 255
181 211 255
181 211 255
181 211 255
181 211 255
181 211 255
181 211 255
181 211 255
181 211 255
181 211 255
181 211 255
181 211 255
181 211 255
181 211 255
181 211 255
181 211 255
181 211 255
181 211 255
181 211 255
181 211 255
181 211 255
180 210 255
180 210 255
180 210 255
180 210 255
180 210 255
180 210 255
180 210 255
180 210 255
180 210 255
180 210 255
180 210 255
180 210 255
180 210 255
180 210 255
180 210 255
180 210 255
180 210 255
180 210 255
180 210 255
180 210 255
180 210 255
180 210 255
179 210 255
179 210 255
179 210 255
179 210 255
179 210 255
179 210 255
179 210 255
179 210 255
179 210 255
179 210 255
179 210 255
179 210 255
179 210 255
179 209 255
179 209 255
179 209 255
179 209 255
179 209 255
179 209 255
179 209 255
178 209 255
178 209 255
178 209 255
178 209 255
178 209 255
178 209 255
178 209 255
178 209 255
178 209 255
178 209 255
178 209 255
178 209 255
178 209 255
178 209 255
178 209 255
178 209 255
178 209 255
177 209 255
177 209 255
177 209 255
177 209 255
177 209 255
177 209 255
177 208 255
177 208 255
177 208 255
177 208 255
177 208 255
177 208 255
177 208 255
177 208 255
177 208 255
177 208 255
177 208 255
176 208 255
176 208 255
176 208 255
176 208 255
176 208 255
176 208 255
176 208 255
176 208 255
176 208 255
176 208 255
176 208 255
176 208 255
176 208 255
176 208 255
176 208 255
175 207 255
175 207 255
175 207 255
175 207 255
175 207 255
175 207 255
175 207 255
175 207 255
175 207 255
175 207 255
175 207 255
175 207 255
175 207 255
175 207 255
175 207 255
174 207 255
174 207 255
174 207 255
174 207 255
174 207 255
174 207 255
174 207 255
174 207 255
174 207 255
174 207 255
174 207 255
174 206 255
174 206 255
174 206 255
174 206 255
174 206 255
174 206 255
173 206 255
173 206 255
173 206 255
138 165 206
70 86 110
67 84 108
68 84 108
67 83 108
71 88 113
67 83 107
67 83 106
67 84 109
64 80 104
66 82 105
69 84 108
69 87 113
69 85 110
68 83 107
64 79 102
66 82 105
67 83 107
65 80 103
64 80 104
67 82 106
65 82 106
66 82 105
62 78 102
64 80 104
67 83 108
65 82 107
63 79 101
66 82 107
67 82 106
69 85 111
69 86 112
67 83 108
62 76 98
64 79 102
63 78 101
65 81 106
67 84 110
67 82 105
68 84 109
66 82 105
67 84 109
66 82 107
67 83 108
68 83 106
69 85 109
69 85 108
67 82 105
66 81 104
67 83 107
67 83 107
65 80 103
69 84 107
66 82 107
68 84 109
69 86 111
68 83 107
67 83 106
69 86 111
63 78 102
64 81 105
65 81 105
66 81 104
69 86 111
69 84 108
66 82 106
65 81 105
62 78 101
62 77 100
66 83 109
66 82 105
66 82 106
66 82 105
65 80 103
67 83 106
63 80 104
63 79 103
63 79 103
68 84 109
68 83 107
69 85 109
68 84 108
65 82 107
66 82 106
69 86 111
65 81 104
64 80 104
65 81 105
69 86 111
64 80 103
67 84 108
68 84 109
66 81 105
65 81 104
68 84 108
64 80 104
66 83 108
63 79 103
68 85 110
67 83 108
66 83 108
66 81 104
68 84 108
65 80 102
66 83 108
63 79 103
68 84 107
142 170 212
173 206 255
173 206 255
173 206 255
174 206 255
174 206 255
174 206 255
174 206 255
174 206 255
174 206 255
174 207 255
174 207 255
174 207 255
174 207 255
174 207 255
174 207 255
174 207 255
174 207 255
174 207 255
174 207 255
175 207 255
175 207 255
175 207 255
175 207 255
175 207 255
175 207 255
175 207 255
175 207 255
175 207 255
175 207 255
175 207 255
175 207 255
175 207 255
175 207 255
175 207 255
175 207 255
176 208 255
176 208 255
176 208 255
176 208 255
176 208 255
176 208 255
176 208 255
176 208 255
176 208 255
176 208 255
176 208 255
176 208 255
176 208 255
176 208 255
176 208 255
177 208 255
177 208 255
177 208 255
177 208 255
177 208 255
177 208 255
177 208 255
177 208 255
177 208 255
177 208 255
177 208 255
177 209 255
177 209 255
177 209 255
177 209 255
177 209 255
177 209 255
178 209 255
178 209 255
178 209 255
178 209 255
178 209 255
178 209 255
178 209 255
178 209 255
178 209 255
178 209 255
178 209 255
178 209 255
178 209 255
178 209 255
178 209 255
178 209 255
178 209 255
178 209 255
179 209 255
179 209 255
179 209 255
179 209 255
179 209 255
179 209 255
179 210 255
179 210 255
179 210 255
179 210 255
179 210 255
179 210 255
179 210 255
179 210 255
179 210 255
179 210 255
179 210 255
179 210 255
179 210 255
180 210 255
180 210 255
180 210 255
180 210 255
180 210 255
180 210 255
180 210 255
180 210 255
180 210 255
180 210 255
180 210 255
180 210 255
180 210 255
180 210 255
180 210 255
180 210 255
180 210 255
180 210 255
180 210 255
180 210 255
180 210 255
180 210 255
181 211 255
181 211 255
181 211 255
181 211 255
181 211 255
181 211 255
181 211 255
181 211 255
181 211 255
181 211 255
181 211 255
181 211 255
181 211 255
181 211 255
181 211 255
181 211 255
181 211 255
181 211 255
181 211 255
181 211 255
182 211 255
182 211 255
181 211 255
181 211 255
181 211 255
181 211 255
181 211 255
181 211 255
181 211 255
181 211 255
181 211 255
181 211 255
181 211 255
181 211 255
181 211 255
181 211 255
181 211 255
181 211 255
181 211 255
181 211 255
181 211 255
181 211 255
181 211 255
181 211 255
181 211 255
181 211 255
181 211 255
180 210 255
180 210 255
180 210 255
180 210 255
180 210 255
180 210 255
180 210 255
180 210 255
180 210 255
180 210 255
180 210 255
180 210 255
180 210 255
180 210 255
180 210 255
180 210 255
180 210 255
180 210 255
180 210 255
180 210 255
180 210 255
180 210 255
179 210 255
179 210 255
179 210 255
179 210 255
179 210 255
179 210 255
179 210 255
179 210 255
179 210 255
179 210 255
179 210 255
179 210 255
179 210 255
179 209 255
179 209 255
179 209 255
179 209 255
179 209 255
179 209 255
178 209 255
178 209 255
178 209 255
178 209 255
178 209 255
178 209 255
178 209 255
178 209 255
178 209 255
178 209 255
178 209 255
178 209 255
178 209 255
178 209 255
178 209 255
178 209 255
178 209 255
177 209 255
177 209 255
177 209 255
177 209 255
177 209 255
177 209 255
177 208 255
177 208 255
177 208 255
177 208 255
177 208 255
177 208 255
177 208 255
177 208 255
177 208 255
177 208 255
177 208 255
176 208 255
176 208 255
176 208 255
176 208 255
176 208 255
176 208 255
176 208 255
176 208 255
176 208 255
176 208 255
176 208 255
176 208 255
176 208 255
176 208 255
176 208 255
175 207 255
175 207 255
175 207 255
175 207 255
175 207 255
175 207 255
175 207 255
175 207 255
175 207 255
175 207 255
175 207 255
175 207 255
175 207 255
175 207 255
175 207 255
175 207 255
175 207 255
174 207 255
174 207 255
174 207 255
174 207 255
174 207 255
174 207 255
174 207 255
174 207 255
174 207 255
174 207 255
174 207 255
165 197 243
70 85 109
68 85 111
66 83 108
69 85 111
65 81 105
68 84 108
64 80 103
67 83 107
62 79 104
65 82 107
66 82 106
67 84 109
65 82 107
65 81 104
64 79 102
64 80 104
68 85 110
65 79 101
68 84 107
65 81 106
68 84 109
69 86 110
64 81 105
65 80 102
64 79 102
67 82 105
67 83 107
63 79 103
65 81 105
68 85 110
66 82 106
66 81 104
66 82 106
67 83 108
67 83 106
65 80 103
63 79 102
66 83 107
67 82 104
62 77 101
64 81 106
70 87 111
65 80 104
65 80 103
69 85 108
71 87 111
67 82 106
66 81 103
69 85 109
66 82 107
67 83 107
67 83 106
67 83 108
62 77 100
63 78 100
68 84 108
66 83 108
62 78 101
68 83 107
65 80 103
67 82 105
63 79 102
67 82 106
66 82 105
68 83 107
64 79 102
68 85 109
67 84 109
67 81 104
63 80 104
68 84 108
66 81 105
65 81 104
66 82 107
63 78 101
63 79 102
68 85 109
70 87 111
66 82 106
66 81 104
68 84 107
66 82 107
65 80 102
67 83 107
67 84 110
62 78 101
69 85 109
67 82 105
68 84 108
66 82 105
66 82 107
65 82 107
67 83 107
68 85 109
61 77 101
64 80 104
65 80 103
69 84 107
64 80 104
66 83 107
70 86 111
69 87 113
68 85 110
63 80 104
71 87 111
67 83 107
69 86 111
76 94 120
162 193 239
174 207 255
174 207 255
174 207 255
174 207 255
174 207 255
174 207 255
174 207 255
174 207 255
174 207 255
174 207 255
174 207 255
174 207 255
175 207 255
175 207 255
175 207 255
175 207 255
175 207 255
175 207 255
175 207 255
175 207 255
175 207 255
175 207 255
175 207 255
175 207 255
175 207 255
175 207 255
175 207 255
176 208 255
176 208 255
176 208 255
176 208 255
176 208 255
176 208 255
176 208 255
176 208 255
176 208 255
176 208 255
176 208 255
176 208 255
176 208 255
176 208 255
176 208 255
176 208 255
177 208 255
177 208 255
177 208 255
177 208 255
177 208 255
177 208 255
177 208 255
177 208 255
177 208 255
177 208 255
177 208 255
177 209 255
177 209 255
177 209 255
177 209 255
177 209 255
177 209 255
178 209 255
178 209 255
178 209 255
178 209 255
178 209 255
178 209 255
178 209 255
178 209 255
178 209 255
178 209 255
178 209 255
178 209 255
178 209 255
178 209 255
178 209 255
178 209 255
178 209 255
179 209 255
179 209 255
179 209 255
179 209 255
179 209 255
179 209 255
179 210 255
179 210 255
179 210 255
179 210 255
179 210 255
179 210 255
179 210 255
179 210 255
179 210 255
179 210 255
179 210 255
179 210 255
179 210 255
180 210 255
180 210 255
180 210 255
180 210 255
180 210 255
180 210 255
180 210 255
180 210 255
180 210 255
180 210 255
180 210 255
180 210 255
180 210 255
180 210 255
180 210 255
180 210 255
180 210 255
180 210 255
180 210 255
180 210 255
180 210 255
180 210 255
181 211 255
181 211 255
181 211 255
181 211 255
181 211 255
181 211 255
181 211 255
181 211 255
181 211 255
181 211 255
181 211 255
181 211 255
181 211 255
181 211 255
181 211 255
181 211 255
181 211 255
181 211 255
181 211 255
181 211 255
181 211 255
181 211 255
181 211 255
181 211 255
181 211 255
182 211 255
182 211 255
182 211 255
182 211 255
182 211 255
182 211 255
182 211 255
182 211 255
182 211 255
182 211 255
182 211 255
182 211 255
181 211 255
181 211 255
181 211 255
181 211 255
181 211 255
181 211 255
181 211 255
181 211 255
181 211 255
181 211 255
181 211 255
181 211 255
181 211 255
181 211 255
181 211 255
181 211 255
181 211 255
181 211 255
181 211 255
181 211 255
181 211 255
181 211 255
181 211 255
181 211 255
180 210 255
180 210 255
180 210 255
180 210 255
180 210 255
180 210 255
180 210 255
180 210 255
180 210 255
180 210 255
180 210 255
180 210 255
180 210 255
180 210 255
180 210 255
180 210 255
180 210 255
180 210 255
180 210 255
180 210 255
180 210 255
179 210 255
179 210 255
179 210 255
179 210 255
179 210 255
179 210 255
179 210 255
179 210 255
179 210 255
179 210 255
179 210 255
179 210 255
179 210 255
179 209 255
179 209 255
179 209 255
179 209 255
179 209 255
179 209 255
178 209 255
178 209 255
178 209 255
178 209 255
178 209 255
178 209 255
178 209 255
178 209 255
178 209 255
178 209 255
178 209 255
178 209 255
178 209 255
178 209 255
178 209 255
178 209 255
178 209 255
178 209 255
177 209 255
177 209 255
177 209 255
177 209 255
177 209 255
177 208 255
177 208 255
177 208 255
177 208 255
177 208 255
177 208 255
177 208 255
177 208 255
177 208 255
177 208 255
177 208 255
176 208 255
176 208 255
176 208 255
176 208 255
176 208 255
176 208 255
176 208 255
176 208 255
176 208 255
176 208 255
176 208 255
176 208 255
176 208 255
176 208 255
176 208 255
176 208 255
176 208 255
175 207 255
175 207 255
175 207 255
175 207 255
175 207 255
175 207 255
175 207 255
175 207 255
175 207 255
175 207 255
175 207 255
175 207 255
175 207 255
175 207 255
175 207 255
175 207 255
175 207 255
174 207 255
174 207 255
174 207 255
98 120 151
66 81 104
67 84 110
65 81 105
66 82 107
64 80 105
66 81 104
66 83 108
65 82 106
67 84 109
68 85 110
68 85 109
67 83 107
68 84 108
71 87 112
66 81 105
65 81 104
66 81 104
64 80 103
66 81 104
67 83 107
62 77 99
66 82 107
66 82 106
66 81 104
67 84 108
66 82 107
66 81 105
63 80 104
68 84 107
65 81 104
66 81 103
65 80 104
61 75 97
67 84 108
65 80 102
66 81 105
62 77 99
63 79 103
64 79 102
64 81 105
65 81 105
64 79 102
67 84 108
68 85 110
63 79 104
68 85 110
65 81 104
64 79 102
65 81 103
66 82 107
64 79 101
68 85 109
69 84 108
65 80 103
64 80 102
67 83 108
66 82 107
64 80 103
67 83 107
64 81 105
63 79 102
63 80 104
65 81 104
64 79 102
66 82 105
65 80 103
68 84 107
65 80 103
67 83 108
67 83 107
68 84 109
70 86 111
69 85 109
67 82 104
64 79 101
66 82 107
70 87 113
65 80 103
66 81 103
70 86 110
64 79 102
68 84 108
62 78 101
66 82 105
63 79 102
67 83 108
66 81 104
64 79 103
64 80 104
65 81 104
68 85 110
69 84 107
68 85 110
64 80 104
68 85 110
66 82 106
68 84 107
68 83 106
65 80 103
65 82 107
62 78 102
69 86 111
67 83 108
64 81 106
65 81 105
68 84 109
65 82 107
71 87 112
98 120 151
174 207 255
174 207 255
174 207 255
174 207 255
175 207 255
175 207 255
175 207 255
175 207 255
175 207 255
175 207 255
175 207 255
175 207 255
175 207 255
175 207 255
175 207 255
175 207 255
175 207 255
175 207 255
175 207 255
175 207 255
175 207 255
176 208 255
176 208 255
176 208 255
176 208 255
176 208 255
176 208 255
176 208 255
176 208 255
176 208 255
176 208 255
176 208 255
176 208 255
176 208 255
176 208 255
176 208 255
176 208 255
177 208 255
177 208 255
177 208 255
177 208 255
177 208 255
177 208 255
177 208 255
177 208 255
177 208 255
177 208 255
177 209 255
177 209 255
177 209 255
177 209 255
177 209 255
177 209 255
178 209 255
178 209 255
178 209 255
178 209 255
178 209 255
178 209 255
178 209 255
178 209 255
178 209 255
178 209 255
178 209 255
178 209 255
178 209 255
178 209 255
178 209 255
178 209 255
178 209 255
178 209 255
179 209 255
179 209 255
179 209 255
179 209 255
179 209 255
179 209 255
179 210 255
179 210 255
179 210 255
179 210 255
179 210 255
179 210 255
179 210 255
179 210 255
179 210 255
179 210 255
179 210 255
179 210 255
179 210 255
180 210 255
180 210 255
180 210 255
180 210 255
180 210 255
180 210 255
180 210 255
180 210 255
180 210 255
180 210 255
180 210 255
180 210 255
180 210 255
180 210 255
180 210 255
180 210 255
180 210 255
180 210 255
180 210 255
180 210 255
180 210 255
181 211 255
181 211 255
181 211 255
181 211 255
181 211 255
181 211 255
181 211 255
181 211 255
181 211 255
181 211 255
181 211 255
181 211 255
181 211 255
181 211 255
181 211 255
181 211 255
181 211 255
181 211 255
181 211 255
181 211 255
181 211 255
181 211 255
181 211 255
181 211 255
182 211 255
182 211 255
182 211 255
182 211 255
182 211 255
182 211 255
182 211 255
182 211 255
182 211 255
182 211 255
182 211 255
182 211 255
182 211 255
182 211 255
182 211 255
182 211 255
182 211 255
182 211 255
182 211 255
182 211 255
182 211 255
182 211 255
182 211 255
182 211 255
182 211 255
182 211 255
182 211 255
181 211 255
181 211 255
181 211 255
181 211 255
181 211 255
181 211 255
181 211 255
181 211 255
181 211 255
181 211 255
181 211 255
181 211 255
181 211 255
181 211 255
181 211 255
181 211 255
181 211 255
181 211 255
181 211 255
181 211 255
181 211 255
181 211 255
181 211 255
181 211 255
180 210 255
180 210 255
180 210 255
180 210 255
180 210 255
180 210 255
180 210 255
180 210 255
180 210 255
180 210 255
180 210 255
180 210 255
180 210 255
180 210 255
180 210 255
180 210 255
180 210 255
180 210 255
180 210 255
180 210 255
180 210 255
179 210 255
179 210 255
179 210 255
179 210 255
179 210 255
179 210 255
179 210 255
179 210 255
179 210 255
179 210 255
179 210 255
179 210 255
179 210 255
179 209 255
179 209 255
179 209 255
179 209 255
179 209 255
179 209 255
178 209 255
178 209 255
178 209 255
178 209 255
178 209 255
178 209 255
178 209 255
178 209 255
178 209 255
178 209 255
178 209 255
178 209 255
178 209 255
178 209 255
178 209 255
178 209 255
178 209 255
177 209 255
177 209 255
177 209 255
177 209 255
177 209 255
177 209 255
177 208 255
177 208 255
177 208 255
177 208 255
177 208 255
177 208 255
177 208 255
177 208 255
177 208 255
177 208 255
177 208 255
176 208 255
176 208 255
176 208 255
176 208 255
176 208 255
176 208 255
176 208 255
176 208 255
176 208 255
176 208 255
176 208 255
176 208 255
176 208 255
176 208 255
176 208 255
176 208 255
175 207 255
175 207 255
175 207 255
175 207 255
175 207 255
175 207 255
175 207 255
175 207 255
175 207 255
175 207 255
175 207 255
175 207 255
175 207 255
137 164 204
68 84 109
66 83 108
64 80 103
68 84 109
65 82 106
63 79 102
68 84 109
67 84 109
67 83 107
64 78 100
66 82 106
65 81 106
71 87 111
63 78 101
67 83 106
67 84 110
69 85 110
64 80 104
62 78 102
65 81 104
66 82 106
67 84 109
63 79 103
66 83 109
63 79 102
67 83 107
63 78 101
63 78 100
64 79 102
66 83 107
64 80 104
63 80 104
67 83 107
66 81 105
69 85 109
67 84 109
68 83 106
62 77 99
68 83 107
66 81 104
68 84 108
65 81 106
65 81 104
66 81 105
65 80 101
69 84 106
67 83 106
62 77 100
66 81 104
61 76 99
67 83 108
65 80 103
67 83 106
68 84 109
70 86 110
64 79 101
64 79 101
65 81 104
68 84 108
66 82 106
64 80 103
66 82 105
64 81 105
64 80 103
65 80 104
69 85 110
61 76 99
63 78 99
62 77 99
63 78 101
65 80 103
70 86 110
67 83 107
64 80 104
62 78 101
67 83 107
65 81 105
64 79 101
67 83 107
67 83 107
64 80 103
65 81 104
64 79 102
62 78 101
66 81 105
67 84 109
65 82 107
66 82 106
64 80 103
67 83 108
69 85 110
66 81 104
69 84 108
68 84 107
66 82 105
63 79 104
65 80 104
64 79 103
69 85 108
67 82 105
66 82 107
64 80 103
71 88 113
69 85 110
68 84 109
68 84 108
60 75 97
69 85 110
69 87 114
69 85 109
137 163 202
175 207 255
175 207 255
175 207 255
175 207 255
175 207 255
175 207 255
175 207 255
175 207 255
175 207 255
175 207 255
175 207 255
175 207 255
175 207 255
176 208 255
176 208 255
176 208 255
176 208 255
176 208 255
176 208 255
176 208 255
176 208 255
176 208 255
176 208 255
176 208 255
176 208 255
176 208 255
176 208 255
176 208 255
176 208 255
177 208 255
177 208 255
177 208 255
177 208 255
177 208 255
177 208 255
177 208 255
177 208 255
177 208 255
177 208 255
177 208 255
177 209 255
177 209 255
177 209 255
177 209 255
177 209 255
177 209 255
178 209 255
178 209 255
178 209 255
178 209 255
178 209 255
178 209 255
178 209 255
178 209 255
178 209 255
178 209 255
178 209 255
178 209 255
178 209 255
178 209 255
178 209 255
178 209 255
178 209 255
179 209 255
179 209 255
179 209 255
179 209 255
179 209 255
179 209 255
179 210 255
179 210 255
179 210 255
179 210 255
179 210 255
179 210 255
179 210 255
179 210 255
179 210 255
179 210 255
179 210 255
179 210 255
179 210 255
180 210 255
180 210 255
180 210 255
180 210 255
180 210 255
180 210 255
180 210 255
180 210 255
180 210 255
180 210 255
180 210 255
180 210 255
180 210 255
180 210 255
180 210 255
180 210 255
180 210 255
180 210 255
180 210 255
180 210 255
180 210 255
181 211 255
181 211 255
181 211 255
181 211 255
181 211 255
181 211 255
181 211 255
181 211 255
181 211 255
181 211 255
181 211 255
181 211 255
181 211 255
181 211 255
181 211 255
181 211 255
181 211 255
181 211 255
181 211 255
181 211 255
181 211 255
181 211 255
181 211 255
181 211 255
182 211 255
182 211 255
182 211 255
182 211 255
182 211 255
182 211 255
182 211 255
182 211 255
182 211 255
182 211 255
182 211 255
182 211 255
182 211 255
182 211 255
182 211 255
182 211 255
182 211 255
182 212 255
182 212 255
182 212 255
182 212 255
182 212 255
182 212 255
182 211 255
182 211 255
182 211 255
182 211 255
182 211 255
182 211 255
182 211 255
182 211 255
182 211 255
182 211 255
182 211 255
182 211 255
182 211 255
182 211 255
182 211 255
182 211 255
182 211 255
182 211 255
181 211 255
181 211 255
181 211 255
181 211 255
181 211 255
181 211 255
181 211 255
181 211 255
181 211 255
181 211 255
181 211 255
181 211 255
181 211 255
181 211 255
181 211 255
181 211 255
181 211 255
181 211 255
181 211 255
181 211 255
181 211 255
181 211 255
181 211 255
181 211 255
180 210 255
180 210 255
180 210 255
180 210 255
180 210 255
180 210 255
180 210 255
180 210 255
180 210 255
180 210 255
180 210 255
180 210 255
180 210 255
180 210 255
180 210 255
180 210 255
180 210 255
180 210 255
180 210 255
180 210 255
180 210 255
179 210 255
179 210 255
179 210 255
179 210 255
179 210 255
179 210 255
179 210 255
179 210 255
179 210 255
179 210 255
179 210 255
179 210 255
179 209 255
179 209 255
179 209 255
179 209 255
179 209 255
179 209 255
178 209 255
178 209 255
178 209 255
178 209 255
178 209 255
178 209 255
178 209 255
178 209 255
178 209 255
178 209 255
178 209 255
178 209 255
178 209 255
178 209 255
178 209 255
178 209 255
178 209 255
178 209 255
177 209 255
177 209 255
177 209 255
177 209 255
177 209 255
177 208 255
177 208 255
177 208 255
177 208 255
177 208 255
177 208 255
177 208 255
177 208 255
177 208 255
177 208 255
177 208 255
177 208 255
176 208 255
176 208 255
176 208 255
176 208 255
176 208 255
176 208 255
176 208 255
176 208 255
176 208 255
176 208 255
176 208 255
176 208 255
176 208 255
176 208 255
176 208 255
176 208 255
176 208 255
175 207 255
175 207 255
175 207 255
175 207 255
167 199 245
74 92 120
67 83 107
68 84 108
68 83 107
70 87 112
67 83 107
66 81 104
66 82 105
65 81 105
70 86 110
65 82 107
66 83 109
67 83 107
64 78 100
68 85 109
65 81 105
69 85 108
61 76 99
68 84 108
63 79 102
64 79 103
67 84 108
64 80 103
64 80 104
67 83 107
64 80 104
63 79 102
63 79 102
67 83 107
66 81 103
62 78 102
67 83 108
62 77 101
64 80 104
68 84 109
66 82 106
66 81 105
63 78 100
67 83 107
66 82 107
67 82 105
62 77 100
67 83 108
60 76 99
66 81 104
67 84 110
64 81 105
69 85 110
68 84 108
65 81 104
68 85 110
65 82 107
64 79 101
68 84 107
63 78 100
66 81 105
65 80 103
65 80 103
65 81 105
64 80 104
64 80 103
63 78 102
67 83 107
66 83 107
66 81 104
67 82 105
68 84 108
68 84 109
74 91 117
66 81 105
61 76 98
64 80 103
65 81 104
61 76 99
65 80 103
65 81 105
66 83 108
67 84 109
65 81 105
64 80 104
67 82 104
62 77 99
64 79 102
66 81 104
64 80 103
67 82 105
67 83 107
67 82 106
64 79 102
65 81 106
67 82 106
65 81 104
65 81 104
67 83 106
62 77 99
71 87 111
64 79 102
69 85 109
65 82 106
64 80 104
66 82 106
69 86 111
67 84 109
67 83 108
62 77 99
64 80 104
63 78 100
67 83 107
68 84 109
71 88 112
67 83 107
82 100 127
170 202 248
175 207 255
175 207 255
175 207 255
175 207 255
176 208 255
176 208 255
176 208 255
176 208 255
176 208 255
176 208 255
176 208 255
176 208 255
176 208 255
176 208 255
176 208 255
176 208 255
176 208 255
176 208 255
176 208 255
176 208 255
176 208 255
177 208 255
177 208 255
177 208 255
177 208 255
177 208 255
177 208 255
177 208 255
177 208 255
177 208 255
177 208 255
177 208 255
177 209 255
177 209 255
177 209 255
177 209 255
177 209 255
177 209 255
178 209 255
178 209 255
178 209 255
178 209 255
178 209 255
178 209 255
178 209 255
178 209 255
178 209 255
178 209 255
178 209 255
178 209 255
178 209 255
178 209 255
178 209 255
178 209 255
178 209 255
179 209 255
179 209 255
179 209 255
179 209 255
179 209 255
179 209 255
179 209 255
179 210 255
179 210 255
179 210 255
179 210 255
179 210 255
179 210 255
179 210 255
179 210 255
179 210 255
179 210 255
179 210 255
179 210 255
180 210 255
180 210 255
180 210 255
180 210 255
180 210 255
180 210 255
180 210 255
180 210 255
180 210 255
180 210 255
180 210 255
180 210 255
180 210 255
180 210 255
180 210 255
180 210 255
180 210 255
180 210 255
180 210 255
180 210 255
180 210 255
181 211 255
181 211 255
181 211 255
181 211 255
181 211 255
181 211 255
181 211 255
181 211 255
181 211 255
181 211 255
181 211 255
181 211 255
181 211 255
181 211 255
181 211 255
181 211 255
181 211 255
181 211 255
181 211 255
181 211 255
181 211 255
181 211 255
181 211 255
182 211 255
182 211 255
182 211 255
182 211 255
182 211 255
182 211 255
182 211 255
182 211 255
182 211 255
182 211 255
182 211 255
182 211 255
182 211 255
182 211 255
182 211 255
182 211 255
182 211 255
182 211 255
182 211 255
182 212 255
182 212 255
182 212 255
182 212 255
182 212 255
182 212 255
183 212 255
183 212 255
183 212 255
183 212 255
183 212 255
182 212 255
182 212 255
182 212 255
182 212 255
182 212 255
182 212 255
182 212 255
182 212 255
182 212 255
182 211 255
182 211 255
182 211 255
182 211 255
182 211 255
182 211 255
182 211 255
182 211 255
182 211 255
182 211 255
182 211 255
182 211 255
182 211 255
182 211 255
182 211 255
182 211 255
182 211 255
182 211 255
181 211 255
181 211 255
181 211 255
181 211 255
181 211 255
181 211 255
181 211 255
181 211 255
181 211 255
181 211 255
181 211 255
181 211 255
181 211 255
181 211 255
181 211 255
181 211 255
181 211 255
181 211 255
181 211 255
181 211 255
181 211 255
181 211 255
181 211 255
180 210 255
180 210 255
180 210 255
180 210 255
180 210 255
180 210 255
180 210 255
180 210 255
180 210 255
180 210 255
180 210 255
180 210 255
180 210 255
180 210 255
180 210 255
180 210 255
180 210 255
180 210 255
180 210 255
180 210 255
179 210 255
179 210 255
179 210 255
179 210 255
179 210 255
179 210 255
179 210 255
179 210 255
179 210 255
179 210 255
179 210 255
179 210 255
179 210 255
179 209 255
179 209 255
179 209 255
179 209 255
179 209 255
179 209 255
178 209 255
178 209 255
178 209 255
178 209 255
178 209 255
178 209 255
178 209 255
178 209 255
178 209 255
178 209 255
178 209 255
178 209 255
178 209 255
178 209 255
178 209 255
178 209 255
178 209 255
178 209 255
177 209 255
177 209 255
177 209 255
177 209 255
177 209 255
177 209 255
177 208 255
177 208 255
177 208 255
177 208 255
177 208 255
177 208 255
177 208 255
177 208 255
177 208 255
177 208 255
177 208 255
177 208 255
176 208 255
176 208 255
176 208 255
176 208 255
176 208 255
176 208 255
176 208 255
176 208 255
176 208 255
176 208 255
176 208 255
176 208 255
176 208 255
111 134 167
68 85 111
68 84 108
65 81 105
67 83 107
66 82 106
67 84 109
63 79 102
62 77 100
64 79 103
69 86 111
70 86 111
68 84 107
63 79 104
66 82 107
66 81 104
64 80 104
68 84 108
65 80 102
65 81 105
63 78 100
64 79 101
64 80 103
67 83 106
68 84 108
73 89 114
66 81 103
64 80 104
67 84 109
63 79 103
63 79 102
66 82 106
63 78 101
63 79 103
69 85 110
67 83 106
68 84 107
67 83 107
66 82 107
68 84 108
68 85 112
68 85 110
68 84 108
66 81 104
65 80 103
66 82 105
70 86 110
66 82 105
65 81 104
64 79 103
63 78 100
67 83 107
69 85 109
68 84 109
69 85 108
62 77 100
64 79 103
65 81 105
67 83 107
65 80 103
67 83 107
65 80 103
64 79 102
66 82 107
64 80 104
68 83 107
62 77 98
64 79 102
66 83 108
70 86 110
63 79 103
69 85 110
65 81 103
68 84 107
68 85 109
66 81 103
65 80 104
68 83 107
66 81 104
66 82 105
67 82 105
71 89 115
61 76 99
64 79 102
69 85 108
65 80 104
68 84 108
61 77 100
65 81 106
66 82 105
68 84 108
61 77 99
64 80 103
66 82 107
64 80 104
67 83 107
70 87 112
65 81 105
67 83 106
68 83 107
67 82 105
68 85 110
69 85 110
67 83 106
64 80 103
70 86 111
69 85 110
68 84 107
67 83 107
67 83 107
67 83 109
66 82 106
66 82 106
120 144 180
176 208 255
176 208 255
176 208 255
176 208 255
176 208 255
176 208 255
176 208 255
176 208 255
176 208 255
176 208 255
176 208 255
176 208 255
176 208 255
177 208 255
177 208 255
177 208 255
177 208 255
177 208 255
177 208 255
177 208 255
177 208 255
177 208 255
177 208 255
177 208 255
177 208 255
177 209 255
177 209 255
177 209 255
177 209 255
177 209 255
177 209 255
178 209 255
178 209 255
178 209 255
178 209 255
178 209 255
178 209 255
178 209 255
178 209 255
178 209 255
178 209 255
178 209 255
178 209 255
178 209 255
178 209 255
178 209 255
178 209 255
178 209 255
179 209 255
179 209 255
179 209 255
179 209 255
179 209 255
179 209 255
179 209 255
179 210 255
179 210 255
179 210 255
179 210 255
179 210 255
179 210 255
179 210 255
179 210 255
179 210 255
179 210 255
179 210 255
179 210 255
180 210 255
180 210 255
180 210 255
180 210 255
180 210 255
180 210 255
180 210 255
180 210 255
180 210 255
180 210 255
180 210 255
180 210 255
180 210 255
180 210 255
180 210 255
180 210 255
180 210 255
180 210 255
180 210 255
180 210 255
180 210 255
181 211 255
181 211 255
181 211 255
181 211 255
181 211 255
181 211 255
181 211 255
181 211 255
181 211 255
181 211 255
181 211 255
181 211 255
181 211 255
181 211 255
181 211 255
181 211 255
181 211 255
181 211 255
181 211 255
181 211 255
181 211 255
181 211 255
181 211 255
182 211 255
182 211 255
182 211 255
182 211 255
182 211 255
182 211 255
182 211 255
182 211 255
182 211 255
182 211 255
182 211 255
182 211 255
182 211 255
182 211 255
182 211 255
182 211 255
182 211 255
182 211 255
182 212 255
182 212 255
182 212 255
182 212 255
182 212 255
182 212 255
182 212 255
182 212 255
182 212 255
183 212 255
183 212 255
183 212 255
183 212 255
183 212 255
183 212 255
183 212 255
183 212 255
183 212 255
183 212 255
183 212 255
183 212 255
183 212 255
183 212 255
183 212 255
183 212 255
183 212 255
183 212 255
182 212 255
182 212 255
182 212 255
182 212 255
182 212 255
182 212 255
182 212 255
182 212 255
182 212 255
182 211 255
182 211 255
182 211 255
182 211 255
182 211 255
182 211 255
182 211 255
182 211 255
182 211 255
182 211 255
182 211 255
182 211 255
182 211 255
182 211 255
182 211 255
182 211 255
182 211 255
182 211 255
181 211 255
181 211 255
181 211 255
181 211 255
181 211 255
181 211 255
181 211 255
181 211 255
181 211 255
181 211 255
181 211 255
181 211 255
181 211 255
181 211 255
181 211 255
181 211 255
181 211 255
181 211 255
181 211 255
181 211 255
181 211 255
181 211 255
180 210 255
180 210 255
180 210 255
180 210 255
180 210 255
180 210 255
180 210 255
180 210 255
180 210 255
180 210 255
180 210 255
180 210 255
180 210 255
180 210 255
180 210 255
180 210 255
180 210 255
180 210 255
180 210 255
180 210 255
180 210 255
179 210 255
179 210 255
179 210 255
179 210 255
179 210 255
179 210 255
179 210 255
179 210 255
179 210 255
179 210 255
179 210 255
179 210 255
179 210 255
179 209 255
179 209 255
179 209 255
179 209 255
179 209 255
179 209 255
178 209 255
178 209 255
178 209 255
178 209 255
178 209 255
178 209 255
178 209 255
178 209 255
178 209 255
178 209 255
178 209 255
178 209 255
178 209 255
178 209 255
178 209 255
178 209 255
178 209 255
178 209 255
177 209 255
177 209 255
177 209 255
177 209 255
177 209 255
177 209 255
177 208 255
177 208 255
177 208 255
177 208 255
177 208 255
177 208 255
177 208 255
177 208 255
177 208 255
177 208 255
177 208 255
177 208 255
176 208 255
176 208 255
176 208 255
176 208 255
160 189 232
72 89 115
64 80 103
64 80 104
67 83 105
70 86 111
67 82 105
64 80 104
67 84 109
66 82 106
62 78 102
63 79 103
68 84 108
67 83 107
66 82 105
65 81 104
63 78 99
69 85 108
67 83 108
68 85 109
65 81 104
65 80 103
63 79 103
67 83 105
68 84 107
60 76 99
62 77 99
65 81 105
62 77 99
67 84 109
67 83 108
64 80 104
65 81 104
67 83 106
66 82 106
65 80 103
63 79 102
66 82 105
66 82 105
67 83 107
64 79 102
66 81 105
62 77 100
68 84 107
62 77 99
68 84 107
62 77 100
65 81 103
66 82 107
61 76 99
67 82 105
64 80 103
66 82 106
65 81 104
63 79 103
64 80 103
67 82 106
62 77 100
63 78 102
65 81 104
68 84 108
66 81 104
65 80 104
63 77 99
67 83 108
68 85 110
65 81 105
61 76 98
67 83 108
64 79 101
66 82 106
64 80 103
64 81 105
68 84 107
63 78 101
65 80 102
67 82 105
65 81 105
62 77 100
60 75 98
66 81 104
66 82 105
67 83 108
64 80 103
67 83 107
66 81 104
68 84 109
66 81 105
66 82 106
69 85 110
65 79 101
67 82 106
65 81 105
67 83 107
63 78 100
65 80 103
69 85 109
67 83 107
68 85 110
62 78 100
67 83 106
65 80 104
68 83 107
60 76 100
64 80 103
69 85 109
66 82 106
68 84 109
63 79 102
69 86 110
69 85 110
65 81 105
69 86 111
65 81 105
72 89 115
165 195 241
176 208 255
176 208 255
176 208 255
176 208 255
177 208 255
177 208 255
177 208 255
177 208 255
177 208 255
177 208 255
177 208 255
177 208 255
177 208 255
177 208 255
177 208 255
177 208 255
177 209 255
177 209 255
177 209 255
177 209 255
177 209 255
177 209 255
178 209 255
178 209 255
178 209 255
178 209 255
178 209 255
178 209 255
178 209 255
178 209 255
178 209 255
178 209 255
178 209 255
178 209 255
178 209 255
178 209 255
178 209 255
178 209 255
178 209 255
178 209 255
179 209 255
179 209 255
179 209 255
179 209 255
179 209 255
179 209 255
179 209 255
179 210 255
179 210 255
179 210 255
179 210 255
179 210 255
179 210 255
179 210 255
179 210 255
179 210 255
179 210 255
179 210 255
179 210 255
180 210 255
180 210 255
180 210 255
180 210 255
180 210 255
180 210 255
180 210 255
180 210 255
180 210 255
180 210 255
180 210 255
180 210 255
180 210 255
180 210 255
180 210 255
180 210 255
180 210 255
180 210 255
180 210 255
180 210 255
180 210 255
181 211 255
181 211 255
181 211 255
181 211 255
181 211 255
181 211 255
181 211 255
181 211 255
181 211 255
181 211 255
181 211 255
181 211 255
181 211 255
181 211 255
181 211 255
181 211 255
181 211 255
181 211 255
181 211 255
181 211 255
181 211 255
181 211 255
182 211 255
182 211 255
182 211 255
182 211 255
182 211 255
182 211 255
182 211 255
182 211 255
182 211 255
182 211 255
182 211 255
182 211 255
182 211 255
182 211 255
182 211 255
182 211 255
182 211 255
182 212 255
182 212 255
182 212 255
182 212 255
182 212 255
182 212 255
182 212 255
182 212 255
182 212 255
182 212 255
183 212 255
183 212 255
183 212 255
183 212 255
183 212 255
183 212 255
183 212 255
183 212 255
183 212 255
183 212 255
183 212 255
183 212 255
183 212 255
183 212 255
183 212 255
183 212 255
183 212 255
183 212 255
183 212 255
183 212 255
183 212 255
183 212 255
183 212 255
183 212 255
183 212 255
183 212 255
183 212 255
183 212 255
183 212 255
183 212 255
183 212 255
183 212 255
183 212 255
183 212 255
182 212 255
182 212 255
182 212 255
182 212 255
182 212 255
182 212 255
182 212 255
182 212 255
182 212 255
182 212 255
182 211 255
182 211 255
182 211 255
182 211 255
182 211 255
182 211 255
182 211 255
182 211 255
182 211 255
182 211 255
182 211 255
182 211 255
182 211 255
182 211 255
182 211 255
182 211 255
181 211 255
181 211 255
181 211 255
181 211 255
181 211 255
181 211 255
181 211 255
181 211 255
181 211 255
181 211 255
181 211 255
181 211 255
181 211 255
181 211 255
181 211 255
181 211 255
181 211 255
181 211 255
181 211 255
181 211 255
181 211 255
181 211 255
181 211 255
180 210 255
180 210 255
180 210 255
180 210 255
180 210 255
180 210 255
180 210 255
180 210 255
180 210 255
180 210 255
180 210 255
180 210 255
180 210 255
180 210 255
180 210 255
180 210 255
180 210 255
180 210 255
180 210 255
180 210 255
179 210 255
179 210 255
179 210 255
179 210 255
179 210 255
179 210 255
179 210 255
179 210 255
179 210 255
179 210 255
179 210 255
179 210 255
179 210 255
179 209 255
179 209 255
179 209 255
179 209 255
179 209 255
179 209 255
179 209 255
178 209 255
178 209 255
178 209 255
178 209 255
178 209 255
178 209 255
178 209 255
178 209 255
178 209 255
178 209 255
178 209 255
178 209 255
178 209 255
178 209 255
178 209 255
178 209 255
178 209 255
177 209 255
177 209 255
177 209 255
177 209 255
177 209 255
177 209 255
177 209 255
177 208 255
177 208 255
177 208 255
177 208 255
177 208 255
177 208 255
177 208 255
177 208 255
109 132 165
63 78 102
63 78 101
64 79 102
67 83 108
69 86 110
68 83 107
64 80 104
66 83 108
65 80 104
64 81 105
61 77 100
65 82 106
62 76 98
70 87 113
70 86 110
67 82 105
64 79 102
66 82 107
65 79 100
69 85 109
67 83 107
61 77 100
68 84 107
64 80 104
67 83 108
64 80 103
64 81 106
64 80 105
65 81 104
68 84 107
67 83 106
67 83 107
66 82 106
66 82 105
64 80 103
66 82 105
63 78 101
64 79 102
64 80 103
64 78 100
65 80 102
67 82 106
64 79 102
69 85 109
66 83 109
60 76 99
64 80 103
67 84 108
66 81 103
66 82 107
70 86 110
64 80 104
67 83 107
68 85 109
63 78 102
61 75 96
67 83 106
67 83 107
69 84 106
66 82 106
70 86 110
66 82 106
64 79 101
63 78 101
61 76 99
69 85 110
65 80 104
67 83 107
63 79 101
64 80 104
62 77 99
64 79 102
68 84 109
65 81 105
67 82 104
66 82 107
66 82 107
66 80 102
63 78 101
67 82 105
66 82 106
65 81 105
65 80 102
61 76 99
67 83 108
68 84 108
66 82 106
64 78 100
66 82 105
64 80 104
64 79 103
64 80 103
67 83 106
68 84 107
70 86 110
66 83 107
66 83 108
64 81 106
65 81 105
67 83 108
67 83 107
68 84 108
64 79 103
65 81 105
66 82 105
66 81 103
66 83 107
67 83 106
69 86 111
68 84 108
65 80 102
67 82 104
70 86 110
65 79 101
112 135 168
177 208 255
177 208 255
177 208 255
177 208 255
177 208 255
177 208 255
177 208 255
177 208 255
177 209 255
177 209 255
177 209 255
177 209 255
177 209 255
177 209 255
178 209 255
178 209 255
178 209 255
178 209 255
178 209 255
178 209 255
178 209 255
178 209 255
178 209 255
178 209 255
178 209 255
178 209 255
178 209 255
178 209 255
178 209 255
178 209 255
178 209 255
178 209 255
178 209 255
179 209 255
179 209 255
179 209 255
179 209 255
179 209 255
179 209 255
179 210 255
179 210 255
179 210 255
179 210 255
179 210 255
179 210 255
179 210 255
179 210 255
179 210 255
179 210 255
179 210 255
179 210 255
179 210 255
180 210 255
180 210 255
180 210 255
180 210 255
180 210 255
180 210 255
180 210 255
180 210 255
180 210 255
180 210 255
180 210 255
180 210 255
180 210 255
180 210 255
180 210 255
180 210 255
180 210 255
180 210 255
180 210 255
180 210 255
181 211 255
181 211 255
181 211 255
181 211 255
181 211 255
181 211 255
181 211 255
181 211 255
181 211 255
181 211 255
181 211 255
181 211 255
181 211 255
181 211 255
181 211 255
181 211 255
181 211 255
181 211 255
181 211 255
181 211 255
181 211 255
181 211 255
181 211 255
182 211 255
182 211 255
182 211 255
182 211 255
182 211 255
182 211 255
182 211 255
182 211 255
182 211 255
182 211 255
182 211 255
182 211 255
182 211 255
182 211 255
182 211 255
182 211 255
182 211 255
182 212 255
182 212 255
182 212 255
182 212 255
182 212 255
182 212 255
182 212 255
182 212 255
182 212 255
183 212 255
183 212 255
183 212 255
183 212 255
183 212 255
183 212 255
183 212 255
183 212 255
183 212 255
183 212 255
183 212 255
183 212 255
183 212 255
183 212 255
183 212 255
183 212 255
183 212 255
183 212 255
183 212 255
183 212 255
183 212 255
183 212 255
183 212 255
183 212 255
183 212 255
183 212 255
183 212 255
183 212 255
183 212 255
183 212 255
183 212 255
183 212 255
183 212 255
183 212 255
183 212 255
183 212 255
183 212 255
183 212 255
183 212 255
183 212 255
183 212 255
183 212 255
183 212 255
183 212 255
183 212 255
183 212 255
183 212 255
183 212 255
183 212 255
183 212 255
182 212 255
182 212 255
182 212 255
182 212 255
182 212 255
182 212 255
182 212 255
182 212 255
182 212 255
182 212 255
182 211 255
182 211 255
182 211 255
182 211 255
182 211 255
182 211 255
182 211 255
182 211 255
182 211 255
182 211 255
182 211 255
182 211 255
182 211 255
182 211 255
182 211 255
182 211 255
181 211 255
181 211 255
181 211 255
181 211 255
181 211 255
181 211 255
181 211 255
181 211 255
181 211 255
181 211 255
181 211 255
181 211 255
181 211 255
181 211 255
181 211 255
181 211 255
181 211 255
181 211 255
181 211 255
181 211 255
181 211 255
181 211 255
181 211 255
180 210 255
180 210 255
180 210 255
180 210 255
180 210 255
180 210 255
180 210 255
180 210 255
180 210 255
180 210 255
180 210 255
180 210 255
180 210 255
180 210 255
180 210 255
180 210 255
180 210 255
180 210 255
180 210 255
180 210 255
179 210 255
179 210 255
179 210 255
179 210 255
179 210 255
179 210 255
179 210 255
179 210 255
179 210 255
179 210 255
179 210 255
179 210 255
179 210 255
179 209 255
179 209 255
179 209 255
179 209 255
179 209 255
179 209 255
178 209 255
178 209 255
178 209 255
178 209 255
178 209 255
178 209 255
178 209 255
178 209 255
178 209 255
178 209 255
178 209 255
178 209 255
178 209 255
178 209 255
178 209 255
178 209 255
178 209 255
178 209 255
178 209 255
177 209 255
177 209 255
177 209 255
177 209 255
177 209 255
152 179 221
70 87 112
67 83 107
67 83 108
70 86 110
65 81 104
63 78 100
65 80 103
65 80 104
65 81 105
66 82 106
66 82 105
65 80 102
64 80 104
65 81 104
67 84 109
68 84 107
65 80 102
68 84 108
65 82 106
63 77 98
63 80 105
65 81 105
63 78 100
63 78 101
64 80 103
61 76 99
64 79 103
65 81 104
61 75 96
68 84 108
68 83 105
62 77 100
66 83 107
64 80 104
66 81 103
64 80 103
62 78 101
63 79 103
65 81 104
66 81 104
68 84 107
64 79 102
69 85 110
67 83 108
65 80 104
61 76 97
66 82 106
66 81 105
63 79 102
63 79 103
60 75 97
66 82 105
65 80 103
64 81 105
66 82 106
66 81 105
66 80 103
66 81 103
64 79 101
65 80 103
67 83 107
63 78 101
65 81 104
62 76 98
67 83 108
67 83 106
63 78 100
60 75 97
64 80 103
65 81 105
66 83 108
67 82 105
66 82 107
64 79 102
63 79 102
63 78 102
66 83 108
67 82 105
63 78 100
67 84 108
65 81 104
68 83 106
66 82 106
61 75 97
61 77 101
65 81 106
69 84 108
67 82 105
63 79 103
69 84 108
63 78 101
66 83 109
64 80 103
67 83 107
64 80 104
68 84 109
62 78 102
66 80 101
63 78 100
67 82 105
65 81 104
67 81 103
63 79 104
61 76 99
66 82 106
67 83 106
62 77 99
68 85 110
66 81 104
65 81 104
65 81 105
67 82 104
66 82 106
69 85 110
68 84 108
67 82 106
165 195 239
177 209 255
177 209 255
177 209 255
177 209 255
178 209 255
178 209 255
178 209 255
178 209 255
178 209 255
178 209 255
178 209 255
178 209 255
178 209 255
178 209 255
178 209 255
178 209 255
178 209 255
178 209 255
178 209 255
178 209 255
178 209 255
178 209 255
178 209 255
178 209 255
179 209 255
179 209 255
179 209 255
179 209 255
179 209 255
179 209 255
179 210 255
179 210 255
179 210 255
179 210 255
179 210 255
179 210 255
179 210 255
179 210 255
179 210 255
179 210 255
179 210 255
179 210 255
179 210 255
180 210 255
180 210 255
180 210 255
180 210 255
180 210 255
180 210 255
180 210 255
180 210 255
180 210 255
180 210 255
180 210 255
180 210 255
180 210 255
180 210 255
180 210 255
180 210 255
180 210 255
180 210 255
180 210 255
180 210 255
181 211 255
181 211 255
181 211 255
181 211 255
181 211 255
181 211 255
181 211 255
181 211 255
181 211 255
181 211 255
181 211 255
181 211 255
181 211 255
181 211 255
181 211 255
181 211 255
181 211 255
181 211 255
181 211 255
181 211 255
181 211 255
181 211 255
181 211 255
182 211 255
182 211 255
182 211 255
182 211 255
182 211 255
182 211 255
182 211 255
182 211 255
182 211 255
182 211 255
182 211 255
182 211 255
182 211 255
182 211 255
182 211 255
182 211 255
182 212 255
182 212 255
182 212 255
182 212 255
182 212 255
182 212 255
182 212 255
182 212 255
182 212 255
183 212 255
183 212 255
183 212 255
183 212 255
183 212 255
183 212 255
183 212 255
183 212 255
183 212 255
183 212 255
183 212 255
183 212 255
183 212 255
183 212 255
183 212 255
183 212 255
183 212 255
183 212 255
183 212 255
183 212 255
183 212 255
183 212 255
183 212 255
183 212 255
183 212 255
183 212 255
183 212 255
183 212 255
183 212 255
183 212 255
184 212 255
184 212 255
184 212 255
184 212 255
184 212 255
184 212 255
184 212 255
184 212 255
184 212 255
183 212 255
183 212 255
183 212 255
183 212 255
183 212 255
183 212 255
183 212 255
183 212 255
183 212 255
183 212 255
183 212 255
183 212 255
183 212 255
183 212 255
183 212 255
183 212 255
183 212 255
183 212 255
183 212 255
183 212 255
183 212 255
183 212 255
183 212 255
183 212 255
183 212 255
183 212 255
183 212 255
183 212 255
183 212 255
182 212 255
182 212 255
182 212 255
182 212 255
182 212 255
182 212 255
182 212 255
182 212 255
182 212 255
182 211 255
182 211 255
182 211 255
182 211 255
182 211 255
182 211 255
182 211 255
182 211 255
182 211 255
182 211 255
182 211 255
182 211 255
182 211 255
182 211 255
182 211 255
182 211 255
181 211 255
181 211 255
181 211 255
181 211 255
181 211 255
181 211 255
181 211 255
181 211 255
181 211 255
181 211 255
181 211 255
181 211 255
181 211 255
181 211 255
181 211 255
181 211 255
181 211 255
181 211 255
181 211 255
181 211 255
181 211 255
181 211 255
181 211 255
180 210 255
180 210 255
180 210 255
180 210 255
180 210 255
180 210 255
180 210 255
180 210 255
180 210 255
180 210 255
180 210 255
180 210 255
180 210 255
180 210 255
180 210 255
180 210 255
180 210 255
180 210 255
180 210 255
180 210 255
179 210 255
179 210 255
179 210 255
179 210 255
179 210 255
179 210 255
179 210 255
179 210 255
179 210 255
179 210 255
179 210 255
179 210 255
179 210 255
179 209 255
179 209 255
179 209 255
179 209 255
179 209 255
179 209 255
179 209 255
178 209 255
178 209 255
178 209 255
178 209 255
178 209 255
178 209 255
178 209 255
178 209 255
178 209 255
178 209 255
178 209 255
178 209 255
178 209 255
178 209 255
178 209 255
106 127 159
65 81 105
62 76 99
66 82 104
65 80 103
63 79 102
67 82 106
70 87 111
67 83 106
63 78 101
63 78 100
67 82 105
67 84 108
62 78 102
66 82 105
67 82 105
63 78 101
68 85 110
66 81 105
63 79 102
66 82 105
68 85 109
68 85 109
62 77 99
66 82 105
65 81 105
65 81 105
65 81 104
64 79 102
59 73 95
67 81 103
66 82 106
65 80 102
62 77 100
63 78 101
64 79 102
64 80 103
63 78 100
61 75 97
61 76 98
63 78 100
67 82 105
62 77 99
68 84 109
63 78 102
66 80 103
61 76 98
65 80 103
63 77 99
66 83 107
64 80 103
66 82 106
66 82 106
67 84 109
66 82 107
66 82 105
62 77 99
66 82 105
60 75 97
61 75 98
64 79 103
66 82 105
64 79 101
64 79 102
69 85 110
62 76 97
63 79 102
66 82 106
66 82 105
67 82 105
63 79 101
62 77 100
64 79 102
62 76 98
65 80 104
65 80 103
66 82 105
66 82 105
66 81 103
60 75 98
61 76 100
65 81 105
66 82 105
68 84 108
65 81 105
63 78 101
68 85 110
62 78 101
65 80 103
70 86 110
66 81 103
68 83 107
67 83 106
64 79 101
61 77 100
65 80 104
65 81 105
64 78 101
62 77 99
65 81 105
68 84 108
71 87 110
70 85 108
68 84 107
65 81 104
66 82 107
67 84 108
65 81 105
68 83 105
69 86 110
64 80 104
66 81 104
66 83 107
64 80 104
63 79 104
65 81 105
65 81 106
124 147 183
178 209 255
178 209 255
178 209 255
178 209 255
178 209 255
178 209 255
178 209 255
178 209 255
178 209 255
178 209 255
178 209 255
178 209 255
178 209 255
178 209 255
178 209 255
178 209 255
179 209 255
179 209 255
179 209 255
179 209 255
179 209 255
179 209 255
179 210 255
179 210 255
179 210 255
179 210 255
179 210 255
179 210 255
179 210 255
179 210 255
179 210 255
179 210 255
179 210 255
179 210 255
179 210 255
180 210 255
180 210 255
180 210 255
180 210 255
180 210 255
180 210 255
180 210 255
180 210 255
180 210 255
180 210 255
180 210 255
180 210 255
180 210 255
180 210 255
180 210 255
180 210 255
180 210 255
180 210 255
180 210 255
180 210 255
180 210 255
181 211 255
181 211 255
181 211 255
181 211 255
181 211 255
181 211 255
181 211 255
181 211 255
181 211 255
181 211 255
181 211 255
181 211 255
181 211 255
181 211 255
181 211 255
181 211 255
181 211 255
181 211 255
181 211 255
181 211 255
181 211 255
181 211 255
182 211 255
182 211 255
182 211 255
182 211 255
182 211 255
182 211 255
182 211 255
182 211 255
182 211 255
182 211 255
182 211 255
182 211 255
182 211 255
182 211 255
182 211 255
182 211 255
182 212 255
182 212 255
182 212 255
182 212 255
182 212 255
182 212 255
182 212 255
182 212 255
182 212 255
183 212 255
183 212 255
183 212 255
183 212 255
183 212 255
183 212 255
183 212 255
183 212 255
183 212 255
183 212 255
183 212 255
183 212 255
183 212 255
183 212 255
183 212 255
183 212 255
183 212 255
183 212 255
183 212 255
183 212 255
183 212 255
183 212 255
183 212 255
183 212 255
183 212 255
183 212 255
183 212 255
183 212 255
183 212 255
184 212 255
184 212 255
184 212 255
184 212 255
184 212 255
184 212 255
184 212 255
184 212 255
184 212 255
184 213 255
184 213 255
184 213 255
184 213 255
184 213 255
184 213 255
184 212 255
184 212 255
184 212 255
184 212 255
184 212 255
184 212 255
184 212 255
184 212 255
184 212 255
184 212 255
184 212 255
184 212 255
183 212 255
183 212 255
183 212 255
183 212 255
183 212 255
183 212 255
183 212 255
183 212 255
183 212 255
183 212 255
183 212 255
183 212 255
183 212 255
183 212 255
183 212 255
183 212 255
183 212 255
183 212 255
183 212 255
183 212 255
183 212 255
183 212 255
183 212 255
183 212 255
183 212 255
183 212 255
183 212 255
183 212 255
183 212 255
182 212 255
182 212 255
182 212 255
182 212 255
182 212 255
182 212 255
182 212 255
182 212 255
182 211 255
182 211 255
182 211 255
182 211 255
182 211 255
182 211 255
182 211 255
182 211 255
182 211 255
182 211 255
182 211 255
182 211 255
182 211 255
182 211 255
182 211 255
182 211 255
182 211 255
181 211 255
181 211 255
181 211 255
181 211 255
181 211 255
181 211 255
181 211 255
181 211 255
181 211 255
181 211 255
181 211 255
181 211 255
181 211 255
181 211 255
181 211 255
181 211 255
181 211 255
181 211 255
181 211 255
181 211 255
181 211 255
181 211 255
180 210 255
180 210 255
180 210 255
180 210 255
180 210 255
180 210 255
180 210 255
180 210 255
180 210 255
180 210 255
180 210 255
180 210 255
180 210 255
180 210 255
180 210 255
180 210 255
180 210 255
180 210 255
180 210 255
180 210 255
179 210 255
179 210 255
179 210 255
179 210 255
179 210 255
179 210 255
179 210 255
179 210 255
179 210 255
179 210 255
179 210 255
179 210 255
179 210 255
179 209 255
179 209 255
179 209 255
179 209 255
179 209 255
179 209 255
179 209 255
178 209 255
178 209 255
178 209 255
178 209 255
178 209 255
178 209 255
172 202 247
70 88 114
69 84 107
66 82 105
61 77 100
65 81 104
64 79 102
68 84 108
66 82 106
63 78 100
61 77 100
68 84 109
64 80 103
66 82 106
61 76 98
65 81 105
65 81 104
66 81 105
67 83 105
62 78 101
65 80 102
64 80 103
62 77 101
66 82 107
65 82 106
63 79 103
64 78 101
62 77 99
63 80 104
68 83 106
68 83 106
61 76 99
65 80 102
64 80 103
61 76 98
67 82 104
66 83 107
66 83 108
62 78 102
65 81 104
61 75 95
66 82 107
66 82 106
70 86 110
67 82 104
64 79 102
65 81 104
64 79 102
69 85 109
64 80 104
64 80 103
65 81 103
68 82 104
62 78 101
63 79 103
66 82 106
63 77 99
62 77 99
62 77 100
68 84 106
64 79 102
62 77 100
66 82 105
66 82 105
62 76 99
66 81 104
66 82 105
68 84 108
66 81 103
61 75 96
63 79 103
65 81 105
66 81 104
66 83 107
69 85 109
63 78 100
67 82 103
63 78 101
70 86 109
66 81 103
64 79 100
66 82 106
64 79 101
63 78 100
66 82 107
65 81 104
66 82 106
65 80 102
64 81 105
68 84 108
60 76 100
67 82 105
66 83 107
62 77 100
70 86 110
69 85 109
61 77 100
65 80 103
63 79 102
64 80 103
65 81 105
67 82 105
65 81 106
58 72 93
66 82 105
63 79 103
64 79 102
64 80 104
67 83 106
64 80 104
64 79 103
66 83 108
66 82 107
64 80 103
67 84 109
65 80 103
67 83 108
67 81 103
69 85 109
167 196 241
178 209 255
178 209 255
178 209 255
178 209 255
178 209 255
178 209 255
179 209 255
179 209 255
179 209 255
179 209 255
179 209 255
179 209 255
179 209 255
179 210 255
179 210 255
179 210 255
179 210 255
179 210 255
179 210 255
179 210 255
179 210 255
179 210 255
179 210 255
179 210 255
179 210 255
179 210 255
180 210 255
180 210 255
180 210 255
180 210 255
180 210 255
180 210 255
180 210 255
180 210 255
180 210 255
180 210 255
180 210 255
180 210 255
180 210 255
180 210 255
180 210 255
180 210 255
180 210 255
180 210 255
180 210 255
180 210 255
181 211 255
181 211 255
181 211 255
181 211 255
181 211 255
181 211 255
181 211 255
181 211 255
181 211 255
181 211 255
181 211 255
181 211 255
181 211 255
181 211 255
181 211 255
181 211 255
181 211 255
181 211 255
181 211 255
181 211 255
181 211 255
181 211 255
182 211 255
182 211 255
182 211 255
182 211 255
182 211 255
182 211 255
182 211 255
182 211 255
182 211 255
182 211 255
182 211 255
182 211 255
182 211 255
182 211 255
182 211 255
182 211 255
182 211 255
182 212 255
182 212 255
182 212 255
182 212 255
182 212 255
182 212 255
182 212 255
182 212 255
183 212 255
183 212 255
183 212 255
183 212 255
183 212 255
183 212 255
183 212 255
183 212 255
183 212 255
183 212 255
183 212 255
183 212 255
183 212 255
183 212 255
183 212 255
183 212 255
183 212 255
183 212 255
183 212 255
183 212 255
183 212 255
183 212 255
183 212 255
183 212 255
183 212 255
183 212 255
183 212 255
183 212 255
183 212 255
183 212 255
184 212 255
184 212 255
184 212 255
184 212 255
184 212 255
184 212 255
184 212 255
184 212 255
184 212 255
184 212 255
184 213 255
184 213 255
184 213 255
184 213 255
184 213 255
184 213 255
184 213 255
184 213 255
184 213 255
184 213 255
184 213 255
184 213 255
184 213 255
184 213 255
184 213 255
184 213 255
184 213 255
184 213 255
184 213 255
184 213 255
184 213 255
184 213 255
184 213 255
184 212 255
184 212 255
184 212 255
184 212 255
184 212 255
184 212 255
184 212 255
184 212 255
184 212 255
184 212 255
184 212 255
183 212 255
183 212 255
183 212 255
183 212 255
183 212 255
183 212 255
183 212 255
183 212 255
183 212 255
183 212 255
183 212 255
183 212 255
183 212 255
183 212 255
183 212 255
183 212 255
183 212 255
183 212 255
183 212 255
183 212 255
183 212 255
183 212 255
183 212 255
183 212 255
183 212 255
183 212 255
183 212 255
183 212 255
183 212 255
182 212 255
182 212 255
182 212 255
182 212 255
182 212 255
182 212 255
182 212 255
182 212 255
182 211 255
182 211 255
182 211 255
182 211 255
182 211 255
182 211 255
182 211 255
182 211 255
182 211 255
182 211 255
182 211 255
182 211 255
182 211 255
182 211 255
182 211 255
182 211 255
181 211 255
181 211 255
181 211 255
181 211 255
181 211 255
181 211 255
181 211 255
181 211 255
181 211 255
181 211 255
181 211 255
181 211 255
181 211 255
181 211 255
181 211 255
181 211 255
181 211 255
181 211 255
181 211 255
181 211 255
181 211 255
181 211 255
180 210 255
180 210 255
180 210 255
180 210 255
180 210 255
180 210 255
180 210 255
180 210 255
180 210 255
180 210 255
180 210 255
180 210 255
180 210 255
180 210 255
180 210 255
180 210 255
180 210 255
180 210 255
180 210 255
180 210 255
180 210 255
179 210 255
179 210 255
179 210 255
179 210 255
179 210 255
179 210 255
179 210 255
179 210 255
179 210 255
179 210 255
179 210 255
179 210 255
179 210 255
179 210 255
179 209 255
179 209 255
179 209 255
120 143 177
65 80 104
64 80 105
67 83 108
68 85 111
66 82 107
66 81 104
61 76 99
63 77 99
66 82 105
63 77 99
64 78 100
67 83 107
65 81 105
67 83 108
66 80 103
69 86 112
63 78 101
64 79 100
63 79 103
64 79 101
65 79 102
64 79 102
68 84 108
65 81 104
64 78 100
61 75 96
63 79 102
64 79 102
64 80 103
66 82 104
63 79 102
63 78 101
61 75 95
64 79 102
67 83 107
65 80 103
68 83 106
65 81 104
64 80 103
67 83 107
66 83 108
65 81 104
66 82 106
64 80 103
66 82 106
65 80 103
62 77 98
63 78 102
62 77 99
66 82 106
68 84 109
64 80 102
64 79 101
61 76 98
65 80 102
64 79 102
61 76 99
60 74 95
67 83 106
62 78 102
61 75 97
68 84 107
61 76 98
66 82 106
66 81 104
64 80 103
65 80 103
66 82 106
65 80 104
64 80 104
66 82 106
64 80 104
65 80 103
65 80 103
64 81 105
63 78 102
65 81 105
67 83 107
61 77 100
63 78 101
64 80 103
63 79 103
65 81 104
66 81 104
66 82 105
65 80 104
68 84 108
64 80 104
63 78 101
68 84 108
68 83 107
64 79 102
65 80 103
68 84 107
65 81 105
63 77 99
66 82 107
64 79 101
63 79 103
65 81 105
66 82 106
65 81 105
64 80 103
63 76 97
62 77 100
66 81 103
68 85 109
69 84 107
69 85 110
67 83 107
64 79 102
62 77 100
62 78 102
64 80 103
66 82 106
68 85 110
66 83 108
70 86 111
119 141 175
179 209 255
179 209 255
179 209 255
179 210 255
179 210 255
179 210 255
179 210 255
179 210 255
179 210 255
179 210 255
179 210 255
179 210 255
179 210 255
179 210 255
179 210 255
179 210 255
179 210 255
180 210 255
180 210 255
180 210 255
180 210 255
180 210 255
180 210 255
180 210 255
180 210 255
180 210 255
180 210 255
180 210 255
180 210 255
180 210 255
180 210 255
180 210 255
180 210 255
180 210 255
180 210 255
180 210 255
180 210 255
180 210 255
181 211 255
181 211 255
181 211 255
181 211 255
181 211 255
181 211 255
181 211 255
181 211 255
181 211 255
181 211 255
181 211 255
181 211 255
181 211 255
181 211 255
181 211 255
181 211 255
181 211 255
181 211 255
181 211 255
181 211 255
181 211 255
181 211 255
182 211 255
182 211 255
182 211 255
182 211 255
182 211 255
182 211 255
182 211 255
182 211 255
182 211 255
182 211 255
182 211 255
182 211 255
182 211 255
182 211 255
182 211 255
182 211 255
182 212 255
182 212 255
182 212 255
182 212 255
182 212 255
182 212 255
182 212 255
182 212 255
183 212 255
183 212 255
183 212 255
183 212 255
183 212 255
183 212 255
183 212 255
183 212 255
183 212 255
183 212 255
183 212 255
183 212 255
183 212 255
183 212 255
183 212 255
183 212 255
183 212 255
183 212 255
183 212 255
183 212 255
183 212 255
183 212 255
183 212 255
183 212 255
183 212 255
183 212 255
183 212 255
183 212 255
183 212 255
184 212 255
184 212 255
184 212 255
184 212 255
184 212 255
184 212 255
184 212 255
184 212 255
184 212 255
184 212 255
184 213 255
184 213 255
184 213 255
184 213 255
184 213 255
184 213 255
184 213 255
184 213 255
184 213 255
184 213 255
184 213 255
184 213 255
184 213 255
184 213 255
184 213 255
184 213 255
184 213 255
185 213 255
185 213 255
184 213 255
184 213 255
184 213 255
184 213 255
184 213 255
184 213 255
184 213 255
184 213 255
184 213 255
184 213 255
184 213 255
184 213 255
184 213 255
184 213 255
184 213 255
184 213 255
184 213 255
184 213 255
184 213 255
184 213 255
184 213 255
184 213 255
184 213 255
184 213 255
184 212 255
184 212 255
184 212 255
184 212 255
184 212 255
184 212 255
184 212 255
184 212 255
184 212 255
184 212 255
184 212 255
183 212 255
183 212 255
183 212 255
183 212 255
183 212 255
183 212 255
183 212 255
183 212 255
183 212 255
183 212 255
183 212 255
183 212 255
183 212 255
183 212 255
183 212 255
183 212 255
183 212 255
183 212 255
183 212 255
183 212 255
183 212 255
183 212 255
183 212 255
183 212 255
183 212 255
183 212 255
183 212 255
182 212 255
182 212 255
182 212 255
182 212 255
182 212 255
182 212 255
182 212 255
182 212 255
182 212 255
182 211 255
182 211 255
182 211 255
182 211 255
182 211 255
182 211 255
182 211 255
182 211 255
182 211 255
182 211 255
182 211 255
182 211 255
182 211 255
182 211 255
182 211 255
182 211 255
181 211 255
181 211 255
181 211 255
181 211 255
181 211 255
181 211 255
181 211 255
181 211 255
181 211 255
181 211 255
181 211 255
181 211 255
181 211 255
181 211 255
181 211 255
181 211 255
181 211 255
181 211 255
181 211 255
181 211 255
181 211 255
181 211 255
180 210 255
180 210 255
180 210 255
180 210 255
180 210 255
180 210 255
180 210 255
180 210 255
180 210 255
180 210 255
180 210 255
180 210 255
180 210 255
180 210 255
180 210 255
180 210 255
180 210 255
180 210 255
180 210 255
180 210 255
180 210 255
180 210 255
179 210 255
179 210 255
179 210 255
179 210 255
179 210 255
179 210 255
174 204 248
74 91 118
65 80 102
68 84 107
65 82 106
66 83 108
63 78 102
66 82 105
63 78 100
66 82 106
65 81 105
63 78 101
65 80 103
68 85 110
66 82 105
65 81 105
65 80 103
67 82 106
66 82 106
65 80 104
64 79 102
64 80 103
65 80 103
64 79 101
67 83 106
67 84 108
67 82 105
63 79 102
66 82 105
62 77 99
66 81 104
67 83 106
66 82 106
66 82 105
68 83 106
64 78 101
63 78 101
67 83 107
64 79 102
63 77 99
62 77 100
59 74 97
64 80 103
65 80 104
64 80 103
68 85 111
66 81 103
66 81 103
65 80 103
62 77 100
69 84 108
68 83 106
65 81 104
63 78 101
63 77 98
66 81 103
65 81 104
65 79 102
62 77 100
66 82 107
67 82 105
64 80 104
66 81 104
64 78 99
69 85 109
64 79 101
61 76 99
66 81 105
63 79 103
61 77 101
61 76 97
64 78 99
63 78 99
68 85 110
66 82 105
66 81 103
63 79 102
65 81 104
65 81 103
69 85 109
66 82 106
63 78 101
62 77 98
64 79 101
64 80 103
62 77 100
66 80 102
63 80 105
62 77 99
63 80 104
65 81 104
64 78 101
68 85 110
62 78 101
63 78 101
61 77 100
62 78 101
65 81 104
66 81 104
64 80 103
66 82 104
66 81 104
62 76 99
64 81 106
65 81 104
64 80 103
67 83 106
65 80 103
66 83 107
65 81 106
66 82 105
66 82 107
65 79 101
63 79 103
66 82 106
63 78 101
66 82 106
65 81 104
66 82 106
67 84 110
80 97 124
174 204 248
179 210 255
179 210 255
179 210 255
179 210 255
179 210 255
179 210 255
180 210 255
180 210 255
180 210 255
180 210 255
180 210 255
180 210 255
180 210 255
180 210 255
180 210 255
180 210 255
180 210 255
180 210 255
180 210 255
180 210 255
180 210 255
180 210 255
180 210 255
180 210 255
180 210 255
180 210 255
180 210 255
180 210 255
181 211 255
181 211 255
181 211 255
181 211 255
181 211 255
181 211 255
181 211 255
181 211 255
181 211 255
181 211 255
181 211 255
181 211 255
181 211 255
181 211 255
181 211 255
181 211 255
181 211 255
181 211 255
181 211 255
181 211 255
181 211 255
181 211 255
182 211 255
182 211 255
182 211 255
182 211 255
182 211 255
182 211 255
182 211 255
182 211 255
182 211 255
182 211 255
182 211 255
182 211 255
182 211 255
182 211 255
182 211 255
182 211 255
182 212 255
182 212 255
182 212 255
182 212 255
182 212 255
182 212 255
182 212 255
182 212 255
183 212 255
183 212 255
183 212 255
183 212 255
183 212 255
183 212 255
183 212 255
183 212 255
183 212 255
183 212 255
183 212 255
183 212 255
183 212 255
183 212 255
183 212 255
183 212 255
183 212 255
183 212 255
183 212 255
183 212 255
183 212 255
183 212 255
183 212 255
183 212 255
183 212 255
183 212 255
183 212 255
183 212 255
183 212 255
184 212 255
184 212 255
184 212 255
184 212 255
184 212 255
184 212 255
184 212 255
184 212 255
184 212 255
184 212 255
184 213 255
184 213 255
184 213 255
184 213 255
184 213 255
184 213 255
184 213 255
184 213 255
184 213 255
184 213 255
184 213 255
184 213 255
184 213 255
184 213 255
184 213 255
184 213 255
184 213 255
184 213 255
184 213 255
184 213 255
184 213 255
184 213 255
184 213 255
185 213 255
185 213 255
185 213 255
185 213 255
185 213 255
185 213 255
185 213 255
185 213 255
185 213 255
185 213 255
185 213 255
185 213 255
185 213 255
185 213 255
185 213 255
185 213 255
184 213 255
184 213 255
184 213 255
184 213 255
184 213 255
184 213 255
184 213 255
184 213 255
184 213 255
184 213 255
184 213 255
184 213 255
184 213 255
184 213 255
184 213 255
184 213 255
184 213 255
184 213 255
184 213 255
184 213 255
184 213 255
184 213 255
184 213 255
184 212 255
184 212 255
184 212 255
184 212 255
184 212 255
184 212 255
184 212 255
184 212 255
184 212 255
184 212 255
183 212 255
183 212 255
183 212 255
183 212 255
183 212 255
183 212 255
183 212 255
183 212 255
183 212 255
183 212 255
183 212 255
183 212 255
183 212 255
183 212 255
183 212 255
183 212 255
183 212 255
183 212 255
183 212 255
183 212 255
183 212 255
183 212 255
183 212 255
183 212 255
183 212 255
183 212 255
183 212 255
183 212 255
182 212 255
182 212 255
182 212 255
182 212 255
182 212 255
182 212 255
182 212 255
182 212 255
182 211 255
182 211 255
182 211 255
182 211 255
182 211 255
182 211 255
182 211 255
182 211 255
182 211 255
182 211 255
182 211 255
182 211 255
182 211 255
182 211 255
182 211 255
182 211 255
181 211 255
181 211 255
181 211 255
181 211 255
181 211 255
181 211 255
181 211 255
181 211 255
181 211 255
181 211 255
181 211 255
181 211 255
181 211 255
181 211 255
181 211 255
181 211 255
181 211 255
181 211 255
181 211 255
181 211 255
181 211 255
181 211 255
181 211 255
180 210 255
180 210 255
180 210 255
180 210 255
180 210 255
180 210 255
180 210 255
180 210 255
180 210 255
180 210 255
180 210 255
180 210 255
180 210 255
180 210 255
180 210 255
180 210 255
180 210 255
180 210 255
130 154 190
65 80 103
62 78 101
65 81 105
64 80 103
64 78 101
63 78 101
65 81 105
64 79 101
62 77 99
65 80 103
63 79 103
64 79 101
64 80 104
63 78 100
69 84 108
66 82 106
57 71 93
63 79 102
65 80 102
64 79 102
62 76 97
65 80 103
71 86 110
71 87 111
67 83 107
65 80 101
62 78 102
64 79 102
68 83 107
65 81 105
63 78 101
62 77 98
70 87 112
63 78 101
65 80 103
66 81 104
66 82 106
65 82 106
63 79 102
67 83 105
66 81 104
66 82 105
62 78 101
65 80 103
62 77 100
68 83 107
64 80 103
62 78 101
60 75 99
63 78 101
65 80 103
65 80 102
65 80 103
61 76 97
68 83 107
63 78 101
68 84 107
65 81 103
64 80 103
63 78 100
66 81 105
66 81 103
64 79 101
66 82 106
64 80 103
59 73 94
64 80 103
63 79 102
65 80 103
64 80 104
67 82 106
66 82 106
65 80 102
69 85 109
63 78 100
63 78 101
60 75 98
66 82 106
69 85 107
66 81 105
65 79 101
62 77 99
65 80 103
62 77 100
66 82 105
61 75 97
67 83 108
61 77 100
66 82 106
65 80 103
64 78 100
64 79 102
65 80 103
63 78 101
62 78 101
64 80 103
64 79 102
64 81 105
65 80 103
66 81 103
71 86 110
66 81 104
66 82 105
61 76 98
65 80 103
66 82 105
64 80 103
63 77 99
61 77 100
69 85 109
62 76 97
64 80 104
66 82 105
67 83 108
68 84 107
64 80 103
65 81 105
62 77 101
60 76 99
63 78 100
133 157 193
180 210 255
180 210 255
180 210 255
180 210 255
180 210 255
180 210 255
180 210 255
180 210 255
180 210 255
180 210 255
180 210 255
180 210 255
180 210 255
180 210 255
180 210 255
180 210 255
180 210 255
180 210 255
180 210 255
181 211 255
181 211 255
181 211 255
181 211 255
181 211 255
181 211 255
181 211 255
181 211 255
181 211 255
181 211 255
181 211 255
181 211 255
181 211 255
181 211 255
181 211 255
181 211 255
181 211 255
181 211 255
181 211 255
181 211 255
181 211 255
181 211 255
182 211 255
182 211 255
182 211 255
182 211 255
182 211 255
182 211 255
182 211 255
182 211 255
182 211 255
182 211 255
182 211 255
182 211 255
182 211 255
182 211 255
182 211 255
182 211 255
182 212 255
182 212 255
182 212 255
182 212 255
182 212 255
182 212 255
182 212 255
182 212 255
183 212 255
183 212 255
183 212 255
183 212 255
183 212 255
183 212 255
183 212 255
183 212 255
183 212 255
183 212 255
183 212 255
183 212 255
183 212 255
183 212 255
183 212 255
183 212 255
183 212 255
183 212 255
183 212 255
183 212 255
183 212 255
183 212 255
183 212 255
183 212 255
183 212 255
183 212 255
183 212 255
183 212 255
184 212 255
184 212 255
184 212 255
184 212 255
184 212 255
184 212 255
184 212 255
184 212 255
184 212 255
184 212 255
184 213 255
184 213 255
184 213 255
184 213 255
184 213 255
184 213 255
184 213 255
184 213 255
184 213 255
184 213 255
184 213 255
184 213 255
184 213 255
184 213 255
184 213 255
184 213 255
184 213 255
184 213 255
184 213 255
184 213 255
184 213 255
184 213 255
184 213 255
185 213 255
185 213 255
185 213 255
185 213 255
185 213 255
185 213 255
185 213 255
185 213 255
185 213 255
185 213 255
185 213 255
185 213 255
185 213 255
185 213 255
185 213 255
185 213 255
185 213 255
185 213 255
185 213 255
185 213 255
185 213 255
185 213 255
185 213 255
185 213 255
185 213 255
185 213 255
185 213 255
185 213 255
185 213 255
185 213 255
185 213 255
185 213 255
185 213 255
185 213 255
185 213 255
185 213 255
185 213 255
184 213 255
184 213 255
184 213 255
184 213 255
184 213 255
184 213 255
184 213 255
184 213 255
184 213 255
184 213 255
184 213 255
184 213 255
184 213 255
184 213 255
184 213 255
184 213 255
184 213 255
184 213 255
184 213 255
184 213 255
184 213 255
184 213 255
184 212 255
184 212 255
184 212 255
184 212 255
184 212 255
184 212 255
184 212 255
184 212 255
184 212 255
184 212 255
183 212 255
183 212 255
183 212 255
183 212 255
183 212 255
183 212 255
183 212 255
183 212 255
183 212 255
183 212 255
183 212 255
183 212 255
183 212 255
183 212 255
183 212 255
183 212 255
183 212 255
183 212 255
183 212 255
183 212 255
183 212 255
183 212 255
183 212 255
183 212 255
183 212 255
183 212 255
183 212 255
183 212 255
182 212 255
182 212 255
182 212 255
182 212 255
182 212 255
182 212 255
182 212 255
182 211 255
182 211 255
182 211 255
182 211 255
182 211 255
182 211 255
182 211 255
182 211 255
182 211 255
182 211 255
182 211 255
182 211 255
182 211 255
182 211 255
182 211 255
182 211 255
182 211 255
181 211 255
181 211 255
181 211 255
181 211 255
181 211 255
181 211 255
181 211 255
181 211 255
181 211 255
181 211 255
181 211 255
181 211 255
181 211 255
181 211 255
181 211 255
181 211 255
181 211 255
181 211 255
181 211 255
181 211 255
181 211 255
181 211 255
181 211 255
180 210 255
180 210 255
180 210 255
180 210 255
180 210 255
180 210 255
180 210 255
180 210 255
99 119 148
67 82 105
68 83 106
64 80 103
61 76 99
64 79 101
66 81 105
66 82 108
68 84 108
62 78 101
64 78 100
70 85 108
63 79 101
68 83 107
64 81 105
64 79 101
66 81 103
68 84 109
61 76 98
66 82 106
64 79 101
65 80 103
62 77 100
61 76 98
66 82 105
62 77 99
64 79 102
60 76 99
62 78 101
66 81 105
67 83 106
64 79 101
64 79 103
63 78 100
67 83 107
68 84 109
60 75 98
66 83 108
63 78 99
63 78 100
63 79 102
67 82 105
66 81 104
65 80 103
66 82 106
60 74 95
62 77 99
64 80 104
64 79 101
62 77 99
65 79 102
66 82 107
65 81 104
64 79 101
69 86 111
66 81 105
62 76 97
67 83 107
63 78 102
64 79 102
64 79 102
66 81 103
61 76 98
63 79 103
67 82 104
61 76 99
64 80 103
68 83 106
65 79 102
61 74 94
64 79 102
66 81 104
66 82 106
66 82 105
62 76 99
62 77 99
63 78 101
65 82 106
62 77 100
61 76 98
62 76 97
62 78 101
63 79 103
68 84 106
63 77 99
68 83 106
67 83 108
66 80 103
66 82 106
64 80 103
62 77 101
64 79 101
69 85 109
65 80 103
66 82 105
66 82 105
62 77 99
64 79 102
64 79 101
66 81 104
65 81 105
66 82 106
65 80 103
61 76 99
64 80 102
65 80 103
63 78 101
64 78 100
63 78 101
66 82 106
69 85 108
63 79 103
65 80 103
67 82 104
62 78 101
65 81 104
67 83 108
63 78 100
66 81 105
66 82 105
63 78 101
93 112 141
180 210 255
180 210 255
180 210 255
180 210 255
180 210 255
180 210 255
180 210 255
180 210 255
181 211 255
181 211 255
181 211 255
181 211 255
181 211 255
181 211 255
181 211 255
181 211 255
181 211 255
181 211 255
181 211 255
181 211 255
181 211 255
181 211 255
181 211 255
181 211 255
181 211 255
181 211 255
181 211 255
181 211 255
181 211 255
181 211 255
181 211 255
182 211 255
182 211 255
182 211 255
182 211 255
182 211 255
182 211 255
182 211 255
182 211 255
182 211 255
182 211 255
182 211 255
182 211 255
182 211 255
182 211 255
182 211 255
182 211 255
182 212 255
182 212 255
182 212 255
182 212 255
182 212 255
182 212 255
182 212 255
182 212 255
182 212 255
183 212 255
183 212 255
183 212 255
183 212 255
183 212 255
183 212 255
183 212 255
183 212 255
183 212 255
183 212 255
183 212 255
183 212 255
183 212 255
183 212 255
183 212 255
183 212 255
183 212 255
183 212 255
183 212 255
183 212 255
183 212 255
183 212 255
183 212 255
183 212 255
183 212 255
183 212 255
183 212 255
184 212 255
184 212 255
184 212 255
184 212 255
184 212 255
184 212 255
184 212 255
184 212 255
184 212 255
184 212 255
184 213 255
184 213 255
184 213 255
184 213 255
184 213 255
184 213 255
184 213 255
184 213 255
184 213 255
184 213 255
184 213 255
184 213 255
184 213 255
184 213 255
184 213 255
184 213 255
184 213 255
184 213 255
184 213 255
184 213 255
184 213 255
184 213 255
185 213 255
185 213 255
185 213 255
185 213 255
185 213 255
185 213 255
185 213 255
185 213 255
185 213 255
185 213 255
185 213 255
185 213 255
185 213 255
185 213 255
185 213 255
185 213 255
185 213 255
185 213 255
185 213 255
185 213 255
185 213 255
185 213 255
185 213 255
185 213 255
185 213 255
185 213 255
185 213 255
185 213 255
185 213 255
185 213 255
185 213 255
185 213 255
185 213 255
185 213 255
185 213 255
185 213 255
185 213 255
185 213 255
185 213 255
185 213 255
185 213 255
185 213 255
185 213 255
185 213 255
185 213 255
185 213 255
185 213 255
185 213 255
185 213 255
185 213 255
185 213 255
185 213 255
185 213 255
185 213 255
185 213 255
185 213 255
185 213 255
185 213 255
185 213 255
184 213 255
184 213 255
184 213 255
184 213 255
184 213 255
184 213 255
184 213 255
184 213 255
184 213 255
184 213 255
184 213 255
184 213 255
184 213 255
184 213 255
184 213 255
184 213 255
184 213 255
184 213 255
184 213 255
184 213 255
184 213 255
184 212 255
184 212 255
184 212 255
184 212 255
184 212 255
184 212 255
184 212 255
184 212 255
184 212 255
184 212 255
183 212 255
183 212 255
183 212 255
183 212 255
183 212 255
183 212 255
183 212 255
183 212 255
183 212 255
183 212 255
183 212 255
183 212 255
183 212 255
183 212 255
183 212 255
183 212 255
183 212 255
183 212 255
183 212 255
183 212 255
183 212 255
183 212 255
183 212 255
183 212 255
183 212 255
183 212 255
183 212 255
182 212 255
182 212 255
182 212 255
182 212 255
182 212 255
182 212 255
182 212 255
182 212 255
182 212 255
182 211 255
182 211 255
182 211 255
182 211 255
182 211 255
182 211 255
182 211 255
182 211 255
182 211 255
182 211 255
182 211 255
182 211 255
182 211 255
182 211 255
182 211 255
182 211 255
181 211 255
181 211 255
181 211 255
181 211 255
181 211 255
181 211 255
181 211 255
181 211 255
181 211 255
181 211 255
181 211 255
181 211 255
181 211 255
181 211 255
181 211 255
181 211 255
181 211 255
181 211 255
181 211 255
181 211 255
168 196 239
62 77 99
69 84 107
65 81 105
62 77 99
66 82 106
63 78 101
64 79 102
63 77 99
66 82 105
62 77 99
64 79 101
66 82 106
69 86 110
68 84 108
62 78 102
67 82 104
63 78 100
61 76 99
62 78 100
64 80 103
64 78 101
64 79 101
61 75 97
64 80 103
68 84 109
68 83 107
67 84 108
63 78 101
61 76 98
64 79 102
64 79 101
68 83 106
66 82 107
67 82 105
64 79 102
66 81 104
61 76 99
64 80 104
68 83 106
63 78 101
67 82 106
62 76 98
64 79 103
64 79 101
59 74 97
60 77 101
63 78 102
62 78 101
65 81 104
65 79 102
64 79 102
65 79 100
63 78 101
65 80 103
66 82 105
65 80 103
59 75 97
60 74 96
66 81 104
65 81 103
64 79 102
63 78 100
67 83 107
64 79 101
64 79 101
65 81 105
62 77 100
62 77 100
67 82 104
64 79 102
64 79 101
66 82 106
62 78 101
64 79 100
65 80 102
63 78 101
63 77 99
61 76 99
64 79 101
60 74 97
63 79 103
65 81 104
67 83 107
64 80 105
69 85 110
65 81 104
67 84 108
65 82 106
63 78 100
64 79 102
62 77 100
67 83 107
63 79 102
63 77 98
70 86 110
65 81 105
66 81 102
61 76 97
63 78 100
67 83 106
67 83 107
64 79 101
66 82 106
63 78 100
63 79 102
62 78 102
62 77 100
67 83 107
63 78 100
64 79 102
65 80 103
60 75 98
64 79 102
65 81 104
66 82 106
65 80 103
62 77 100
66 82 105
66 83 107
62 77 101
67 84 108
67 82 106
162 189 231
181 211 255
181 211 255
181 211 255
181 211 255
181 211 255
181 211 255
181 211 255
181 211 255
181 211 255
181 211 255
181 211 255
181 211 255
181 211 255
181 211 255
181 211 255
181 211 255
181 211 255
181 211 255
181 211 255
181 211 255
182 211 255
182 211 255
182 211 255
182 211 255
182 211 255
182 211 255
182 211 255
182 211 255
182 211 255
182 211 255
182 211 255
182 211 255
182 211 255
182 211 255
182 211 255
182 211 255
182 212 255
182 212 255
182 212 255
182 212 255
182 212 255
182 212 255
182 212 255
182 212 255
182 212 255
183 212 255
183 212 255
183 212 255
183 212 255
183 212 255
183 212 255
183 212 255
183 212 255
183 212 255
183 212 255
183 212 255
183 212 255
183 212 255
183 212 255
183 212 255
183 212 255
183 212 255
183 212 255
183 212 255
183 212 255
183 212 255
183 212 255
183 212 255
183 212 255
183 212 255
183 212 255
183 212 255
184 212 255
184 212 255
184 212 255
184 212 255
184 212 255
184 212 255
184 212 255
184 212 255
184 212 255
184 213 255
184 213 255
184 213 255
184 213 255
184 213 255
184 213 255
184 213 255
184 213 255
184 213 255
184 213 255
184 213 255
184 213 255
184 213 255
184 213 255
184 213 255
184 213 255
184 213 255
184 213 255
184 213 255
184 213 255
184 213 255
184 213 255
185 213 255
185 213 255
185 213 255
185 213 255
185 213 255
185 213 255
185 213 255
185 213 255
185 213 255
185 213 255
185 213 255
185 213 255
185 213 255
185 213 255
185 213 255
185 213 255
185 213 255
185 213 255
185 213 255
185 213 255
185 213 255
185 213 255
185 213 255
185 213 255
185 213 255
185 213 255
185 213 255
185 213 255
185 213 255
185 213 255
185 213 255
185 213 255
185 213 255
185 213 255
185 213 255
186 214 255
186 214 255
186 214 255
186 214 255
186 214 255
186 214 255
186 214 255
186 214 255
185 213 255
185 213 255
185 213 255
185 213 255
185 213 255
185 213 255
185 213 255
185 213 255
185 213 255
185 213 255
185 213 255
185 213 255
185 213 255
185 213 255
185 213 255
185 213 255
185 213 255
185 213 255
185 213 255
185 213 255
185 213 255
185 213 255
185 213 255
185 213 255
185 213 255
185 213 255
185 213 255
185 213 255
185 213 255
185 213 255
185 213 255
185 213 255
185 213 255
185 213 255
185 213 255
185 213 255
185 213 255
185 213 255
184 213 255
184 213 255
184 213 255
184 213 255
184 213 255
184 213 255
184 213 255
184 213 255
184 213 255
184 213 255
184 213 255
184 213 255
184 213 255
184 213 255
184 213 255
184 213 255
184 213 255
184 213 255
184 213 255
184 213 255
184 213 255
184 213 255
184 212 255
184 212 255
184 212 255
184 212 255
184 212 255
184 212 255
184 212 255
184 212 255
184 212 255
183 212 255
183 212 255
183 212 255
183 212 255
183 212 255
183 212 255
183 212 255
183 212 255
183 212 255
183 212 255
183 212 255
183 212 255
183 212 255
183 212 255
183 212 255
183 212 255
183 212 255
183 212 255
183 212 255
183 212 255
183 212 255
183 212 255
183 212 255
183 212 255
183 212 255
183 212 255
183 212 255
182 212 255
182 212 255
182 212 255
182 212 255
182 212 255
182 212 255
182 212 255
182 212 255
182 212 255
182 211 255
182 211 255
182 211 255
182 211 255
182 211 255
182 211 255
182 211 255
182 211 255
182 211 255
182 211 255
182 211 255
182 211 255
182 211 255
182 211 255
182 211 255
182 211 255
181 211 255
181 211 255
181 211 255
181 211 255
181 211 255
181 211 255
181 211 255
181 211 255
181 211 255
126 149 183
67 82 105
63 79 101
65 81 105
62 77 100
68 83 105
63 79 102
67 83 107
66 82 106
68 84 108
67 82 104
67 82 105
67 83 107
68 84 107
68 83 106
64 78 100
64 79 102
66 80 103
64 79 102
62 77 99
65 82 106
69 85 109
63 78 100
64 79 102
59 73 94
69 85 108
66 82 105
67 83 106
66 81 105
65 79 101
63 78 102
63 78 100
67 83 106
66 81 104
62 77 100
66 80 103
67 83 107
69 84 107
67 82 106
65 81 105
67 83 106
68 84 108
66 81 105
63 78 100
61 76 98
67 81 103
63 79 102
63 78 100
64 78 100
63 78 100
59 74 95
64 80 103
68 84 109
59 74 96
63 78 99
65 82 106
64 80 103
67 82 105
66 82 106
65 80 101
58 72 93
62 76 98
65 80 103
62 77 99
63 77 100
63 78 101
64 79 103
65 80 102
59 74 96
60 74 96
60 74 95
64 79 101
65 81 105
64 79 102
68 83 106
64 79 102
62 78 101
64 80 103
67 82 105
63 78 100
65 80 104
64 80 103
66 81 103
68 83 105
61 75 96
62 77 98
67 83 106
63 79 103
66 82 104
62 77 100
62 77 100
62 77 98
63 78 101
68 83 106
62 77 99
64 80 104
63 78 100
62 78 101
68 84 108
61 76 99
61 76 97
62 77 100
66 82 105
59 73 95
66 81 105
64 78 100
63 79 102
63 78 101
68 84 107
65 81 104
63 78 100
65 80 103
66 82 105
70 86 111
66 81 105
69 86 111
65 81 105
60 76 98
62 78 102
69 85 109
68 84 107
65 80 103
66 82 106
141 166 203
181 211 255
181 211 255
181 211 255
181 211 255
181 211 255
181 211 255
181 211 255
181 211 255
182 211 255
182 211 255
182 211 255
182 211 255
182 211 255
182 211 255
182 211 255
182 211 255
182 211 255
182 211 255
182 211 255
182 211 255
182 211 255
182 211 255
182 211 255
182 211 255
182 211 255
182 212 255
182 212 255
182 212 255
182 212 255
182 212 255
182 212 255
182 212 255
182 212 255
182 212 255
183 212 255
183 212 255
183 212 255
183 212 255
183 212 255
183 212 255
183 212 255
183 212 255
183 212 255
183 212 255
183 212 255
183 212 255
183 212 255
183 212 255
183 212 255
183 212 255
183 212 255
183 212 255
183 212 255
183 212 255
183 212 255
183 212 255
183 212 255
183 212 255
183 212 255
183 212 255
183 212 255
184 212 255
184 212 255
184 212 255
184 212 255
184 212 255
184 212 255
184 212 255
184 212 255
184 212 255
184 212 255
184 213 255
184 213 255
184 213 255
184 213 255
184 213 255
184 213 255
184 213 255
184 213 255
184 213 255
184 213 255
184 213 255
184 213 255
184 213 255
184 213 255
184 213 255
184 213 255
184 213 255
184 213 255
184 213 255
184 213 255
184 213 255
185 213 255
185 213 255
185 213 255
185 213 255
185 213 255
185 213 255
185 213 255
185 213 255
185 213 255
185 213 255
185 213 255
185 213 255
185 213 255
185 213 255
185 213 255
185 213 255
185 213 255
185 213 255
185 213 255
185 213 255
185 213 255
185 213 255
185 213 255
185 213 255
185 213 255
185 213 255
185 213 255
185 213 255
185 213 255
185 213 255
185 213 255
185 213 255
185 213 255
185 213 255
185 213 255
185 213 255
185 213 255
185 213 255
185 213 255
186 214 255
186 214 255
186 214 255
186 214 255
186 214 255
186 214 255
186 214 255
186 214 255
186 214 255
186 214 255
186 214 255
186 214 255
186 214 255
186 214 255
186 214 255
186 214 255
186 214 255
186 214 255
186 214 255
186 214 255
186 214 255
186 214 255
186 214 255
186 214 255
186 214 255
186 214 255
186 214 255
185 213 255
185 213 255
185 213 255
185 213 255
185 213 255
185 213 255
185 213 255
185 213 255
185 213 255
185 213 255
185 213 255
185 213 255
185 213 255
185 213 255
185 213 255
185 213 255
185 213 255
185 213 255
185 213 255
185 213 255
185 213 255
185 213 255
185 213 255
185 213 255
185 213 255
185 213 255
185 213 255
185 213 255
185 213 255
185 213 255
185 213 255
185 213 255
185 213 255
185 213 255
185 213 255
185 213 255
185 213 255
184 213 255
184 213 255
184 213 255
184 213 255
184 213 255
184 213 255
184 213 255
184 213 255
184 213 255
184 213 255
184 213 255
184 213 255
184 213 255
184 213 255
184 213 255
184 213 255
184 213 255
184 213 255
184 213 255
184 213 255
184 213 255
184 212 255
184 212 255
184 212 255
184 212 255
184 212 255
184 212 255
184 212 255
184 212 255
184 212 255
184 212 255
183 212 255
183 212 255
183 212 255
183 212 255
183 212 255
183 212 255
183 212 255
183 212 255
183 212 255
183 212 255
183 212 255
183 212 255
183 212 255
183 212 255
183 212 255
183 212 255
183 212 255
183 212 255
183 212 255
183 212 255
183 212 255
183 212 255
183 212 255
183 212 255
183 212 255
183 212 255
183 212 255
182 212 255
182 212 255
182 212 255
182 212 255
182 212 255
182 212 255
182 212 255
182 212 255
182 212 255
182 212 255
182 211 255
182 211 255
182 211 255
182 211 255
182 211 255
182 211 255
182 211 255
182 211 255
182 211 255
182 211 255
182 211 255
182 211 255
182 211 255
84 102 129
63 79 102
68 84 107
67 83 106
62 76 97
63 78 100
63 79 102
65 82 106
66 81 104
69 84 106
62 77 98
65 80 102
62 77 99
67 82 106
65 81 105
64 79 102
62 77 100
67 82 105
66 81 104
63 78 99
61 77 99
63 79 103
62 77 99
64 79 101
64 79 100
65 80 102
62 77 99
65 80 102
63 79 103
61 76 99
63 78 102
61 76 98
66 81 104
60 75 96
68 83 105
65 80 103
65 80 104
62 78 101
66 81 102
65 81 104
63 79 104
64 78 99
64 81 105
67 83 108
63 78 102
65 81 106
62 77 100
66 81 105
68 83 106
65 80 103
64 80 103
65 79 101
69 84 107
61 76 99
66 82 106
70 86 110
58 73 95
65 80 103
62 77 98
65 79 102
66 81 104
66 82 106
61 76 98
68 83 106
64 80 103
62 76 98
64 80 103
65 81 105
68 85 109
61 77 101
64 79 102
66 80 102
67 83 107
62 76 98
66 80 103
66 81 104
69 84 107
64 79 102
63 78 101
63 78 101
63 78 100
63 78 101
67 83 107
62 78 101
66 80 103
65 81 104
65 81 104
66 82 104
65 81 104
63 78 99
60 76 99
63 79 102
62 77 99
65 80 103
61 76 98
64 79 101
62 76 97
63 78 100
69 85 109
64 79 103
66 81 104
63 78 100
64 78 100
65 81 104
64 78 100
65 80 103
62 78 101
69 85 110
66 82 104
64 80 102
63 78 101
61 76 99
68 85 109
67 84 108
64 79 102
63 77 99
64 79 101
62 77 100
64 79 101
67 82 106
66 82 105
69 85 110
62 77 99
87 105 132
182 211 255
182 211 255
182 211 255
182 211 255
182 211 255
182 211 255
182 211 255
182 211 255
182 211 255
182 211 255
182 211 255
182 211 255
182 211 255
182 211 255
182 212 255
182 212 255
182 212 255
182 212 255
182 212 255
182 212 255
182 212 255
182 212 255
183 212 255
183 212 255
183 212 255
183 212 255
183 212 255
183 212 255
183 212 255
183 212 255
183 212 255
183 212 255
183 212 255
183 212 255
183 212 255
183 212 255
183 212 255
183 212 255
183 212 255
183 212 255
183 212 255
183 212 255
183 212 255
183 212 255
183 212 255
183 212 255
183 212 255
183 212 255
183 212 255
183 212 255
184 212 255
184 212 255
184 212 255
184 212 255
184 212 255
184 212 255
184 212 255
184 212 255
184 212 255
184 212 255
184 213 255
184 213 255
184 213 255
184 213 255
184 213 255
184 213 255
184 213 255
184 213 255
184 213 255
184 213 255
184 213 255
184 213 255
184 213 255
184 213 255
184 213 255
184 213 255
184 213 255
184 213 255
184 213 255
184 213 255
185 213 255
185 213 255
185 213 255
185 213 255
185 213 255
185 213 255
185 213 255
185 213 255
185 213 255
185 213 255
185 213 255
185 213 255
185 213 255
185 213 255
185 213 255
185 213 255
185 213 255
185 213 255
185 213 255
185 213 255
185 213 255
185 213 255
185 213 255
185 213 255
185 213 255
185 213 255
185 213 255
185 213 255
185 213 255
185 213 255
185 213 255
185 213 255
185 213 255
185 213 255
185 213 255
185 213 255
185 213 255
185 213 255
186 214 255
186 214 255
186 214 255
186 214 255
186 214 255
186 214 255
186 214 255
186 214 255
186 214 255
186 214 255
186 214 255
186 214 255
186 214 255
186 214 255
186 214 255
186 214 255
186 214 255
186 214 255
186 214 255
186 214 255
186 214 255
186 214 255
186 214 255
186 214 255
186 214 255
186 214 255
186 214 255
186 214 255
186 214 255
186 214 255
186 214 255
186 214 255
186 214 255
186 214 255
186 214 255
186 214 255
186 214 255
186 214 255
186 214 255
186 214 255
186 214 255
186 214 255
186 214 255
186 214 255
186 214 255
186 214 255
186 214 255
186 214 255
186 214 255
186 214 255
186 214 255
186 214 255
185 213 255
185 213 255
185 213 255
185 213 255
185 213 255
185 213 255
185 213 255
185 213 255
185 213 255
185 213 255
185 213 255
185 213 255
185 213 255
185 213 255
185 213 255
185 213 255
185 213 255
185 213 255
185 213 255
185 213 255
185 213 255
185 213 255
185 213 255
185 213 255
185 213 255
185 213 255
185 213 255
185 213 255
185 213 255
185 213 255
185 213 255
185 213 255
185 213 255
185 213 255
185 213 255
185 213 255
185 213 255
184 213 255
184 213 255
184 213 255
184 213 255
184 213 255
184 213 255
184 213 255
184 213 255
184 213 255
184 213 255
184 213 255
184 213 255
184 213 255
184 213 255
184 213 255
184 213 255
184 213 255
184 213 255
184 213 255
184 213 255
184 212 255
184 212 255
184 212 255
184 212 255
184 212 255
184 212 255
184 212 255
184 212 255
184 212 255
184 212 255
184 212 255
183 212 255
183 212 255
183 212 255
183 212 255
183 212 255
183 212 255
183 212 255
183 212 255
183 212 255
183 212 255
183 212 255
183 212 255
183 212 255
183 212 255
183 212 255
183 212 255
183 212 255
183 212 255
183 212 255
183 212 255
183 212 255
183 212 255
183 212 255
183 212 255
183 212 255
183 212 255
183 212 255
182 212 255
182 212 255
182 212 255
182 212 255
182 212 255
182 212 255
182 212 255
182 212 255
182 212 255
182 212 255
162 189 229
64 80 103
65 81 104
65 81 104
64 79 101
67 82 105
65 80 102
65 80 103
62 78 101
63 78 100
67 84 109
61 75 97
64 80 105
64 78 99
62 75 96
64 80 103
65 79 101
67 83 107
63 79 102
62 78 101
65 80 103
66 81 104
66 82 107
64 78 100
65 81 104
63 78 101
64 78 100
68 83 106
67 83 108
62 77 99
65 80 104
60 73 93
67 82 106
64 80 103
66 82 106
65 80 102
66 81 105
63 79 102
60 74 94
64 79 102
59 74 96
65 80 104
64 79 101
59 72 93
63 78 101
61 75 96
65 81 105
63 78 101
66 82 105
66 82 106
62 77 100
63 78 100
65 81 104
63 78 99
63 79 103
66 81 104
61 77 100
63 79 103
67 83 107
65 80 104
62 77 100
64 79 102
63 79 102
62 77 99
63 77 99
64 79 102
62 77 100
65 81 105
63 79 102
61 77 100
62 78 101
62 77 100
63 77 99
69 85 108
69 85 109
63 79 103
61 77 99
68 82 104
61 75 97
66 82 105
66 82 105
66 83 107
63 77 99
61 76 97
67 83 106
64 80 104
63 77 99
64 79 101
60 74 96
68 84 107
62 77 98
61 76 98
61 76 98
63 78 100
61 77 100
63 78 100
61 75 96
62 77 99
62 77 101
64 80 103
59 73 93
63 79 102
67 83 106
63 78 100
64 79 100
61 75 97
61 75 97
69 85 109
67 83 105
64 80 103
65 80 102
61 77 101
62 77 99
60 74 96
68 82 104
66 83 108
58 72 94
64 79 102
65 80 104
61 76 99
64 79 101
63 78 101
66 82 105
63 79 102
67 83 105
168 196 238
182 212 255
182 212 255
182 212 255
182 212 255
182 212 255
182 212 255
182 212 255
182 212 255
182 212 255
183 212 255
183 212 255
183 212 255
183 212 255
183 212 255
183 212 255
183 212 255
183 212 255
183 212 255
183 212 255
183 212 255
183 212 255
183 212 255
183 212 255
183 212 255
183 212 255
183 212 255
183 212 255
183 212 255
183 212 255
183 212 255
183 212 255
183 212 255
183 212 255
183 212 255
183 212 255
183 212 255
183 212 255
183 212 255
184 212 255
184 212 255
184 212 255
184 212 255
184 212 255
184 212 255
184 212 255
184 212 255
184 212 255
184 213 255
184 213 255
184 213 255
184 213 255
184 213 255
184 213 255
184 213 255
184 213 255
184 213 255
184 213 255
184 213 255
184 213 255
184 213 255
184 213 255
184 213 255
184 213 255
184 213 255
184 213 255
184 213 255
184 213 255
184 213 255
185 213 255
185 213 255
185 213 255
185 213 255
185 213 255
185 213 255
185 213 255
185 213 255
185 213 255
185 213 255
185 213 255
185 213 255
185 213 255
185 213 255
185 213 255
185 213 255
185 213 255
185 213 255
185 213 255
185 213 255
185 213 255
185 213 255
185 213 255
185 213 255
185 213 255
185 213 255
185 213 255
185 213 255
185 213 255
185 213 255
185 213 255
185 213 255
185 213 255
185 213 255
185 213 255
185 213 255
185 213 255
186 214 255
186 214 255
186 214 255
186 214 255
186 214 255
186 214 255
186 214 255
186 214 255
186 214 255
186 214 255
186 214 255
186 214 255
186 214 255
186 214 255
186 214 255
186 214 255
186 214 255
186 214 255
186 214 255
186 214 255
186 214 255
186 214 255
186 214 255
186 214 255
186 214 255
186 214 255
186 214 255
186 214 255
186 214 255
186 214 255
186 214 255
186 214 255
186 214 255
186 214 255
186 214 255
186 214 255
186 214 255
186 214 255
186 214 255
186 214 255
186 214 255
186 214 255
186 214 255
186 214 255
186 214 255
186 214 255
186 214 255
186 214 255
186 214 255
186 214 255
186 214 255
186 214 255
186 214 255
186 214 255
186 214 255
186 214 255
186 214 255
186 214 255
186 214 255
186 214 255
186 214 255
186 214 255
186 214 255
186 214 255
186 214 255
186 214 255
186 214 255
186 214 255
186 214 255
186 214 255
186 214 255
186 214 255
186 214 255
186 214 255
186 214 255
186 214 255
186 214 255
186 214 255
185 213 255
185 213 255
185 213 255
185 213 255
185 213 255
185 213 255
185 213 255
185 213 255
185 213 255
185 213 255
185 213 255
185 213 255
185 213 255
185 213 255
185 213 255
185 213 255
185 213 255
185 213 255
185 213 255
185 213 255
185 213 255
185 213 255
185 213 255
185 213 255
185 213 255
185 213 255
185 213 255
185 213 255
185 213 255
185 213 255
185 213 255
185 213 255
185 213 255
185 213 255
185 213 255
185 213 255
184 213 255
184 213 255
184 213 255
184 213 255
184 213 255
184 213 255
184 213 255
184 213 255
184 213 255
184 213 255
184 213 255
184 213 255
184 213 255
184 213 255
184 213 255
184 213 255
184 213 255
184 213 255
184 213 255
184 213 255
184 212 255
184 212 255
184 212 255
184 212 255
184 212 255
184 212 255
184 212 255
184 212 255
184 212 255
184 212 255
183 212 255
183 212 255
183 212 255
183 212 255
183 212 255
183 212 255
183 212 255
183 212 255
183 212 255
183 212 255
183 212 255
183 212 255
183 212 255
183 212 255
183 212 255
183 212 255
183 212 255
183 212 255
183 212 255
183 212 255
183 212 255
183 212 255
183 212 255
183 212 255
183 212 255
133 157 193
66 82 105
61 76 98
67 82 105
63 79 102
67 83 106
63 78 101
66 83 108
66 82 106
64 80 103
65 80 103
61 76 99
68 86 112
61 76 98
64 79 102
62 77 100
63 79 101
67 83 108
68 83 105
66 81 105
65 80 103
63 77 99
65 80 102
59 73 95
64 79 102
63 78 100
71 87 111
66 82 106
64 79 101
66 81 104
59 74 96
66 82 106
63 77 98
63 79 101
65 81 104
67 82 106
64 79 101
63 78 101
70 87 111
64 79 102
68 83 106
63 77 98
63 78 100
63 78 101
65 80 103
65 80 104
63 77 98
62 78 101
63 78 101
65 81 105
58 72 93
68 84 108
62 77 99
66 81 105
65 81 103
64 79 100
61 75 97
62 77 100
67 83 107
64 79 101
62 77 100
63 78 100
62 75 95
61 76 98
64 80 103
67 84 109
61 75 96
62 77 100
61 75 97
63 78 100
66 83 107
63 78 100
65 80 104
65 80 102
69 85 108
64 79 101
64 79 101
68 84 107
65 80 101
68 85 111
58 72 94
66 81 104
62 77 100
60 74 95
64 79 103
66 80 103
64 79 103
58 72 93
65 80 103
59 74 97
66 81 105
63 78 101
65 81 104
65 79 101
60 75 97
61 75 97
61 76 98
65 80 103
65 81 105
61 76 98
62 77 100
65 81 105
66 81 103
66 82 105
60 75 97
66 82 106
63 78 100
62 76 98
61 75 96
65 79 101
66 81 103
63 77 99
63 78 100
68 83 106
66 81 103
63 78 99
61 75 98
61 76 98
68 84 108
63 78 101
65 81 105
66 80 102
63 79 102
63 78 101
66 82 105
127 149 182
183 212 255
183 212 255
183 212 255
183 212 255
183 212 255
183 212 255
183 212 255
183 212 255
183 212 255
183 212 255
183 212 255
183 212 255
183 212 255
183 212 255
183 212 255
183 212 255
183 212 255
183 212 255
183 212 255
183 212 255
183 212 255
183 212 255
183 212 255
183 212 255
183 212 255
184 212 255
184 212 255
184 212 255
184 212 255
184 212 255
184 212 255
184 212 255
184 212 255
184 212 255
184 212 255
184 213 255
184 213 255
184 213 255
184 213 255
184 213 255
184 213 255
184 213 255
184 213 255
184 213 255
184 213 255
184 213 255
184 213 255
184 213 255
184 213 255
184 213 255
184 213 255
184 213 255
184 213 255
184 213 255
184 213 255
184 213 255
185 213 255
185 213 255
185 213 255
185 213 255
185 213 255
185 213 255
185 213 255
185 213 255
185 213 255
185 213 255
185 213 255
185 213 255
185 213 255
185 213 255
185 213 255
185 213 255
185 213 255
185 213 255
185 213 255
185 213 255
185 213 255
185 213 255
185 213 255
185 213 255
185 213 255
185 213 255
185 213 255
185 213 255
185 213 255
185 213 255
185 213 255
185 213 255
185 213 255
185 213 255
185 213 255
186 214 255
186 214 255
186 214 255
186 214 255
186 214 255
186 214 255
186 214 255
186 214 255
186 214 255
186 214 255
186 214 255
186 214 255
186 214 255
186 214 255
186 214 255
186 214 255
186 214 255
186 214 255
186 214 255
186 214 255
186 214 255
186 214 255
186 214 255
186 214 255
186 214 255
186 214 255
186 214 255
186 214 255
186 214 255
186 214 255
186 214 255
186 214 255
186 214 255
186 214 255
186 214 255
186 214 255
186 214 255
186 214 255
186 214 255
186 214 255
186 214 255
186 214 255
186 214 255
186 214 255
186 214 255
186 214 255
187 214 255
187 214 255
187 214 255
187 214 255
187 214 255
187 214 255
187 214 255
187 214 255
187 214 255
187 214 255
187 214 255
187 214 255
187 214 255
187 214 255
186 214 255
186 214 255
186 214 255
186 214 255
186 214 255
186 214 255
186 214 255
186 214 255
186 214 255
186 214 255
186 214 255
186 214 255
186 214 255
186 214 255
186 214 255
186 214 255
186 214 255
186 214 255
186 214 255
186 214 255
186 214 255
186 214 255
186 214 255
186 214 255
186 214 255
186 214 255
186 214 255
186 214 255
186 214 255
186 214 255
186 214 255
186 214 255
186 214 255
186 214 255
186 214 255
186 214 255
186 214 255
186 214 255
186 214 255
186 214 255
186 214 255
186 214 255
186 214 255
186 214 255
186 214 255
185 213 255
185 213 255
185 213 255
185 213 255
185 213 255
185 213 255
185 213 255
185 213 255
185 213 255
185 213 255
185 213 255
185 213 255
185 213 255
185 213 255
185 213 255
185 213 255
185 213 255
185 213 255
185 213 255
185 213 255
185 213 255
185 213 255
185 213 255
185 213 255
185 213 255
185 213 255
185 213 255
185 213 255
185 213 255
185 213 255
185 213 255
185 213 255
185 213 255
185 213 255
185 213 255
184 213 255
184 213 255
184 213 255
184 213 255
184 213 255
184 213 255
184 213 255
184 213 255
184 213 255
184 213 255
184 213 255
184 213 255
184 213 255
184 213 255
184 213 255
184 213 255
184 213 255
184 213 255
184 213 255
184 213 255
184 213 255
184 212 255
184 212 255
184 212 255
184 212 255
184 212 255
184 212 255
184 212 255
184 212 255
184 212 255
184 212 255
183 212 255
183 212 255
183 212 255
183 212 255
183 212 255
183 212 255
183 212 255
183 212 255
183 212 255
183 212 255
183 212 255
183 212 255
94 113 141
65 80 103
66 81 103
64 79 102
66 81 105
61 76 99
65 80 102
64 80 103
67 83 107
66 82 106
66 82 104
60 76 99
67 82 104
63 78 101
61 76 99
67 84 108
66 80 101
67 83 106
68 83 105
68 83 106
61 76 98
63 78 101
65 80 102
65 80 103
67 83 106
64 80 104
68 84 108
64 80 103
62 77 100
59 73 94
66 81 105
63 77 99
62 77 99
66 82 104
63 78 102
65 79 102
64 78 99
62 78 100
64 79 102
65 81 104
66 81 103
62 77 99
62 76 98
61 75 96
68 84 108
65 80 104
66 80 103
64 79 101
59 73 94
64 79 102
65 80 104
65 80 104
67 84 108
65 81 104
66 82 106
63 78 100
64 79 102
63 78 99
64 79 101
65 80 102
64 79 100
62 76 98
67 82 104
57 71 93
60 74 95
65 80 101
64 79 102
63 78 101
64 79 103
61 76 97
67 82 104
61 77 100
64 78 100
63 78 100
64 78 100
58 72 94
64 79 101
64 78 100
61 76 98
62 78 102
61 76 97
61 75 96
64 79 102
67 81 103
67 82 106
60 75 97
69 86 111
65 80 102
60 74 95
66 83 108
60 76 98
61 75 96
64 80 104
68 83 106
62 77 99
60 74 95
67 81 104
68 83 107
64 79 101
62 76 99
63 78 100
63 78 101
64 78 100
68 83 105
64 78 100
67 82 105
62 77 100
68 84 108
62 77 98
67 82 106
61 75 97
63 79 102
66 81 103
63 77 99
64 79 103
63 77 99
68 83 107
64 79 102
67 83 107
60 75 96
63 78 101
69 85 109
64 80 104
68 85 110
62 77 100
105 125 154
183 212 255
183 212 255
183 212 255
183 212 255
183 212 255
183 212 255
183 212 255
183 212 255
183 212 255
183 212 255
183 212 255
184 212 255
184 212 255
184 212 255
184 212 255
184 212 255
184 212 255
184 212 255
184 212 255
184 212 255
184 212 255
184 212 255
184 213 255
184 213 255
184 213 255
184 213 255
184 213 255
184 213 255
184 213 255
184 213 255
184 213 255
184 213 255
184 213 255
184 213 255
184 213 255
184 213 255
184 213 255
184 213 255
184 213 255
184 213 255
184 213 255
184 213 255
184 213 255
185 213 255
185 213 255
185 213 255
185 213 255
185 213 255
185 213 255
185 213 255
185 213 255
185 213 255
185 213 255
185 213 255
185 213 255
185 213 255
185 213 255
185 213 255
185 213 255
185 213 255
185 213 255
185 213 255
185 213 255
185 213 255
185 213 255
185 213 255
185 213 255
185 213 255
185 213 255
185 213 255
185 213 255
185 213 255
185 213 255
185 213 255
185 213 255
185 213 255
185 213 255
185 213 255
185 213 255
186 214 255
186 214 255
186 214 255
186 214 255
186 214 255
186 214 255
186 214 255
186 214 255
186 214 255
186 214 255
186 214 255
186 214 255
186 214 255
186 214 255
186 214 255
186 214 255
186 214 255
186 214 255
186 214 255
186 214 255
186 214 255
186 214 255
186 214 255
186 214 255
186 214 255
186 214 255
186 214 255
186 214 255
186 214 255
186 214 255
186 214 255
186 214 255
186 214 255
186 214 255
186 214 255
186 214 255
186 214 255
186 214 255
186 214 255
186 214 255
186 214 255
186 214 255
186 214 255
186 214 255
187 214 255
187 214 255
187 214 255
187 214 255
187 214 255
187 214 255
187 214 255
187 214 255
187 214 255
187 214 255
187 214 255
187 214 255
187 214 255
187 214 255
187 214 255
187 214 255
187 214 255
187 214 255
187 214 255
187 214 255
187 214 255
187 214 255
187 214 255
187 214 255
187 214 255
187 214 255
187 214 255
187 214 255
187 214 255
187 214 255
187 214 255
187 214 255
187 214 255
187 214 255
187 214 255
187 214 255
187 214 255
187 214 255
187 214 255
187 214 255
187 214 255
187 214 255
187 214 255
187 214 255
186 214 255
186 214 255
186 214 255
186 214 255
186 214 255
186 214 255
186 214 255
186 214 255
186 214 255
186 214 255
186 214 255
186 214 255
186 214 255
186 214 255
186 214 255
186 214 255
186 214 255
186 214 255
186 214 255
186 214 255
186 214 255
186 214 255
186 214 255
186 214 255
186 214 255
186 214 255
186 214 255
186 214 255
186 214 255
186 214 255
186 214 255
186 214 255
186 214 255
186 214 255
186 214 255
186 214 255
186 214 255
186 214 255
186 214 255
186 214 255
186 214 255
186 214 255
185 213 255
185 213 255
185 213 255
185 213 255
185 213 255
185 213 255
185 213 255
185 213 255
185 213 255
185 213 255
185 213 255
185 213 255
185 213 255
185 213 255
185 213 255
185 213 255
185 213 255
185 213 255
185 213 255
185 213 255
185 213 255
185 213 255
185 213 255
185 213 255
185 213 255
185 213 255
185 213 255
185 213 255
185 213 255
185 213 255
185 213 255
185 213 255
185 213 255
185 213 255
185 213 255
184 213 255
184 213 255
184 213 255
184 213 255
184 213 255
184 213 255
184 213 255
184 213 255
184 213 255
184 213 255
184 213 255
184 213 255
184 213 255
184 213 255
184 213 255
184 213 255
184 213 255
184 213 255
184 213 255
184 213 255
184 213 255
184 213 255
184 213 255
184 212 255
184 212 255
184 212 255
184 212 255
184 212 255
184 212 255
181 210 253
69 85 110
64 78 100
60 74 95
65 80 103
65 80 103
62 77 100
66 81 104
64 80 103
62 78 100
66 82 107
71 87 111
64 79 103
63 78 100
68 84 109
65 80 103
64 78 100
64 79 101
61 76 99
66 80 102
58 71 91
59 73 93
57 71 93
64 80 104
68 83 105
63 78 101
66 82 105
65 80 103
65 82 106
62 77 100
59 74 97
64 78 99
68 84 107
65 81 104
66 81 104
62 77 100
60 74 96
65 81 104
65 80 104
65 81 104
68 83 107
63 77 99
61 76 97
62 77 100
64 79 101
63 77 100
64 79 101
64 78 100
61 76 98
62 76 98
59 74 97
60 75 96
60 75 96
61 76 99
65 79 100
65 80 103
61 77 100
62 77 99
62 78 101
61 76 98
61 76 98
63 77 98
64 80 103
69 85 110
66 81 104
60 75 97
66 82 106
64 79 102
67 83 107
64 79 101
62 78 101
65 80 104
64 78 100
60 75 98
64 79 101
67 82 106
63 78 101
64 80 103
64 79 102
64 79 102
65 79 101
62 75 96
62 78 100
63 78 100
64 79 101
63 79 102
66 82 106
64 78 100
63 78 100
62 77 100
63 78 100
60 74 95
63 78 101
62 76 98
61 76 97
66 81 104
66 82 105
64 79 101
60 75 97
64 79 102
65 79 101
66 83 107
64 80 104
65 81 104
62 76 98
66 82 105
65 81 105
64 80 103
61 75 97
63 78 101
65 80 103
65 80 102
63 78 100
62 76 98
61 76 97
67 83 106
64 78 101
62 77 101
63 77 97
64 80 104
64 80 103
59 73 94
63 78 102
59 73 94
63 78 100
66 82 106
78 94 118
181 209 252
184 212 255
184 212 255
184 212 255
184 212 255
184 212 255
184 212 255
184 213 255
184 213 255
184 213 255
184 213 255
184 213 255
184 213 255
184 213 255
184 213 255
184 213 255
184 213 255
184 213 255
184 213 255
184 213 255
184 213 255
184 213 255
184 213 255
184 213 255
184 213 255
184 213 255
184 213 255
184 213 255
184 213 255
185 213 255
185 213 255
185 213 255
185 213 255
185 213 255
185 213 255
185 213 255
185 213 255
185 213 255
185 213 255
185 213 255
185 213 255
185 213 255
185 213 255
185 213 255
185 213 255
185 213 255
185 213 255
185 213 255
185 213 255
185 213 255
185 213 255
185 213 255
185 213 255
185 213 255
185 213 255
185 213 255
185 213 255
185 213 255
185 213 255
185 213 255
185 213 255
185 213 255
185 213 255
185 213 255
185 213 255
186 214 255
186 214 255
186 214 255
186 214 255
186 214 255
186 214 255
186 214 255
186 214 255
186 214 255
186 214 255
186 214 255
186 214 255
186 214 255
186 214 255
186 214 255
186 214 255
186 214 255
186 214 255
186 214 255
186 214 255
186 214 255
186 214 255
186 214 255
186 214 255
186 214 255
186 214 255
186 214 255
186 214 255
186 214 255
186 214 255
186 214 255
186 214 255
186 214 255
186 214 255
186 214 255
186 214 255
186 214 255
186 214 255
186 214 255
186 214 255
186 214 255
186 214 255
187 214 255
187 214 255
187 214 255
187 214 255
187 214 255
187 214 255
187 214 255
187 214 255
187 214 255
187 214 255
187 214 255
187 214 255
187 214 255
187 214 255
187 214 255
187 214 255
187 214 255
187 214 255
187 214 255
187 214 255
187 214 255
187 214 255
187 214 255
187 214 255
187 214 255
187 214 255
187 214 255
187 214 255
187 214 255
187 214 255
187 215 255
187 215 255
187 215 255
187 215 255
187 215 255
187 215 255
187 215 255
187 215 255
187 215 255
187 214 255
187 214 255
187 214 255
187 214 255
187 214 255
187 214 255
187 214 255
187 214 255
187 214 255
187 214 255
187 214 255
187 214 255
187 214 255
187 214 255
187 214 255
187 214 255
187 214 255
187 214 255
187 214 255
187 214 255
187 214 255
187 214 255
187 214 255
187 214 255
187 214 255
187 214 255
187 214 255
187 214 255
187 214 255
187 214 255
187 214 255
187 214 255
187 214 255
187 214 255
187 214 255
186 214 255
187 214 255
186 214 255
186 214 255
186 214 255
186 214 255
186 214 255
186 214 255
186 214 255
186 214 255
186 214 255
186 214 255
186 214 255
186 214 255
186 214 255
186 214 255
186 214 255
186 214 255
186 214 255
186 214 255
186 214 255
186 214 255
186 214 255
186 214 255
186 214 255
186 214 255
186 214 255
186 214 255
186 214 255
186 214 255
186 214 255
186 214 255
186 214 255
186 214 255
186 214 255
186 214 255
186 214 255
186 214 255
186 214 255
186 214 255
186 214 255
186 214 255
186 214 255
186 214 255
185 213 255
185 213 255
185 213 255
185 213 255
185 213 255
185 213 255
185 213 255
185 213 255
185 213 255
185 213 255
185 213 255
185 213 255
185 213 255
185 213 255
185 213 255
185 213 255
185 213 255
185 213 255
185 213 255
185 213 255
185 213 255
185 213 255
185 213 255
185 213 255
185 213 255
185 213 255
185 213 255
185 213 255
185 213 255
185 213 255
185 213 255
185 213 255
185 213 255
185 213 255
185 213 255
184 213 255
184 213 255
184 213 255
184 213 255
184 213 255
184 213 255
184 213 255
184 213 255
184 213 255
184 213 255
184 213 255
184 213 255
184 213 255
166 193 233
62 76 99
64 79 101
61 76 97
64 79 102
63 78 102
65 81 105
66 80 103
65 80 102
62 77 98
56 70 91
65 80 102
61 76 99
62 79 104
66 81 103
63 77 99
64 79 101
61 75 98
64 80 103
64 80 103
63 79 102
65 80 103
60 74 96
62 78 100
62 78 101
59 73 95
61 76 99
62 76 98
62 77 100
66 81 105
65 81 104
63 78 100
67 82 105
66 81 104
67 84 109
65 80 102
64 80 103
63 78 100
65 80 103
62 77 99
62 77 98
63 78 100
56 70 92
59 74 95
61 77 100
65 79 102
63 77 99
64 79 102
58 72 93
62 77 98
64 79 102
65 79 102
58 73 94
60 75 98
61 75 97
64 80 103
63 77 99
65 80 102
65 80 102
61 75 97
58 72 94
65 80 103
63 78 101
58 73 94
63 79 101
58 73 96
63 77 98
63 78 99
64 79 102
62 76 98
63 79 102
65 80 102
60 74 95
67 83 107
66 82 104
63 78 99
65 80 103
65 80 102
67 82 104
65 80 103
63 78 101
61 76 97
65 80 102
65 80 103
62 76 97
59 74 96
65 81 105
62 77 100
62 78 102
64 80 103
61 75 97
64 79 101
60 75 97
66 81 104
61 75 97
64 80 103
59 74 95
63 78 99
64 79 102
62 78 101
61 75 96
63 78 100
63 78 101
59 73 94
66 80 102
60 75 97
62 77 99
62 77 99
66 81 104
60 75 96
62 76 97
63 79 102
64 79 102
70 87 111
61 76 97
64 80 103
64 80 104
62 77 99
64 80 103
69 85 110
62 77 100
64 80 103
64 79 101
67 83 107
66 81 104
63 79 102
60 75 97
161 187 227
184 213 255
184 213 255
184 213 255
184 213 255
184 213 255
184 213 255
184 213 255
184 213 255
184 213 255
184 213 255
184 213 255
184 213 255
184 213 255
185 213 255
185 213 255
185 213 255
185 213 255
185 213 255
185 213 255
185 213 255
185 213 255
185 213 255
185 213 255
185 213 255
185 213 255
185 213 255
185 213 255
185 213 255
185 213 255
185 213 255
185 213 255
185 213 255
185 213 255
185 213 255
185 213 255
185 213 255
185 213 255
185 213 255
185 213 255
185 213 255
185 213 255
185 213 255
185 213 255
185 213 255
185 213 255
185 213 255
185 213 255
185 213 255
186 214 255
186 214 255
186 214 255
186 214 255
186 214 255
186 214 255
186 214 255
186 214 255
186 214 255
186 214 255
186 214 255
186 214 255
186 214 255
186 214 255
186 214 255
186 214 255
186 214 255
186 214 255
186 214 255
186 214 255
186 214 255
186 214 255
186 214 255
186 214 255
186 214 255
186 214 255
186 214 255
186 214 255
186 214 255
186 214 255
186 214 255
186 214 255
186 214 255
186 214 255
186 214 255
186 214 255
186 214 255
186 214 255
186 214 255
186 214 255
186 214 255
186 214 255
186 214 255
187 214 255
187 214 255
187 214 255
187 214 255
187 214 255
187 214 255
187 214 255
187 214 255
187 214 255
187 214 255
187 214 255
187 214 255
187 214 255
187 214 255
187 214 255
187 214 255
187 214 255
187 214 255
187 214 255
187 214 255
187 214 255
187 214 255
187 214 255
187 214 255
187 214 255
187 214 255
187 214 255
187 214 255
187 214 255
187 214 255
187 214 255
187 214 255
187 214 255
187 214 255
187 214 255
187 215 255
187 215 255
187 215 255
187 215 255
187 215 255
187 215 255
187 215 255
187 215 255
187 215 255
187 215 255
188 215 255
188 215 255
188 215 255
188 215 255
188 215 255
188 215 255
188 215 255
187 215 255
187 215 255
187 215 255
187 215 255
187 215 255
187 215 255
187 215 255
187 215 255
187 215 255
187 215 255
187 215 255
187 215 255
187 215 255
187 215 255
187 215 255
187 215 255
187 215 255
187 215 255
187 215 255
187 215 255
187 214 255
187 214 255
187 214 255
187 214 255
187 214 255
187 214 255
187 214 255
187 214 255
187 214 255
187 214 255
187 214 255
187 214 255
187 214 255
187 214 255
187 214 255
187 214 255
187 214 255
187 214 255
187 214 255
187 214 255
187 214 255
187 214 255
187 214 255
187 214 255
187 214 255
187 214 255
187 214 255
187 214 255
187 214 255
187 214 255
187 214 255
187 214 255
187 214 255
187 214 255
186 214 255
186 214 255
186 214 255
186 214 255
186 214 255
186 214 255
186 214 255
186 214 255
186 214 255
186 214 255
186 214 255
186 214 255
186 214 255
186 214 255
186 214 255
186 214 255
186 214 255
186 214 255
186 214 255
186 214 255
186 214 255
186 214 255
186 214 255
186 214 255
186 214 255
186 214 255
186 214 255
186 214 255
186 214 255
186 214 255
186 214 255
186 214 255
186 214 255
186 214 255
186 214 255
186 214 255
186 214 255
186 214 255
186 214 255
186 214 255
186 214 255
186 214 255
186 214 255
185 213 255
185 213 255
185 213 255
185 213 255
185 213 255
185 213 255
185 213 255
185 213 255
185 213 255
185 213 255
185 213 255
185 213 255
185 213 255
185 213 255
185 213 255
185 213 255
185 213 255
185 213 255
185 213 255
185 213 255
185 213 255
185 213 255
185 213 255
185 213 255
185 213 255
185 213 255
185 213 255
185 213 255
185 213 255
185 213 255
185 213 255
185 213 255
127 149 183
67 82 106
61 76 97
65 81 105
60 75 97
63 78 101
61 75 97
67 82 106
63 78 101
59 74 97
66 82 107
67 83 106
63 78 100
64 80 103
65 80 102
65 80 103
62 77 100
66 81 103
65 80 103
57 71 93
66 81 103
62 76 97
63 77 99
64 80 103
61 75 97
63 77 99
59 73 93
64 78 99
64 79 102
61 76 97
61 75 96
66 81 104
64 79 101
63 78 101
64 78 100
65 81 105
64 79 101
64 79 101
63 78 100
65 80 102
61 75 97
62 78 102
59 74 95
63 79 103
62 76 97
62 77 99
61 75 97
62 76 98
63 78 101
65 80 103
69 84 108
61 75 97
59 73 94
56 69 89
64 79 102
61 77 99
62 77 99
64 79 100
60 74 95
62 77 101
64 79 102
61 76 97
65 80 103
62 77 99
68 83 106
60 73 94
65 81 105
65 81 104
59 74 96
67 81 104
59 74 96
65 81 103
65 80 103
64 79 100
59 73 95
61 76 97
62 76 98
59 73 93
65 81 105
66 82 105
60 74 95
63 77 98
69 85 110
63 76 97
64 79 102
67 83 107
64 79 102
63 78 101
63 78 101
59 74 95
67 83 106
63 77 98
61 75 96
63 77 99
63 79 103
60 75 97
64 80 103
60 73 94
60 75 97
66 82 106
65 80 102
68 83 106
65 81 103
64 78 99
69 85 108
66 80 102
62 77 99
62 76 98
64 80 103
63 78 100
65 81 104
65 79 100
62 77 100
62 77 99
63 78 99
63 78 100
63 79 102
63 78 101
63 78 101
65 81 104
62 76 98
68 85 109
64 79 102
62 78 100
59 74 97
62 77 100
63 77 99
134 157 191
185 213 255
185 213 255
185 213 255
185 213 255
185 213 255
185 213 255
185 213 255
185 213 255
185 213 255
185 213 255
185 213 255
185 213 255
185 213 255
185 213 255
185 213 255
185 213 255
185 213 255
185 213 255
185 213 255
185 213 255
185 213 255
185 213 255
185 213 255
185 213 255
185 213 255
185 213 255
185 213 255
185 213 255
185 213 255
185 213 255
185 213 255
185 213 255
185 213 255
186 214 255
186 214 255
186 214 255
186 214 255
186 214 255
186 214 255
186 214 255
186 214 255
186 214 255
186 214 255
186 214 255
186 214 255
186 214 255
186 214 255
186 214 255
186 214 255
186 214 255
186 214 255
186 214 255
186 214 255
186 214 255
186 214 255
186 214 255
186 214 255
186 214 255
186 214 255
186 214 255
186 214 255
186 214 255
186 214 255
186 214 255
186 214 255
186 214 255
186 214 255
186 214 255
186 214 255
186 214 255
186 214 255
186 214 255
186 214 255
186 214 255
186 214 255
187 214 255
187 214 255
187 214 255
187 214 255
187 214 255
187 214 255
187 214 255
187 214 255
187 214 255
187 214 255
187 214 255
187 214 255
187 214 255
187 214 255
187 214 255
187 214 255
187 214 255
187 214 255
187 214 255
187 214 255
187 214 255
187 214 255
187 214 255
187 214 255
187 214 255
187 214 255
187 214 255
187 214 255
187 214 255
187 214 255
187 214 255
187 214 255
187 214 255
187 215 255
187 215 255
187 215 255
187 215 255
187 215 255
187 215 255
187 215 255
187 215 255
187 215 255
187 215 255
187 215 255
187 215 255
187 215 255
187 215 255
187 215 255
187 215 255
187 215 255
187 215 255
187 215 255
187 215 255
187 215 255
188 215 255
188 215 255
188 215 255
188 215 255
188 215 255
188 215 255
188 215 255
188 215 255
188 215 255
188 215 255
188 215 255
188 215 255
188 215 255
188 215 255
188 215 255
188 215 255
188 215 255
188 215 255
188 215 255
188 215 255
188 215 255
188 215 255
188 215 255
188 215 255
188 215 255
188 215 255
188 215 255
188 215 255
188 215 255
188 215 255
188 215 255
188 215 255
188 215 255
187 215 255
187 215 255
187 215 255
187 215 255
187 215 255
187 215 255
187 215 255
187 215 255
187 215 255
187 215 255
187 215 255
187 215 255
187 215 255
187 215 255
187 215 255
187 215 255
187 215 255
187 215 255
187 214 255
187 214 255
187 214 255
187 214 255
187 214 255
187 214 255
187 214 255
187 214 255
187 214 255
187 214 255
187 214 255
187 214 255
187 214 255
187 214 255
187 214 255
187 214 255
187 214 255
187 214 255
187 214 255
187 214 255
187 214 255
187 214 255
187 214 255
187 214 255
187 214 255
187 214 255
187 214 255
187 214 255
187 214 255
187 214 255
187 214 255
187 214 255
187 214 255
187 214 255
186 214 255
186 214 255
186 214 255
186 214 255
186 214 255
186 214 255
186 214 255
186 214 255
186 214 255
186 214 255
186 214 255
186 214 255
186 214 255
186 214 255
186 214 255
186 214 255
186 214 255
186 214 255
186 214 255
186 214 255
186 214 255
186 214 255
186 214 255
186 214 255
186 214 255
186 214 255
186 214 255
186 214 255
186 214 255
186 214 255
186 214 255
186 214 255
186 214 255
186 214 255
186 214 255
186 214 255
186 214 255
186 214 255
186 214 255
186 214 255
186 214 255
186 214 255
185 213 255
185 213 255
185 213 255
185 213 255
185 213 255
185 213 255
185 213 255
185 213 255
185 213 255
185 213 255
185 213 255
185 213 255
185 213 255
185 213 255
185 213 255
185 213 255
112 132 161
66 81 104
64 78 99
64 80 104
62 77 101
62 76 98
65 80 103
60 74 96
62 78 101
61 75 96
60 75 97
62 77 99
63 77 100
62 77 99
63 78 101
66 81 104
63 79 102
65 80 101
65 80 104
66 81 102
63 78 101
64 79 100
66 82 106
62 77 98
61 75 97
61 75 97
64 79 100
63 78 99
67 82 105
61 75 97
60 74 95
65 82 106
58 73 94
61 75 96
63 78 100
57 71 92
61 77 99
63 78 101
66 81 104
61 76 97
64 79 102
63 79 102
64 79 102
62 77 99
64 79 102
66 82 106
64 79 101
65 79 101
66 81 104
61 75 96
64 79 100
58 71 91
63 78 99
63 78 101
65 79 101
65 80 103
63 78 102
66 81 103
61 76 98
63 78 100
61 77 100
59 73 94
64 79 102
61 76 97
62 77 100
61 75 96
60 74 94
62 77 100
60 74 95
65 81 105
63 78 101
63 78 101
60 75 96
59 73 95
67 83 107
63 79 102
62 78 100
63 78 101
63 78 102
63 78 99
62 77 101
65 80 102
67 82 103
62 77 99
63 78 100
64 78 100
63 79 102
60 75 96
61 76 98
57 71 92
63 77 98
55 69 89
62 77 99
65 80 103
65 81 103
65 80 103
62 77 99
62 76 97
59 74 95
63 78 101
64 79 101
64 79 101
66 81 105
64 79 102
64 80 103
62 75 95
64 80 102
61 76 98
67 82 104
65 80 102
64 79 102
64 79 102
62 75 96
62 78 101
61 76 99
66 81 103
62 77 99
60 74 96
66 82 106
69 85 108
63 78 101
65 80 103
58 73 95
63 78 101
63 77 99
63 78 100
61 76 99
102 121 149
185 213 255
185 213 255
185 213 255
185 213 255
185 213 255
185 213 255
185 213 255
185 213 255
185 213 255
185 213 255
185 213 255
185 213 255
185 213 255
185 213 255
185 213 255
185 213 255
186 214 255
186 214 255
186 214 255
186 214 255
186 214 255
186 214 255
186 214 255
186 214 255
186 214 255
186 214 255
186 214 255
186 214 255
186 214 255
186 214 255
186 214 255
186 214 255
186 214 255
186 214 255
186 214 255
186 214 255
186 214 255
186 214 255
186 214 255
186 214 255
186 214 255
186 214 255
186 214 255
186 214 255
186 214 255
186 214 255
186 214 255
186 214 255
186 214 255
186 214 255
186 214 255
186 214 255
186 214 255
186 214 255
186 214 255
186 214 255
186 214 255
186 214 255
187 214 255
187 214 255
187 214 255
187 214 255
187 214 255
187 214 255
187 214 255
187 214 255
187 214 255
187 214 255
187 214 255
187 214 255
187 214 255
187 214 255
187 214 255
187 214 255
187 214 255
187 214 255
187 214 255
187 214 255
187 214 255
187 214 255
187 214 255
187 214 255
187 214 255
187 214 255
187 214 255
187 214 255
187 214 255
187 214 255
187 214 255
187 214 255
187 214 255
187 215 255
187 215 255
187 215 255
187 215 255
187 215 255
187 215 255
187 215 255
187 215 255
187 215 255
187 215 255
187 215 255
187 215 255
187 215 255
187 215 255
187 215 255
187 215 255
187 215 255
187 215 255
187 215 255
188 215 255
188 215 255
188 215 255
188 215 255
188 215 255
188 215 255
188 215 255
188 215 255
188 215 255
188 215 255
188 215 255
188 215 255
188 215 255
188 215 255
188 215 255
188 215 255
188 215 255
188 215 255
188 215 255
188 215 255
188 215 255
188 215 255
188 215 255
188 215 255
188 215 255
188 215 255
188 215 255
188 215 255
188 215 255
188 215 255
188 215 255
188 215 255
188 215 255
188 215 255
188 215 255
188 215 255
188 215 255
188 215 255
188 215 255
188 215 255
188 215 255
188 215 255
188 215 255
188 215 255
188 215 255
188 215 255
188 215 255
188 215 255
188 215 255
188 215 255
188 215 255
188 215 255
188 215 255
188 215 255
188 215 255
188 215 255
188 215 255
188 215 255
188 215 255
188 215 255
188 215 255
188 215 255
188 215 255
188 215 255
188 215 255
188 215 255
188 215 255
188 215 255
188 215 255
188 215 255
187 215 255
187 215 255
187 215 255
187 215 255
187 215 255
187 215 255
187 215 255
187 215 255
187 215 255
187 215 255
187 215 255
187 215 255
187 215 255
187 215 255
187 215 255
187 215 255
187 215 255
187 215 255
187 215 255
187 215 255
187 214 255
187 214 255
187 214 255
187 214 255
187 214 255
187 214 255
187 214 255
187 214 255
187 214 255
187 214 255
187 214 255
187 214 255
187 214 255
187 214 255
187 214 255
187 214 255
187 214 255
187 214 255
187 214 255
187 214 255
187 214 255
187 214 255
187 214 255
187 214 255
187 214 255
187 214 255
187 214 255
187 214 255
187 214 255
187 214 255
187 214 255
187 214 255
186 214 255
186 214 255
186 214 255
186 214 255
186 214 255
186 214 255
186 214 255
186 214 255
186 214 255
186 214 255
186 214 255
186 214 255
186 214 255
186 214 255
186 214 255
186 214 255
186 214 255
186 214 255
186 214 255
186 214 255
186 214 255
186 214 255
186 214 255
186 214 255
186 214 255
186 214 255
186 214 255
186 214 255
186 214 255
186 214 255
186 214 255
186 214 255
186 214 255
186 214 255
186 214 255
186 214 255
186 214 255
186 214 255
186 214 255
186 214 255
82 100 125
62 76 98
62 76 97
59 73 95
60 75 96
63 78 99
62 77 99
68 84 108
65 80 102
64 79 101
62 77 100
64 80 104
61 75 97
64 79 102
62 78 101
66 80 102
62 77 99
63 78 101
67 82 105
58 71 92
65 81 104
58 72 93
65 81 104
67 82 104
63 78 99
62 77 99
64 79 101
62 76 98
65 80 102
62 77 100
64 79 100
66 82 105
65 81 103
64 79 102
63 77 99
59 74 96
63 77 99
64 78 99
67 83 108
62 76 98
61 76 98
60 74 94
65 80 103
64 80 102
63 78 100
60 74 94
66 81 103
61 75 98
65 80 102
61 75 97
65 80 103
62 77 99
62 78 101
63 77 99
67 81 103
62 77 99
63 78 100
64 80 104
64 79 102
60 75 98
63 78 99
61 76 97
67 82 106
63 78 101
64 79 101
63 79 103
63 77 99
64 78 100
63 78 100
65 80 104
62 76 97
63 79 102
63 79 102
60 74 95
67 81 104
62 77 98
62 77 100
66 81 103
63 77 99
61 76 99
60 74 95
63 77 98
66 82 105
63 78 100
65 80 103
64 79 101
62 76 98
64 80 104
66 81 103
60 74 96
63 78 100
61 76 97
61 75 97
62 77 100
65 79 102
62 76 98
62 77 100
58 72 92
64 78 100
59 75 97
60 75 98
63 76 96
63 77 99
63 79 102
67 82 106
65 80 103
61 76 99
63 78 101
62 77 99
62 76 98
66 81 104
65 80 101
61 77 99
66 81 104
65 79 102
66 82 106
67 81 104
65 79 101
61 76 98
65 81 105
66 80 102
60 75 96
61 76 99
64 78 99
64 80 103
64 79 102
65 79 101
84 101 127
186 214 255
186 214 255
186 214 255
186 214 255
186 214 255
186 214 255
186 214 255
186 214 255
186 214 255
186 214 255
186 214 255
186 214 255
186 214 255
186 214 255
186 214 255
186 214 255
186 214 255
186 214 255
186 214 255
186 214 255
186 214 255
186 214 255
186 214 255
186 214 255
186 214 255
186 214 255
186 214 255
186 214 255
186 214 255
186 214 255
186 214 255
186 214 255
186 214 255
186 214 255
186 214 255
186 214 255
186 214 255
186 214 255
186 214 255
187 214 255
187 214 255
187 214 255
187 214 255
187 214 255
187 214 255
187 214 255
187 214 255
187 214 255
187 214 255
187 214 255
187 214 255
187 214 255
187 214 255
187 214 255
187 214 255
187 214 255
187 214 255
187 214 255
187 214 255
187 214 255
187 214 255
187 214 255
187 214 255
187 214 255
187 214 255
187 214 255
187 214 255
187 214 255
187 214 255
187 214 255
187 214 255
187 214 255
187 215 255
187 215 255
187 215 255
187 215 255
187 215 255
187 215 255
187 215 255
187 215 255
187 215 255
187 215 255
187 215 255
187 215 255
187 215 255
187 215 255
187 215 255
187 215 255
187 215 255
187 215 255
187 215 255
187 215 255
188 215 255
188 215 255
188 215 255
188 215 255
188 215 255
188 215 255
188 215 255
188 215 255
188 215 255
188 215 255
188 215 255
188 215 255
188 215 255
188 215 255
188 215 255
188 215 255
188 215 255
188 215 255
188 215 255
188 215 255
188 215 255
188 215 255
188 215 255
188 215 255
188 215 255
188 215 255
188 215 255
188 215 255
188 215 255
188 215 255
188 215 255
188 215 255
188 215 255
188 215 255
188 215 255
188 215 255
188 215 255
188 215 255
188 215 255
188 215 255
188 215 255
188 215 255
188 215 255
188 215 255
188 215 255
188 215 255
188 215 255
188 215 255
188 215 255
188 215 255
188 215 255
188 215 255
188 215 255
188 215 255
188 215 255
188 215 255
188 215 255
188 215 255
188 215 255
188 215 255
188 215 255
188 215 255
188 215 255
188 215 255
188 215 255
188 215 255
188 215 255
188 215 255
188 215 255
188 215 255
188 215 255
188 215 255
188 215 255
188 215 255
188 215 255
188 215 255
188 215 255
188 215 255
188 215 255
188 215 255
188 215 255
188 215 255
188 215 255
188 215 255
188 215 255
188 215 255
188 215 255
188 215 255
188 215 255
188 215 255
188 215 255
188 215 255
188 215 255
188 215 255
188 215 255
188 215 255
188 215 255
188 215 255
188 215 255
188 215 255
188 215 255
188 215 255
188 215 255
188 215 255
188 215 255
188 215 255
188 215 255
188 215 255
188 215 255
187 215 255
187 215 255
187 215 255
187 215 255
187 215 255
187 215 255
187 215 255
187 215 255
187 215 255
187 215 255
187 215 255
187 215 255
187 215 255
187 215 255
187 215 255
187 215 255
187 215 255
187 215 255
187 214 255
187 214 255
187 214 255
187 214 255
187 214 255
187 214 255
187 214 255
187 214 255
187 214 255
187 214 255
187 214 255
187 214 255
187 214 255
187 214 255
187 214 255
187 214 255
187 214 255
187 214 255
187 214 255
187 214 255
187 214 255
187 214 255
187 214 255
187 214 255
187 214 255
187 214 255
187 214 255
187 214 255
187 214 255
187 214 255
187 214 255
187 214 255
186 214 255
186 214 255
186 214 255
186 214 255
186 214 255
186 214 255
186 214 255
186 214 255
186 214 255
186 214 255
186 214 255
186 214 255
186 214 255
186 214 255
186 214 255
186 214 255
186 214 255
186 214 255
186 214 255
186 214 255
181 208 249
67 83 107
66 81 104
64 79 102
62 78 100
63 78 99
60 74 95
62 77 99
60 75 96
62 76 98
59 73 94
64 79 101
66 80 102
64 79 102
63 78 101
59 73 94
61 76 97
59 73 94
63 78 100
61 75 97
63 78 99
64 80 103
63 78 101
64 78 99
64 79 102
62 77 100
61 75 97
62 77 99
65 81 104
68 83 105
59 73 93
62 76 97
61 75 97
62 77 99
63 78 100
72 87 110
64 79 100
64 79 102
61 74 95
63 77 99
69 84 107
63 78 101
59 72 92
64 79 102
66 81 105
63 78 100
63 77 97
65 81 103
64 79 101
65 80 102
64 79 101
62 77 100
63 78 101
59 74 95
68 84 108
62 77 99
59 73 94
66 81 103
63 78 101
65 80 101
64 80 102
62 78 101
61 76 98
60 75 96
63 78 101
62 77 100
61 76 99
63 77 99
69 85 109
64 79 102
60 75 96
64 78 100
63 78 101
64 79 101
59 74 95
64 78 100
57 71 92
58 72 92
65 80 102
62 78 101
61 75 97
62 76 97
63 79 102
63 78 100
64 79 101
68 82 103
64 79 101
64 78 100
59 73 95
60 75 97
62 77 98
64 79 100
61 76 97
64 79 103
69 85 107
63 79 102
60 73 94
60 74 96
63 78 100
65 81 105
61 75 96
61 75 96
59 73 94
62 77 99
63 78 100
63 77 99
63 78 100
65 81 104
62 76 98
62 78 101
62 76 98
65 80 103
63 78 99
65 80 103
63 78 101
61 76 99
62 77 99
66 82 105
63 77 97
64 78 101
62 77 99
64 78 100
65 80 103
58 72 92
68 84 107
63 77 98
63 77 98
65 80 102
66 82 105
182 209 250
186 214 255
186 214 255
186 214 255
186 214 255
186 214 255
186 214 255
186 214 255
186 214 255
186 214 255
186 214 255
186 214 255
186 214 255
186 214 255
186 214 255
186 214 255
186 214 255
186 214 255
186 214 255
186 214 255
187 214 255
187 214 255
187 214 255
187 214 255
187 214 255
187 214 255
187 214 255
187 214 255
187 214 255
187 214 255
187 214 255
187 214 255
187 214 255
187 214 255
187 214 255
187 214 255
187 214 255
187 214 255
187 214 255
187 214 255
187 214 255
187 214 255
187 214 255
187 214 255
187 214 255
187 214 255
187 214 255
187 214 255
187 214 255
187 214 255
187 214 255
187 214 255
187 215 255
187 215 255
187 215 255
187 215 255
187 215 255
187 215 255
187 215 255
187 215 255
187 215 255
187 215 255
187 215 255
187 215 255
187 215 255
187 215 255
187 215 255
187 215 255
187 215 255
187 215 255
187 215 255
188 215 255
188 215 255
188 215 255
188 215 255
188 215 255
188 215 255
188 215 255
188 215 255
188 215 255
188 215 255
188 215 255
188 215 255
188 215 255
188 215 255
188 215 255
188 215 255
188 215 255
188 215 255
188 215 255
188 215 255
188 215 255
188 215 255
188 215 255
188 215 255
188 215 255
188 215 255
188 215 255
188 215 255
188 215 255
188 215 255
188 215 255
188 215 255
188 215 255
188 215 255
188 215 255
188 215 255
188 215 255
188 215 255
188 215 255
188 215 255
188 215 255
188 215 255
188 215 255
188 215 255
188 215 255
188 215 255
188 215 255
188 215 255
188 215 255
188 215 255
188 215 255
188 215 255
188 215 255
188 215 255
188 215 255
188 215 255
188 215 255
188 215 255
188 215 255
188 215 255
188 215 255
188 215 255
188 215 255
188 215 255
188 215 255
189 215 255
189 215 255
189 215 255
189 215 255
189 215 255
189 215 255
189 215 255
189 215 255
189 215 255
189 215 255
189 215 255
189 215 255
189 215 255
189 215 255
189 215 255
189 215 255
189 215 255
189 215 255
189 215 255
189 215 255
188 215 255
188 215 255
188 215 255
188 215 255
188 215 255
188 215 255
188 215 255
188 215 255
188 215 255
188 215 255
188 215 255
188 215 255
188 215 255
188 215 255
188 215 255
188 215 255
188 215 255
188 215 255
188 215 255
188 215 255
188 215 255
188 215 255
188 215 255
188 215 255
188 215 255
188 215 255
188 215 255
188 215 255
188 215 255
188 215 255
188 215 255
188 215 255
188 215 255
188 215 255
188 215 255
188 215 255
188 215 255
188 215 255
188 215 255
188 215 255
188 215 255
188 215 255
188 215 255
188 215 255
188 215 255
188 215 255
188 215 255
188 215 255
188 215 255
188 215 255
188 215 255
188 215 255
188 215 255
188 215 255
188 215 255
188 215 255
188 215 255
188 215 255
188 215 255
188 215 255
188 215 255
188 215 255
188 215 255
188 215 255
188 215 255
188 215 255
187 215 255
187 215 255
187 215 255
187 215 255
187 215 255
187 215 255
187 215 255
187 215 255
187 215 255
187 215 255
187 215 255
187 215 255
187 215 255
187 215 255
187 215 255
187 215 255
187 215 255
187 215 255
187 215 255
187 214 255
187 214 255
187 214 255
187 214 255
187 214 255
187 214 255
187 214 255
187 214 255
187 214 255
187 214 255
187 214 255
187 214 255
187 214 255
187 214 255
187 214 255
187 214 255
187 214 255
187 214 255
187 214 255
187 214 255
187 214 255
187 214 255
187 214 255
187 214 255
187 214 255
187 214 255
187 214 255
187 214 255
187 214 255
187 214 255
167 193 231
61 76 98
62 77 100
61 76 99
65 80 103
64 79 101
65 81 104
64 79 101
65 81 104
63 78 100
62 76 96
66 80 102
64 79 103
65 79 101
63 78 101
57 71 92
66 80 102
61 76 98
65 79 101
63 78 100
66 82 106
62 76 98
60 75 97
65 79 100
60 74 95
60 74 96
62 75 95
65 79 100
65 80 103
61 76 97
63 78 100
58 72 93
62 77 99
62 77 100
65 80 104
62 77 99
65 80 102
61 76 99
59 73 94
61 76 97
64 80 103
62 77 99
69 84 108
61 75 96
64 79 102
66 82 106
66 81 103
63 78 101
65 80 102
62 76 99
66 80 102
61 75 97
64 79 101
64 78 98
65 80 102
64 80 103
63 76 97
63 78 100
64 78 100
67 81 102
63 78 100
61 75 96
60 73 93
63 78 100
63 78 100
66 82 106
63 78 101
62 77 99
64 79 102
62 77 99
64 80 103
63 78 101
59 74 95
62 77 99
60 75 96
63 78 101
64 79 102
63 78 101
61 76 98
58 73 95
61 75 97
62 77 99
64 78 100
61 76 98
65 79 100
61 76 97
61 76 98
61 75 97
66 81 104
62 77 99
59 73 95
64 78 99
63 78 101
60 75 97
66 81 103
68 83 106
62 76 99
62 77 100
66 81 105
67 82 104
64 78 100
59 73 94
60 74 96
58 72 93
63 78 101
60 74 94
64 79 101
63 77 99
60 74 94
62 77 99
63 78 101
60 76 99
64 79 102
67 82 106
65 80 103
59 73 95
68 83 105
62 76 98
62 77 100
63 78 101
61 77 99
62 76 97
59 74 95
65 82 106
62 75 94
62 76 98
63 77 99
63 78 101
67 83 106
174 200 239
187 214 255
187 214 255
187 214 255
187 214 255
187 214 255
187 214 255
187 214 255
187 214 255
187 214 255
187 214 255
187 214 255
187 214 255
187 214 255
187 214 255
187 214 255
187 214 255
187 214 255
187 214 255
187 214 255
187 214 255
187 214 255
187 214 255
187 214 255
187 214 255
187 214 255
187 214 255
187 214 255
187 214 255
187 214 255
187 214 255
187 215 255
187 215 255
187 215 255
187 215 255
187 215 255
187 215 255
187 215 255
187 215 255
187 215 255
187 215 255
187 215 255
187 215 255
187 215 255
187 215 255
187 215 255
187 215 255
187 215 255
187 215 255
187 215 255
188 215 255
188 215 255
188 215 255
188 215 255
188 215 255
188 215 255
188 215 255
188 215 255
188 215 255
188 215 255
188 215 255
188 215 255
188 215 255
188 215 255
188 215 255
188 215 255
188 215 255
188 215 255
188 215 255
188 215 255
188 215 255
188 215 255
188 215 255
188 215 255
188 215 255
188 215 255
188 215 255
188 215 255
188 215 255
188 215 255
188 215 255
188 215 255
188 215 255
188 215 255
188 215 255
188 215 255
188 215 255
188 215 255
188 215 255
188 215 255
188 215 255
188 215 255
188 215 255
188 215 255
188 215 255
188 215 255
188 215 255
188 215 255
188 215 255
188 215 255
188 215 255
188 215 255
188 215 255
188 215 255
188 215 255
188 215 255
188 215 255
188 215 255
188 215 255
188 215 255
188 215 255
188 215 255
188 215 255
188 215 255
188 215 255
188 215 255
188 215 255
189 215 255
189 215 255
189 215 255
189 215 255
189 215 255
189 215 255
189 215 255
189 215 255
189 215 255
189 215 255
189 215 255
189 215 255
189 215 255
189 215 255
189 215 255
189 215 255
189 215 255
189 215 255
189 215 255
189 216 255
189 216 255
189 216 255
189 216 255
189 216 255
189 216 255
189 216 255
189 216 255
189 216 255
189 216 255
189 216 255
189 216 255
189 216 255
189 216 255
189 216 255
189 215 255
189 215 255
189 215 255
189 215 255
189 215 255
189 215 255
189 215 255
189 215 255
189 215 255
189 215 255
189 215 255
189 215 255
189 215 255
189 215 255
189 215 255
189 215 255
189 215 255
189 215 255
189 215 255
189 215 255
189 215 255
189 215 255
189 215 255
189 215 255
189 215 255
189 215 255
189 215 255
189 215 255
189 215 255
189 215 255
189 215 255
188 215 255
188 215 255
188 215 255
188 215 255
188 215 255
188 215 255
188 215 255
188 215 255
188 215 255
188 215 255
188 215 255
188 215 255
188 215 255
188 215 255
188 215 255
188 215 255
188 215 255
188 215 255
188 215 255
188 215 255
188 215 255
188 215 255
188 215 255
188 215 255
188 215 255
188 215 255
188 215 255
188 215 255
188 215 255
188 215 255
188 215 255
188 215 255
188 215 255
188 215 255
188 215 255
188 215 255
188 215 255
188 215 255
188 215 255
188 215 255
188 215 255
188 215 255
188 215 255
188 215 255
188 215 255
188 215 255
188 215 255
188 215 255
188 215 255
188 215 255
188 215 255
188 215 255
188 215 255
188 215 255
188 215 255
188 215 255
188 215 255
188 215 255
188 215 255
188 215 255
188 215 255
188 215 255
188 215 255
188 215 255
188 215 255
187 215 255
187 215 255
187 215 255
187 215 255
187 215 255
187 215 255
187 215 255
187 215 255
187 215 255
187 215 255
187 215 255
187 215 255
187 215 255
187 215 255
187 215 255
187 215 255
187 215 255
187 215 255
187 214 255
187 214 255
187 214 255
187 214 255
187 214 255
187 214 255
148 170 204
69 84 107
63 78 100
61 75 96
61 76 98
64 79 101
61 75 97
64 79 101
61 76 99
60 75 97
62 77 99
58 71 92
61 76 98
64 80 103
61 76 99
60 74 95
61 75 97
59 72 92
63 78 101
63 78 101
63 77 99
59 73 94
62 76 98
61 75 96
62 77 100
60 76 99
62 76 97
62 77 100
62 76 99
63 77 99
70 86 111
66 81 104
59 73 93
62 76 98
59 73 94
64 78 100
59 73 94
63 78 101
62 76 98
65 79 101
63 78 100
62 77 99
63 78 99
64 79 102
61 76 97
62 77 100
63 77 99
60 74 95
66 81 103
64 79 101
64 79 102
67 82 105
63 77 99
63 78 99
61 76 99
64 79 101
69 85 108
62 77 99
66 82 104
66 82 107
60 75 97
62 77 98
61 76 98
60 73 94
62 76 97
58 72 94
63 77 99
64 78 101
63 78 100
63 79 102
63 77 99
62 77 99
62 76 97
63 78 100
66 81 105
62 77 99
65 80 102
66 81 104
57 70 91
65 80 102
61 75 95
63 77 98
62 77 99
62 76 98
62 76 97
64 79 102
63 79 102
62 77 99
63 78 100
60 74 97
66 80 102
65 81 104
63 78 99
57 72 93
62 76 98
63 78 101
62 76 98
62 77 99
60 74 94
66 80 102
61 76 98
64 78 101
65 79 101
66 82 105
63 79 103
59 74 97
63 78 100
62 77 98
63 77 98
62 77 100
61 76 98
61 76 98
65 80 102
65 81 104
59 73 95
62 77 100
63 78 100
61 75 97
61 75 96
57 71 92
62 77 98
65 80 102
63 78 101
59 74 95
62 77 99
60 75 97
64 79 101
67 82 104
63 78 100
139 162 195
187 214 255
187 214 255
187 214 255
187 214 255
187 214 255
187 214 255
187 215 255
187 215 255
187 215 255
187 215 255
187 215 255
187 215 255
187 215 255
187 215 255
187 215 255
187 215 255
187 215 255
187 215 255
187 215 255
187 215 255
187 215 255
187 215 255
187 215 255
187 215 255
188 215 255
188 215 255
188 215 255
188 215 255
188 215 255
188 215 255
188 215 255
188 215 255
188 215 255
188 215 255
188 215 255
188 215 255
188 215 255
188 215 255
188 215 255
188 215 255
188 215 255
188 215 255
188 215 255
188 215 255
188 215 255
188 215 255
188 215 255
188 215 255
188 215 255
188 215 255
188 215 255
188 215 255
188 215 255
188 215 255
188 215 255
188 215 255
188 215 255
188 215 255
188 215 255
188 215 255
188 215 255
188 215 255
188 215 255
188 215 255
188 215 255
188 215 255
188 215 255
188 215 255
188 215 255
188 215 255
188 215 255
188 215 255
188 215 255
188 215 255
188 215 255
188 215 255
188 215 255
188 215 255
188 215 255
188 215 255
188 215 255
188 215 255
188 215 255
188 215 255
188 215 255
188 215 255
188 215 255
188 215 255
188 215 255
189 215 255
188 215 255
188 215 255
189 215 255
189 215 255
189 215 255
189 215 255
189 215 255
189 215 255
189 215 255
189 215 255
189 215 255
189 215 255
189 215 255
189 215 255
189 215 255
189 215 255
189 215 255
189 215 255
189 215 255
189 215 255
189 215 255
189 215 255
189 215 255
189 215 255
189 215 255
189 215 255
189 215 255
189 215 255
189 215 255
189 215 255
189 216 255
189 216 255
189 216 255
189 216 255
189 216 255
189 216 255
189 216 255
189 216 255
189 216 255
189 216 255
189 216 255
189 216 255
189 216 255
189 216 255
189 216 255
189 216 255
189 216 255
189 216 255
189 216 255
189 216 255
189 216 255
189 216 255
189 216 255
189 216 255
189 216 255
189 216 255
189 216 255
189 216 255
189 216 255
189 216 255
189 216 255
189 216 255
189 216 255
189 216 255
189 216 255
189 216 255
189 216 255
189 216 255
189 216 255
189 216 255
189 216 255
189 216 255
189 216 255
189 216 255
189 216 255
189 216 255
189 216 255
189 216 255
189 216 255
189 216 255
189 216 255
189 216 255
189 216 255
189 216 255
189 216 255
189 216 255
189 216 255
189 216 255
189 216 255
189 215 255
189 215 255
189 215 255
189 215 255
189 215 255
189 215 255
189 215 255
189 215 255
189 215 255
189 215 255
189 215 255
189 215 255
189 215 255
189 215 255
189 215 255
189 215 255
189 215 255
189 215 255
189 215 255
189 215 255
189 215 255
189 215 255
189 215 255
189 215 255
189 215 255
189 215 255
188 215 255
188 215 255
188 215 255
188 215 255
188 215 255
188 215 255
188 215 255
188 215 255
188 215 255
188 215 255
188 215 255
188 215 255
188 215 255
188 215 255
188 215 255
188 215 255
188 215 255
188 215 255
188 215 255
188 215 255
188 215 255
188 215 255
188 215 255
188 215 255
188 215 255
188 215 255
188 215 255
188 215 255
188 215 255
188 215 255
188 215 255
188 215 255
188 215 255
188 215 255
188 215 255
188 215 255
188 215 255
188 215 255
188 215 255
188 215 255
188 215 255
188 215 255
188 215 255
188 215 255
188 215 255
188 215 255
188 215 255
188 215 255
188 215 255
188 215 255
188 215 255
188 215 255
188 215 255
188 215 255
188 215 255
188 215 255
188 215 255
188 215 255
188 215 255
188 215 255
188 215 255
188 215 255
188 215 255
188 215 255
188 215 255
132 153 185
63 78 101
64 79 102
61 75 95
60 75 98
64 79 102
64 78 99
59 73 94
62 77 98
62 77 100
65 80 102
63 78 101
58 72 93
64 79 101
63 78 101
65 80 103
65 80 102
63 78 101
64 79 101
63 78 100
65 80 102
64 79 101
57 71 91
63 77 99
58 72 93
62 76 98
64 79 102
61 75 97
62 76 98
61 76 98
64 80 103
64 79 101
65 79 101
63 77 99
65 80 102
61 76 98
60 74 95
61 75 97
57 72 95
67 82 105
59 73 93
60 74 96
65 81 104
62 77 98
64 79 101
60 74 94
61 75 96
64 79 102
63 77 98
61 75 97
62 76 97
63 77 98
64 79 102
65 80 102
64 79 102
61 76 99
64 79 102
58 72 92
56 71 93
64 79 101
59 72 92
59 74 97
64 78 100
58 71 91
67 83 105
62 76 97
63 79 101
62 77 99
64 79 101
62 76 98
64 79 100
61 75 95
65 81 104
61 76 98
65 80 103
60 74 95
61 74 95
57 70 90
62 75 95
64 80 103
63 78 102
60 74 96
64 79 102
64 78 100
61 76 98
65 79 101
62 77 99
64 79 100
64 79 100
66 80 101
64 80 103
63 78 100
64 79 101
60 74 95
61 76 98
62 76 96
57 72 93
62 76 96
65 80 102
62 77 98
56 69 90
65 80 102
62 76 98
58 71 92
64 79 101
62 77 98
63 77 98
59 74 97
61 76 97
62 77 99
60 74 95
65 79 102
63 78 100
57 70 89
64 79 102
65 80 103
60 74 94
60 75 98
63 78 100
60 75 97
60 75 98
64 79 102
63 78 101
61 75 96
65 80 103
62 77 100
63 77 99
58 71 92
65 80 102
118 138 168
188 215 255
188 215 255
188 215 255
188 215 255
188 215 255
188 215 255
188 215 255
188 215 255
188 215 255
188 215 255
188 215 255
188 215 255
188 215 255
188 215 255
188 215 255
188 215 255
188 215 255
188 215 255
188 215 255
188 215 255
188 215 255
188 215 255
188 215 255
188 215 255
188 215 255
188 215 255
188 215 255
188 215 255
188 215 255
188 215 255
188 215 255
188 215 255
188 215 255
188 215 255
188 215 255
188 215 255
188 215 255
188 215 255
188 215 255
188 215 255
188 215 255
188 215 255
188 215 255
188 215 255
188 215 255
188 215 255
188 215 255
188 215 255
188 215 255
188 215 255
188 215 255
188 215 255
188 215 255
188 215 255
188 215 255
188 215 255
188 215 255
188 215 255
188 215 255
188 215 255
188 215 255
188 215 255
188 215 255
188 215 255
189 215 255
189 215 255
189 215 255
189 215 255
189 215 255
189 215 255
189 215 255
189 215 255
189 215 255
189 215 255
189 215 255
189 215 255
189 215 255
189 215 255
189 215 255
189 215 255
189 215 255
189 215 255
189 215 255
189 215 255
189 215 255
189 215 255
189 215 255
189 215 255
189 215 255
189 216 255
189 216 255
189 216 255
189 216 255
189 216 255
189 216 255
189 216 255
189 216 255
189 216 255
189 216 255
189 216 255
189 216 255
189 216 255
189 216 255
189 216 255
189 216 255
189 216 255
189 216 255
189 216 255
189 216 255
189 216 255
189 216 255
189 216 255
189 216 255
189 216 255
189 216 255
189 216 255
189 216 255
189 216 255
189 216 255
189 216 255
189 216 255
189 216 255
189 216 255
189 216 255
189 216 255
189 216 255
189 216 255
189 216 255
189 216 255
189 216 255
189 216 255
189 216 255
189 216 255
189 216 255
189 216 255
190 216 255
190 216 255
190 216 255
190 216 255
190 216 255
190 216 255
190 216 255
189 216 255
190 216 255
189 216 255
189 216 255
189 216 255
189 216 255
189 216 255
189 216 255
189 216 255
189 216 255
189 216 255
189 216 255
189 216 255
189 216 255
189 216 255
189 216 255
189 216 255
189 216 255
189 216 255
189 216 255
189 216 255
189 216 255
189 216 255
189 216 255
189 216 255
189 216 255
189 216 255
189 216 255
189 216 255
189 216 255
189 216 255
189 216 255
189 216 255
189 216 255
189 216 255
189 216 255
189 216 255
189 216 255
189 216 255
189 216 255
189 216 255
189 216 255
189 216 255
189 216 255
189 216 255
189 216 255
189 216 255
189 216 255
189 216 255
189 216 255
189 216 255
189 216 255
189 216 255
189 216 255
189 216 255
189 216 255
189 216 255
189 216 255
189 216 255
189 216 255
189 216 255
189 216 255
189 216 255
189 216 255
189 216 255
189 216 255
189 216 255
189 216 255
189 216 255
189 215 255
189 215 255
189 215 255
189 215 255
189 215 255
189 215 255
189 215 255
189 215 255
189 215 255
189 215 255
189 215 255
189 215 255
189 215 255
189 215 255
189 215 255
189 215 255
189 215 255
189 215 255
189 215 255
189 215 255
189 215 255
189 215 255
189 215 255
189 215 255
189 215 255
189 215 255
188 215 255
188 215 255
188 215 255
188 215 255
188 215 255
188 215 255
188 215 255
188 215 255
188 215 255
188 215 255
188 215 255
188 215 255
188 215 255
188 215 255
188 215 255
188 215 255
188 215 255
188 215 255
188 215 255
188 215 255
188 215 255
188 215 255
188 215 255
188 215 255
188 215 255
188 215 255
188 215 255
188 215 255
188 215 255
188 215 255
188 215 255
188 215 255
188 215 255
112 132 162
66 81 103
64 79 101
63 78 101
57 71 92
61 76 98
65 80 102
62 76 97
63 78 101
61 75 95
60 75 96
64 78 98
59 74 96
57 71 91
62 76 97
66 81 103
64 78 100
63 77 98
61 75 97
65 79 101
64 79 101
62 77 99
66 82 105
61 75 96
63 78 100
62 76 97
58 71 90
60 74 95
61 76 98
62 76 97
60 74 96
59 74 95
62 76 97
62 77 99
60 74 95
64 79 103
64 80 103
62 77 100
60 74 95
67 82 104
65 80 101
63 77 97
66 81 104
62 76 98
63 77 99
61 75 96
60 75 96
67 81 103
61 75 96
65 79 101
67 82 105
65 80 102
60 74 95
62 75 96
63 77 98
65 80 103
62 76 99
65 80 102
59 73 94
63 77 98
63 79 101
60 74 95
64 79 101
60 73 94
61 75 96
65 79 99
66 81 102
62 76 97
61 76 99
61 76 98
62 77 99
59 73 95
58 71 92
63 77 99
62 76 98
61 75 96
63 78 101
63 77 98
61 75 97
61 75 98
64 79 102
60 75 97
65 81 104
60 74 96
62 77 99
64 79 101
66 81 104
60 74 94
64 79 100
60 74 95
63 77 99
66 81 104
64 79 101
60 74 95
61 75 96
62 77 99
59 73 96
62 77 99
59 73 94
63 77 99
60 74 96
66 81 104
62 76 97
61 75 97
63 76 96
63 77 98
61 76 97
60 74 95
64 79 101
62 76 98
59 73 94
61 75 95
64 78 100
58 72 92
63 79 102
58 72 93
67 82 105
61 74 95
58 72 92
62 77 100
63 79 102
61 75 98
63 77 99
63 77 99
59 74 95
62 76 97
61 75 96
66 81 104
64 78 100
127 148 180
188 215 255
188 215 255
188 215 255
188 215 255
188 215 255
188 215 255
188 215 255
188 215 255
188 215 255
188 215 255
188 215 255
188 215 255
188 215 255
188 215 255
188 215 255
188 215 255
188 215 255
188 215 255
188 215 255
188 215 255
188 215 255
188 215 255
188 215 255
188 215 255
188 215 255
188 215 255
188 215 255
188 215 255
188 215 255
188 215 255
188 215 255
188 215 255
189 215 255
188 215 255
189 215 255
189 215 255
189 215 255
189 215 255
189 215 255
189 215 255
189 215 255
189 215 255
189 215 255
189 215 255
189 215 255
189 215 255
189 215 255
189 215 255
189 215 255
189 215 255
189 215 255
189 215 255
189 215 255
189 215 255
189 215 255
189 215 255
189 215 255
189 215 255
189 215 255
189 215 255
189 216 255
189 216 255
189 216 255
189 216 255
189 216 255
189 216 255
189 216 255
189 216 255
189 216 255
189 216 255
189 216 255
189 216 255
189 216 255
189 216 255
189 216 255
189 216 255
189 216 255
189 216 255
189 216 255
189 216 255
189 216 255
189 216 255
189 216 255
189 216 255
189 216 255
189 216 255
189 216 255
189 216 255
189 216 255
189 216 255
189 216 255
189 216 255
189 216 255
189 216 255
189 216 255
189 216 255
189 216 255
189 216 255
189 216 255
189 216 255
189 216 255
189 216 255
189 216 255
189 216 255
189 216 255
189 216 255
189 216 255
189 216 255
189 216 255
189 216 255
189 216 255
189 216 255
189 216 255
189 216 255
189 216 255
189 216 255
189 216 255
189 216 255
189 216 255
189 216 255
189 216 255
189 216 255
189 216 255
189 216 255
189 216 255
189 216 255
189 216 255
189 216 255
189 216 255
190 216 255
190 216 255
190 216 255
190 216 255
190 216 255
190 216 255
190 216 255
190 216 255
190 216 255
190 216 255
190 216 255
190 216 255
190 216 255
190 216 255
190 216 255
190 216 255
190 216 255
190 216 255
190 216 255
190 216 255
190 216 255
190 216 255
190 216 255
190 216 255
190 216 255
190 216 255
190 216 255
190 216 255
190 216 255
190 216 255
190 216 255
190 216 255
190 216 255
190 216 255
190 216 255
190 216 255
190 216 255
190 216 255
190 216 255
190 216 255
190 216 255
190 216 255
190 216 255
190 216 255
190 216 255
190 216 255
190 216 255
190 216 255
190 216 255
189 216 255
190 216 255
189 216 255
189 216 255
189 216 255
189 216 255
189 216 255
189 216 255
189 216 255
189 216 255
189 216 255
189 216 255
189 216 255
189 216 255
189 216 255
189 216 255
189 216 255
189 216 255
189 216 255
189 216 255
189 216 255
189 216 255
189 216 255
189 216 255
189 216 255
189 216 255
189 216 255
189 216 255
189 216 255
189 216 255
189 216 255
189 216 255
189 216 255
189 216 255
189 216 255
189 216 255
189 216 255
189 216 255
189 216 255
189 216 255
189 216 255
189 216 255
189 216 255
189 216 255
189 216 255
189 216 255
189 216 255
189 216 255
189 216 255
189 216 255
189 216 255
189 216 255
189 216 255
189 216 255
189 216 255
189 216 255
189 216 255
189 216 255
189 216 255
189 216 255
189 216 255
189 216 255
189 216 255
189 216 255
189 216 255
189 216 255
189 215 255
189 216 255
189 215 255
189 215 255
189 215 255
189 215 255
189 215 255
189 215 255
189 215 255
189 215 255
189 215 255
189 215 255
189 215 255
189 215 255
189 215 255
189 215 255
189 215 255
189 215 255
189 215 255
189 215 255
189 215 255
189 215 255
189 215 255
189 215 255
189 215 255
189 215 255
99 117 144
60 76 98
63 76 97
63 78 101
61 75 97
61 76 98
60 75 98
61 76 98
62 77 98
65 80 103
63 77 97
61 75 97
61 76 98
64 79 102
65 80 102
62 76 97
61 76 98
64 79 101
63 78 100
59 73 94
63 78 100
62 77 100
61 75 96
60 74 95
64 79 102
64 79 102
60 74 96
61 75 96
62 76 99
66 81 104
63 78 99
63 78 99
65 80 103
60 75 97
63 77 99
64 78 100
62 76 96
60 74 95
62 76 98
62 76 97
64 78 100
67 82 105
61 75 97
65 81 105
59 73 93
67 83 106
63 78 101
66 80 102
62 77 99
63 77 98
62 77 100
63 77 99
61 75 95
62 77 98
61 75 95
61 76 98
63 77 99
59 74 96
66 82 105
63 78 99
62 77 99
66 80 102
61 76 98
63 77 97
64 79 102
61 75 97
64 79 103
61 75 97
59 73 95
58 72 93
61 75 95
61 75 97
61 74 95
59 73 94
61 76 98
64 79 101
58 71 92
59 74 96
62 78 101
61 76 97
62 77 99
62 76 97
64 79 102
66 81 104
66 81 103
63 79 101
60 73 94
62 77 99
61 75 95
63 78 102
66 80 102
62 77 98
57 70 91
64 79 103
62 77 98
59 74 95
64 79 101
61 76 98
58 73 94
62 76 98
61 75 96
67 83 106
66 81 103
62 77 99
63 78 101
63 78 101
61 75 98
56 70 90
62 77 99
62 76 98
69 84 106
63 77 98
60 73 93
65 81 104
64 80 103
65 80 103
59 73 94
63 77 99
58 72 92
65 80 103
67 83 107
64 78 99
60 75 96
64 79 102
61 75 96
63 78 100
63 78 100
60 75 96
63 77 99
97 114 141
189 215 255
189 215 255
189 215 255
189 215 255
189 215 255
189 215 255
189 215 255
189 215 255
189 215 255
189 215 255
189 215 255
189 215 255
189 215 255
189 215 255
189 215 255
189 215 255
189 215 255
189 215 255
189 215 255
189 215 255
189 215 255
189 215 255
189 215 255
189 215 255
189 215 255
189 216 255
189 216 255
189 216 255
189 216 255
189 216 255
189 216 255
189 216 255
189 216 255
189 216 255
189 216 255
189 216 255
189 216 255
189 216 255
189 216 255
189 216 255
189 216 255
189 216 255
189 216 255
189 216 255
189 216 255
189 216 255
189 216 255
189 216 255
189 216 255
189 216 255
189 216 255
189 216 255
189 216 255
189 216 255
189 216 255
189 216 255
189 216 255
189 216 255
189 216 255
189 216 255
189 216 255
189 216 255
189 216 255
189 216 255
189 216 255
189 216 255
189 216 255
189 216 255
189 216 255
189 216 255
189 216 255
189 216 255
189 216 255
189 216 255
189 216 255
189 216 255
189 216 255
189 216 255
189 216 255
189 216 255
189 216 255
189 216 255
189 216 255
189 216 255
189 216 255
189 216 255
189 216 255
189 216 255
189 216 255
189 216 255
190 216 255
190 216 255
190 216 255
190 216 255
190 216 255
190 216 255
190 216 255
190 216 255
190 216 255
190 216 255
190 216 255
190 216 255
190 216 255
190 216 255
190 216 255
190 216 255
190 216 255
190 216 255
190 216 255
190 216 255
190 216 255
190 216 255
190 216 255
190 216 255
190 216 255
190 216 255
190 216 255
190 216 255
190 216 255
190 216 255
190 216 255
190 216 255
190 216 255
190 216 255
190 216 255
190 216 255
190 216 255
190 216 255
190 216 255
190 216 255
190 216 255
190 216 255
190 216 255
190 216 255
190 216 255
190 216 255
190 216 255
190 216 255
190 216 255
190 216 255
190 216 255
190 216 255
190 216 255
190 216 255
190 216 255
190 216 255
190 216 255
190 216 255
190 216 255
190 216 255
190 216 255
190 216 255
190 216 255
190 216 255
190 216 255
190 216 255
190 216 255
190 216 255
190 216 255
190 216 255
190 216 255
190 216 255
190 216 255
190 216 255
190 216 255
190 216 255
190 216 255
190 216 255
190 216 255
190 216 255
190 216 255
190 216 255
190 216 255
190 216 255
190 216 255
190 216 255
190 216 255
190 216 255
190 216 255
190 216 255
190 216 255
190 216 255
190 216 255
190 216 255
190 216 255
190 216 255
190 216 255
190 216 255
190 216 255
190 216 255
190 216 255
190 216 255
190 216 255
190 216 255
190 216 255
190 216 255
190 216 255
190 216 255
190 216 255
190 216 255
190 216 255
190 216 255
190 216 255
190 216 255
190 216 255
190 216 255
190 216 255
190 216 255
190 216 255
190 216 255
190 216 255
190 216 255
190 216 255
190 216 255
190 216 255
190 216 255
190 216 255
190 216 255
190 216 255
190 216 255
190 216 255
189 216 255
189 216 255
189 216 255
189 216 255
189 216 255
189 216 255
189 216 255
189 216 255
189 216 255
189 216 255
189 216 255
189 216 255
189 216 255
189 216 255
189 216 255
189 216 255
189 216 255
189 216 255
189 216 255
189 216 255
189 216 255
189 216 255
189 216 255
189 216 255
189 216 255
189 216 255
189 216 255
189 216 255
189 216 255
189 216 255
189 216 255
189 216 255
189 216 255
189 216 255
189 216 255
189 216 255
189 216 255
189 216 255
189 216 255
189 216 255
189 216 255
189 216 255
189 216 255
189 216 255
189 216 255
189 216 255
189 216 255
189 216 255
189 216 255
97 114 139
64 79 102
61 74 94
63 78 100
62 76 98
64 79 102
61 77 100
63 78 101
65 80 103
62 78 101
61 76 97
65 80 102
58 73 96
66 80 102
61 76 98
61 75 96
65 80 103
63 78 100
66 81 103
66 82 106
59 73 94
64 78 99
62 76 97
64 78 99
59 73 93
63 77 99
60 75 98
62 76 97
65 80 103
67 81 103
61 76 98
60 75 97
62 76 98
62 77 99
62 77 99
65 80 102
58 73 95
65 80 102
60 74 95
65 80 103
63 78 100
64 79 100
64 78 100
61 75 96
63 78 101
63 78 99
61 75 96
68 83 106
61 75 97
63 78 99
64 79 100
57 71 92
62 78 101
61 76 98
63 78 101
60 74 95
64 80 104
60 74 94
59 74 95
62 76 97
61 76 97
61 75 96
63 77 99
63 77 98
58 72 93
65 80 102
59 73 94
62 77 99
64 79 101
60 75 97
59 73 94
62 76 97
60 75 96
61 75 96
59 73 95
63 78 100
60 75 97
61 75 95
59 72 91
66 82 106
63 78 100
63 78 101
62 77 99
61 76 99
59 73 94
61 75 96
63 77 99
62 76 96
61 76 98
61 76 98
59 73 93
60 74 95
63 77 98
59 72 92
61 75 97
60 75 96
67 81 103
61 75 95
60 74 95
63 77 99
61 75 96
63 79 102
64 79 102
60 74 95
60 74 95
63 78 101
60 74 96
66 81 103
60 74 96
59 73 93
60 74 95
67 83 105
59 73 94
64 78 100
64 79 101
59 74 97
63 78 99
60 73 94
63 78 101
63 78 101
68 84 108
61 75 96
60 75 97
63 78 100
61 76 97
59 74 95
60 75 98
63 78 100
66 81 104
95 112 138
189 216 255
189 216 255
189 216 255
189 216 255
189 216 255
189 216 255
189 216 255
189 216 255
189 216 255
189 216 255
189 216 255
189 216 255
189 216 255
189 216 255
189 216 255
189 216 255
189 216 255
189 216 255
189 216 255
189 216 255
189 216 255
189 216 255
189 216 255
189 216 255
189 216 255
189 216 255
189 216 255
189 216 255
189 216 255
189 216 255
189 216 255
189 216 255
189 216 255
189 216 255
189 216 255
189 216 255
189 216 255
189 216 255
189 216 255
189 216 255
189 216 255
189 216 255
189 216 255
189 216 255
189 216 255
189 216 255
190 216 255
189 216 255
190 216 255
190 216 255
190 216 255
190 216 255
190 216 255
190 216 255
190 216 255
190 216 255
190 216 255
190 216 255
190 216 255
190 216 255
190 216 255
190 216 255
190 216 255
190 216 255
190 216 255
190 216 255
190 216 255
190 216 255
190 216 255
190 216 255
190 216 255
190 216 255
190 216 255
190 216 255
190 216 255
190 216 255
190 216 255
190 216 255
190 216 255
190 216 255
190 216 255
190 216 255
190 216 255
190 216 255
190 216 255
190 216 255
190 216 255
190 216 255
190 216 255
190 216 255
190 216 255
190 216 255
190 216 255
190 216 255
190 216 255
190 216 255
190 216 255
190 216 255
190 216 255
190 216 255
190 216 255
190 216 255
190 216 255
190 216 255
190 216 255
190 216 255
190 216 255
190 216 255
190 216 255
190 216 255
190 216 255
190 216 255
190 216 255
190 216 255
190 216 255
190 216 255
190 216 255
190 216 255
190 216 255
190 216 255
190 216 255
190 216 255
190 216 255
190 216 255
190 216 255
190 216 255
190 216 255
190 216 255
190 216 255
190 216 255
190 216 255
190 216 255
190 216 255
190 216 255
190 216 255
190 216 255
190 216 255
190 216 255
190 216 255
190 216 255
190 216 255
190 216 255
190 216 255
190 216 255
190 216 255
190 216 255
190 216 255
190 216 255
190 216 255
190 216 255
190 216 255
190 216 255
190 216 255
190 216 255
190 216 255
190 216 255
190 216 255
190 216 255
190 216 255
190 216 255
190 216 255
190 216 255
190 216 255
190 216 255
190 216 255
190 216 255
190 216 255
190 216 255
190 216 255
190 216 255
190 216 255
190 216 255
190 216 255
190 216 255
190 216 255
190 216 255
190 216 255
190 216 255
190 216 255
190 216 255
190 216 255
190 216 255
190 216 255
190 216 255
190 216 255
190 216 255
190 216 255
190 216 255
190 216 255
190 216 255
190 216 255
190 216 255
190 216 255
190 216 255
190 216 255
190 216 255
190 216 255
190 216 255
190 216 255
190 216 255
190 216 255
190 216 255
190 216 255
190 216 255
190 216 255
190 216 255
190 216 255
190 216 255
190 216 255
190 216 255
190 216 255
190 216 255
190 216 255
190 216 255
190 216 255
190 216 255
190 216 255
190 216 255
190 216 255
190 216 255
190 216 255
190 216 255
190 216 255
190 216 255
190 216 255
190 216 255
190 216 255
190 216 255
190 216 255
190 216 255
190 216 255
190 216 255
190 216 255
190 216 255
190 216 255
190 216 255
190 216 255
190 216 255
190 216 255
190 216 255
190 216 255
190 216 255
190 216 255
190 216 255
190 216 255
190 216 255
190 216 255
190 216 255
190 216 255
190 216 255
190 216 255
190 216 255
190 216 255
190 216 255
190 216 255
190 216 255
190 216 255
190 216 255
190 216 255
190 216 255
190 216 255
190 216 255
190 216 255
190 216 255
190 216 255
190 216 255
190 216 255
190 216 255
190 216 255
190 216 255
92 109 135
64 78 99
60 74 95
61 75 97
62 77 99
60 75 97
63 77 98
59 74 95
58 72 93
63 78 100
64 78 100
60 73 93
59 73 93
66 81 103
58 72 93
64 78 100
64 79 101
61 76 98
65 80 103
65 79 100
60 75 97
63 77 99
61 75 97
64 78 100
60 75 97
65 80 103
62 76 97
59 73 95
60 74 96
58 71 92
61 75 96
66 80 101
61 75 96
60 74 96
64 79 102
63 77 98
64 79 101
64 79 100
66 81 103
64 78 99
64 79 100
57 70 91
61 76 99
66 81 103
63 76 97
67 82 106
62 76 97
63 78 99
65 81 104
63 78 101
62 77 99
64 79 101
60 73 94
65 79 102
59 74 96
57 71 92
62 77 99
60 75 97
65 80 103
61 76 98
62 77 99
61 75 96
58 72 93
60 75 96
60 74 95
62 76 98
60 75 96
61 76 99
63 78 99
69 83 104
61 76 98
65 81 104
60 75 97
61 75 95
66 80 102
62 75 95
60 75 98
62 77 100
62 77 99
61 75 96
64 79 101
62 77 100
62 76 97
58 72 92
62 76 96
63 78 100
58 72 91
62 76 98
62 77 99
60 73 93
63 78 100
60 75 96
62 76 98
62 77 99
64 79 100
62 77 99
64 79 102
61 75 95
62 76 97
57 71 91
55 68 88
61 75 97
62 77 99
65 80 102
65 81 105
64 80 103
66 81 103
60 75 97
61 75 97
59 73 95
63 78 100
65 79 100
65 80 103
61 74 95
62 77 99
63 78 101
58 73 94
59 73 93
64 79 101
67 82 105
63 78 101
62 76 97
60 74 94
61 76 98
62 77 100
61 76 98
60 75 97
59 73 94
60 74 95
86 103 128
190 216 255
190 216 255
190 216 255
190 216 255
190 216 255
190 216 255
190 216 255
190 216 255
190 216 255
190 216 255
190 216 255
190 216 255
190 216 255
190 216 255
190 216 255
190 216 255
190 216 255
190 216 255
190 216 255
190 216 255
190 216 255
190 216 255
190 216 255
190 216 255
190 216 255
190 216 255
190 216 255
190 216 255
190 216 255
190 216 255
190 216 255
190 216 255
190 216 255
190 216 255
190 216 255
190 216 255
190 216 255
190 216 255
190 216 255
190 216 255
190 216 255
190 216 255
190 216 255
190 216 255
190 216 255
190 216 255
190 216 255
190 216 255
190 216 255
190 216 255
190 216 255
190 216 255
190 216 255
190 216 255
190 216 255
190 216 255
190 216 255
190 216 255
190 216 255
190 216 255
190 216 255
190 216 255
190 216 255
190 216 255
190 216 255
190 216 255
190 216 255
190 216 255
190 216 255
190 216 255
190 216 255
190 216 255
190 216 255
190 216 255
190 216 255
190 216 255
190 216 255
190 216 255
190 216 255
190 216 255
190 216 255
190 216 255
190 216 255
190 216 255
190 216 255
190 216 255
190 216 255
190 216 255
190 216 255
190 216 255
190 216 255
190 216 255
190 216 255
190 216 255
190 216 255
190 216 255
190 216 255
190 216 255
190 216 255
190 216 255
190 216 255
190 216 255
190 216 255
190 216 255
190 216 255
190 216 255
190 216 255
190 216 255
190 216 255
190 216 255
190 216 255
190 216 255
190 216 255
190 216 255
190 216 255
190 216 255
190 216 255
190 216 255
190 216 255
190 216 255
190 216 255
190 216 255
190 216 255
190 216 255
190 216 255
190 216 255
190 216 255
190 216 255
190 216 255
190 216 255
190 216 255
190 216 255
190 216 255
190 216 255
190 216 255
191 217 255
191 217 255
191 217 255
191 217 255
191 217 255
191 217 255
191 217 255
191 217 255
191 217 255
191 217 255
191 217 255
191 217 255
191 217 255
191 217 255
191 217 255
191 217 255
191 217 255
191 217 255
191 217 255
191 217 255
191 217 255
191 217 255
191 217 255
191 217 255
191 217 255
191 217 255
191 217 255
191 217 255
191 217 255
191 217 255
191 217 255
191 217 255
191 217 255
191 217 255
191 217 255
191 217 255
191 217 255
191 217 255
191 217 255
191 217 255
191 217 255
191 217 255
190 216 255
191 217 255
190 216 255
191 217 255
190 216 255
190 216 255
190 216 255
190 216 255
190 216 255
190 216 255
190 216 255
190 216 255
190 216 255
190 216 255
190 216 255
190 216 255
190 216 255
190 216 255
190 216 255
190 216 255
190 216 255
190 216 255
190 216 255
190 216 255
190 216 255
190 216 255
190 216 255
190 216 255
190 216 255
190 216 255
190 216 255
190 216 255
190 216 255
190 216 255
190 216 255
190 216 255
190 216 255
190 216 255
190 216 255
190 216 255
190 216 255
190 216 255
190 216 255
190 216 255
190 216 255
190 216 255
190 216 255
190 216 255
190 216 255
190 216 255
190 216 255
190 216 255
190 216 255
190 216 255
190 216 255
190 216 255
190 216 255
190 216 255
190 216 255
190 216 255
190 216 255
190 216 255
190 216 255
190 216 255
190 216 255
190 216 255
190 216 255
190 216 255
190 216 255
190 216 255
190 216 255
190 216 255
190 216 255
190 216 255
190 216 255
190 216 255
190 216 255
190 216 255
190 216 255
190 216 255
190 216 255
190 216 255
190 216 255
190 216 255
190 216 255
190 216 255
190 216 255
190 216 255
190 216 255
190 216 255
190 216 255
190 216 255
190 216 255
74 91 115
60 74 96
60 74 94
63 77 99
63 78 100
64 78 100
62 77 99
65 81 104
67 82 104
57 71 92
61 76 98
63 77 99
60 74 95
65 80 103
62 76 98
60 75 97
58 71 91
61 75 97
62 77 100
59 74 96
62 77 100
60 74 95
58 73 95
58 72 93
61 75 97
65 81 104
60 75 98
59 74 96
64 79 102
62 77 98
60 75 98
67 83 106
63 77 98
55 68 89
68 83 105
62 77 99
63 78 101
63 77 98
63 78 100
63 78 100
60 74 95
64 78 100
58 72 92
67 82 105
64 79 101
61 76 98
60 74 94
60 75 98
62 77 99
61 76 97
62 76 98
57 70 89
64 79 101
61 75 96
64 80 103
65 80 102
66 81 105
59 74 95
61 75 96
62 76 97
64 78 98
61 75 97
64 79 102
61 76 98
62 76 97
61 76 98
61 74 95
60 74 94
59 73 94
65 80 103
60 73 94
64 80 104
62 76 97
61 75 96
58 73 94
62 76 98
61 76 97
59 72 92
61 76 98
60 74 96
58 72 93
65 80 101
68 82 104
58 72 92
64 79 101
58 72 93
62 76 97
60 74 96
66 82 106
61 75 97
61 75 95
65 81 105
66 82 104
62 77 98
63 78 99
58 73 95
64 78 99
56 70 91
63 79 102
61 76 98
61 76 98
63 78 100
60 74 96
62 76 97
59 73 93
62 78 101
59 73 94
62 76 98
62 76 98
60 73 94
58 72 94
62 77 99
66 81 104
62 76 97
60 75 97
59 72 92
62 77 99
63 78 99
61 75 97
62 76 98
60 74 94
61 75 96
61 75 97
63 78 100
60 74 96
64 79 100
63 78 100
59 73 94
68 83 106
80 96 119
190 216 255
190 216 255
190 216 255
190 216 255
190 216 255
190 216 255
190 216 255
190 216 255
190 216 255
190 216 255
190 216 255
190 216 255
190 216 255
190 216 255
190 216 255
190 216 255
190 216 255
190 216 255
190 216 255
190 216 255
190 216 255
190 216 255
190 216 255
190 216 255
190 216 255
190 216 255
190 216 255
190 216 255
190 216 255
190 216 255
190 216 255
190 216 255
190 216 255
190 216 255
190 216 255
190 216 255
190 216 255
190 216 255
190 216 255
190 216 255
190 216 255
190 216 255
190 216 255
190 216 255
190 216 255
190 216 255
190 216 255
190 216 255
190 216 255
190 216 255
190 216 255
190 216 255
190 216 255
190 216 255
190 216 255
190 216 255
190 216 255
190 216 255
190 216 255
190 216 255
190 216 255
190 216 255
190 216 255
190 216 255
190 216 255
190 216 255
190 216 255
190 216 255
190 216 255
190 216 255
190 216 255
190 216 255
190 216 255
190 216 255
190 216 255
190 216 255
190 216 255
190 216 255
190 216 255
190 216 255
190 216 255
190 216 255
190 216 255
190 216 255
190 216 255
190 216 255
190 216 255
190 216 255
190 216 255
190 216 255
190 216 255
191 217 255
191 217 255
190 216 255
191 217 255
191 217 255
191 217 255
191 217 255
191 217 255
191 217 255
191 217 255
191 217 255
191 217 255
191 217 255
191 217 255
191 217 255
191 217 255
191 217 255
191 217 255
191 217 255
191 217 255
191 217 255
191 217 255
191 217 255
191 217 255
191 217 255
191 217 255
191 217 255
191 217 255
191 217 255
191 217 255
191 217 255
191 217 255
191 217 255
191 217 255
191 217 255
191 217 255
191 217 255
191 217 255
191 217 255
191 217 255
191 217 255
191 217 255
191 217 255
191 217 255
191 217 255
191 217 255
191 217 255
191 217 255
191 217 255
191 217 255
191 217 255
191 217 255
191 217 255
191 217 255
191 217 255
191 217 255
191 217 255
191 217 255
191 217 255
191 217 255
191 217 255
191 217 255
191 217 255
191 217 255
191 217 255
191 217 255
191 217 255
191 217 255
191 217 255
191 217 255
191 217 255
191 217 255
191 217 255
191 217 255
191 217 255
191 217 255
191 217 255
191 217 255
191 217 255
191 217 255
191 217 255
191 217 255
191 217 255
191 217 255
191 217 255
191 217 255
191 217 255
191 217 255
191 217 255
191 217 255
191 217 255
191 217 255
191 217 255
191 217 255
191 217 255
191 217 255
191 217 255
191 217 255
191 217 255
191 217 255
191 217 255
191 217 255
191 217 255
191 217 255
191 217 255
191 217 255
191 217 255
191 217 255
191 217 255
191 217 255
191 217 255
191 217 255
191 217 255
191 217 255
191 217 255
191 217 255
191 217 255
191 217 255
191 217 255
191 217 255
191 217 255
191 217 255
191 217 255
191 217 255
191 217 255
191 217 255
191 217 255
191 217 255
191 217 255
191 217 255
191 217 255
191 217 255
191 217 255
191 217 255
191 217 255
191 217 255
191 217 255
191 217 255
191 217 255
191 217 255
191 217 255
191 217 255
191 217 255
191 217 255
191 217 255
191 217 255
191 217 255
191 217 255
191 217 255
191 217 255
191 217 255
191 217 255
191 217 255
191 217 255
191 217 255
191 217 255
191 217 255
191 217 255
191 217 255
191 217 255
191 217 255
191 217 255
191 217 255
191 217 255
191 217 255
191 217 255
191 217 255
191 217 255
191 217 255
191 217 255
191 217 255
191 217 255
191 217 255
191 217 255
191 217 255
191 217 255
191 217 255
190 216 255
191 217 255
71 86 108
57 69 87
60 74 94
57 71 90
61 75 95
58 72 92
62 77 100
60 74 94
63 77 99
61 76 98
63 78 101
62 77 99
58 72 93
62 76 98
56 70 91
60 74 96
62 77 98
63 77 98
65 80 101
60 75 96
60 75 98
61 76 98
62 77 99
64 79 100
61 75 96
66 80 103
61 75 96
57 71 92
63 79 101
63 77 99
60 74 95
62 77 99
59 73 93
66 81 104
63 78 99
60 74 95
65 78 99
65 80 103
66 81 105
60 75 97
67 81 103
59 73 94
61 76 98
60 74 95
60 74 94
55 68 86
62 77 100
59 74 96
62 77 98
57 71 93
60 74 95
61 74 94
59 72 93
61 75 95
64 79 102
64 78 100
61 74 95
56 70 90
60 74 94
62 75 96
64 78 100
62 76 96
62 76 98
62 76 98
61 75 97
60 75 96
59 72 91
63 77 98
59 73 94
60 74 94
59 73 94
66 81 103
64 78 98
60 74 94
55 69 90
64 80 104
59 73 94
62 76 98
62 76 96
65 80 101
61 76 98
61 75 95
55 68 87
62 76 97
64 79 101
61 75 96
58 72 93
62 78 100
58 72 94
60 74 95
63 78 100
60 74 95
64 79 101
62 78 100
56 70 90
60 74 95
61 75 97
57 70 89
63 77 100
62 77 99
58 72 93
61 75 96
63 78 99
62 76 98
55 68 87
59 74 96
63 77 98
63 77 99
61 76 98
59 73 93
61 75 95
62 77 99
65 79 101
63 78 99
63 78 99
56 70 92
62 77 98
61 76 98
63 76 97
62 77 99
62 76 97
62 76 98
61 75 97
61 74 94
60 74 95
63 79 102
61 75 95
62 77 100
60 74 95
67 82 105
191 217 255
191 217 255
191 217 255
191 217 255
191 217 255
191 217 255
191 217 255
191 217 255
191 217 255
191 217 255
191 217 255
191 217 255
191 217 255
191 217 255
191 217 255
191 217 255
191 217 255
191 217 255
191 217 255
191 217 255
191 217 255
191 217 255
191 217 255
191 217 255
191 217 255
191 217 255
191 217 255
191 217 255
191 217 255
191 217 255
191 217 255
191 217 255
191 217 255
191 217 255
191 217 255
191 217 255
191 217 255
191 217 255
191 217 255
191 217 255
191 217 255
191 217 255
191 217 255
191 217 255
191 217 255
191 217 255
191 217 255
191 217 255
191 217 255
191 217 255
191 217 255
191 217 255
191 217 255
191 217 255
191 217 255
191 217 255
191 217 255
191 217 255
191 217 255
191 217 255
191 217 255
191 217 255
191 217 255
191 217 255
191 217 255
191 217 255
191 217 255
191 217 255
191 217 255
191 217 255
191 217 255
191 217 255
191 217 255
191 217 255
191 217 255
191 217 255
191 217 255
191 217 255
191 217 255
191 217 255
191 217 255
191 217 255
191 217 255
191 217 255
191 217 255
191 217 255
191 217 255
191 217 255
191 217 255
191 217 255
191 217 255
191 217 255
191 217 255
191 217 255
191 217 255
191 217 255
191 217 255
191 217 255
191 217 255
191 217 255
191 217 255
191 217 255
191 217 255
191 217 255
191 217 255
191 217 255
191 217 255
191 217 255
191 217 255
191 217 255
191 217 255
191 217 255
191 217 255
191 217 255
191 217 255
191 217 255
191 217 255
191 217 255
191 217 255
191 217 255
191 217 255
191 217 255
191 217 255
191 217 255
191 217 255
191 217 255
191 217 255
191 217 255
191 217 255
191 217 255
191 217 255
191 217 255
191 217 255
191 217 255
191 217 255
191 217 255
191 217 255
191 217 255
191 217 255
191 217 255
191 217 255
191 217 255
191 217 255
191 217 255
191 217 255
191 217 255
191 217 255
191 217 255
191 217 255
191 217 255
191 217 255
191 217 255
191 217 255
191 217 255
191 217 255
191 217 255
191 217 255
191 217 255
191 217 255
191 217 255
191 217 255
191 217 255
191 217 255
191 217 255
191 217 255
191 217 255
191 217 255
191 217 255
191 217 255
191 217 255
191 217 255
191 217 255
191 217 255
191 217 255
191 217 255
191 217 255
191 217 255
191 217 255
191 217 255
191 217 255
191 217 255
191 217 255
191 217 255
191 217 255
191 217 255
191 217 255
191 217 255
191 217 255
191 217 255
191 217 255
191 217 255
191 217 255
191 217 255
191 217 255
191 217 255
191 217 255
191 217 255
191 217 255
191 217 255
191 217 255
191 217 255
191 217 255
191 217 255
191 217 255
191 217 255
191 217 255
191 217 255
191 217 255
191 217 255
191 217 255
191 217 255
191 217 255
191 217 255
191 217 255
191 217 255
191 217 255
191 217 255
191 217 255
191 217 255
191 217 255
191 217 255
191 217 255
191 217 255
191 217 255
191 217 255
191 217 255
191 217 255
191 217 255
191 217 255
191 217 255
191 217 255
191 217 255
191 217 255
191 217 255
191 217 255
191 217 255
191 217 255
191 217 255
191 217 255
191 217 255
191 217 255
191 217 255
191 217 255
191 217 255
191 217 255
191 217 255
191 217 255
191 217 255
191 217 255
191 217 255
191 217 255
191 217 255
191 217 255
191 217 255
191 217 255
191 217 255
191 217 255
191 217 255
191 217 255
191 217 255
191 217 255
191 217 255
191 217 255
191 217 255
191 217 255
191 217 255
191 217 255
191 217 255
191 217 255
191 217 255
72 87 110
60 74 94
60 73 94
63 77 98
66 80 102
60 73 92
59 73 93
58 72 92
61 74 95
59 74 96
61 76 97
60 74 95
64 79 101
63 78 100
60 75 96
58 72 93
59 74 95
59 72 92
62 76 98
63 78 100
62 77 98
58 71 91
65 80 102
61 75 95
66 82 105
58 72 93
65 80 102
59 72 92
63 78 100
62 76 98
63 77 99
57 71 90
64 79 101
61 75 96
61 76 97
60 75 96
62 77 99
63 77 98
60 74 96
56 69 89
59 73 94
64 79 101
58 72 93
60 74 96
67 81 104
58 72 93
60 75 96
60 74 95
65 81 104
59 73 95
61 75 97
61 75 97
65 80 102
59 73 93
57 71 92
59 72 93
61 75 96
66 82 106
58 73 95
62 76 97
63 77 98
62 76 98
66 81 103
60 74 96
62 77 99
62 77 98
60 75 96
64 78 100
61 75 96
61 74 94
62 76 97
65 80 103
57 70 91
65 80 101
66 80 101
64 79 101
62 76 97
61 74 94
66 80 101
64 78 100
60 74 96
62 76 97
62 75 95
65 80 101
63 77 99
66 80 102
64 78 100
63 78 100
62 76 97
63 78 99
60 74 94
63 78 99
58 71 90
64 79 102
61 75 96
61 76 97
64 79 102
59 72 91
63 78 101
61 76 98
58 72 92
64 78 100
61 76 98
61 76 97
62 77 99
63 77 99
62 77 99
63 77 99
61 76 97
61 75 97
60 75 96
59 73 94
60 74 95
63 77 99
61 75 96
56 71 92
59 72 93
64 79 101
61 75 97
59 72 92
62 77 98
66 81 103
63 78 100
60 74 96
60 74 95
58 72 94
62 77 98
59 73 95
60 74 95
66 81 103
191 217 255
191 217 255
191 217 255
191 217 255
191 217 255
191 217 255
191 217 255
191 217 255
191 217 255
191 217 255
191 217 255
191 217 255
191 217 255
191 217 255
191 217 255
191 217 255
191 217 255
191 217 255
191 217 255
191 217 255
191 217 255
191 217 255
191 217 255
191 217 255
191 217 255
191 217 255
191 217 255
191 217 255
191 217 255
191 217 255
191 217 255
191 217 255
191 217 255
191 217 255
191 217 255
191 217 255
191 217 255
191 217 255
191 217 255
191 217 255
191 217 255
191 217 255
191 217 255
191 217 255
191 217 255
191 217 255
191 217 255
191 217 255
191 217 255
191 217 255
191 217 255
191 217 255
191 217 255
191 217 255
191 217 255
191 217 255
191 217 255
191 217 255
191 217 255
191 217 255
191 217 255
191 217 255
191 217 255
191 217 255
191 217 255
191 217 255
191 217 255
191 217 255
191 217 255
191 217 255
191 217 255
191 217 255
191 217 255
191 217 255
191 217 255
191 217 255
191 217 255
191 217 255
191 217 255
191 217 255
191 217 255
191 217 255
191 217 255
191 217 255
191 217 255
191 217 255
191 217 255
191 217 255
191 217 255
191 217 255
191 217 255
191 217 255
191 217 255
191 217 255
191 217 255
191 217 255
191 217 255
191 217 255
191 217 255
191 217 255
191 217 255
191 217 255
191 217 255
191 217 255
191 217 255
191 217 255
191 217 255
191 217 255
191 217 255
191 217 255
191 217 255
191 217 255
191 217 255
191 217 255
191 217 255
191 217 255
191 217 255
191 217 255
191 217 255
191 217 255
191 217 255
191 217 255
191 217 255
191 217 255
191 217 255
191 217 255
191 217 255
191 217 255
191 217 255
191 217 255
191 217 255
191 217 255
191 217 255
191 217 255
191 217 255
191 217 255
191 217 255
192 217 255
191 217 255
192 217 255
191 217 255
192 217 255
192 217 255
192 217 255
191 217 255
191 217 255
192 217 255
191 217 255
191 217 255
191 217 255
192 217 255
192 217 255
191 217 255
191 217 255
191 217 255
191 217 255
191 217 255
191 217 255
191 217 255
192 217 255
191 217 255
192 217 255
191 217 255
192 217 255
192 217 255
192 217 255
191 217 255
192 217 255
192 217 255
191 217 255
191 217 255
192 217 255
191 217 255
192 217 255
192 217 255
191 217 255
191 217 255
192 217 255
191 217 255
192 217 255
192 217 255
192 217 255
191 217 255
192 217 255
191 217 255
191 217 255
191 217 255
192 217 255
192 217 255
192 217 255
192 217 255
191 217 255
192 217 255
191 217 255
192 217 255
191 217 255
192 217 255
192 217 255
191 217 255
192 217 255
192 217 255
191 217 255
191 217 255
192 217 255
192 217 255
191 217 255
191 217 255
191 217 255
191 217 255
191 217 255
191 217 255
191 217 255
191 217 255
192 217 255
191 217 255
191 217 255
192 217 255
191 217 255
192 217 255
191 217 255
192 217 255
191 217 255
192 217 255
192 217 255
191 217 255
191 217 255
191 217 255
192 217 255
191 217 255
192 217 255
191 217 255
192 217 255
192 217 255
191 217 255
191 217 255
191 217 255
191 217 255
191 217 255
192 217 255
192 217 255
191 217 255
191 217 255
191 217 255
191 217 255
192 217 255
191 217 255
191 217 255
192 217 255
191 217 255
191 217 255
192 217 255
192 217 255
191 217 255
192 217 255
192 217 255
191 217 255
192 217 255
192 217 255
191 217 255
192 217 255
191 217 255
191 217 255
192 217 255
192 217 255
191 217 255
191 217 255
191 217 255
192 217 255
191 217 255
191 217 255
64 78 99
57 71 92
61 76 97
59 72 92
62 77 98
57 70 91
60 74 96
62 76 97
59 73 95
62 76 97
64 78 100
61 75 96
62 75 96
63 78 100
62 76 96
62 76 97
64 79 101
58 72 93
60 75 97
65 79 101
61 76 98
59 74 96
61 75 96
60 74 95
61 76 97
60 74 95
60 74 96
57 72 93
62 78 100
59 73 93
62 76 97
62 76 96
63 78 101
62 77 99
60 74 95
61 76 98
66 81 103
58 72 93
62 77 99
58 72 94
62 76 97
62 76 97
62 76 97
63 78 99
58 72 93
56 70 91
60 73 93
64 78 100
63 77 99
66 81 104
61 74 95
63 77 98
63 77 97
61 75 96
61 75 96
63 77 99
58 73 94
58 72 94
61 76 99
61 76 98
64 79 101
60 74 95
65 80 102
58 72 93
61 76 97
60 74 96
61 76 97
63 78 100
62 77 99
61 75 97
62 77 100
60 74 95
63 77 98
61 76 97
60 74 96
63 78 99
61 76 97
60 73 94
63 77 98
61 75 96
58 71 91
56 70 91
64 79 101
60 73 93
61 76 98
60 74 94
64 79 101
58 72 93
62 77 99
59 73 95
62 76 98
62 76 97
57 71 90
65 80 104
57 71 91
58 72 92
61 76 97
60 74 96
65 80 104
62 77 98
61 76 98
61 76 97
59 74 96
61 75 96
61 75 96
55 69 88
60 74 94
63 78 100
65 79 100
56 69 88
64 78 100
58 71 90
61 74 95
62 76 98
65 80 103
60 74 94
63 78 101
67 83 107
65 80 102
60 74 94
66 80 102
60 74 95
63 77 98
58 71 91
62 77 99
60 73 93
59 74 95
60 74 96
56 69 89
66 81 102
192 217 255
191 217 255
192 217 255
191 217 255
192 217 255
192 217 255
191 217 255
192 217 255
191 217 255
191 217 255
192 217 255
192 217 255
192 217 255
191 217 255
192 217 255
192 217 255
192 217 255
191 217 255
191 217 255
192 217 255
192 217 255
192 217 255
192 217 255
192 217 255
191 217 255
192 217 255
191 217 255
191 217 255
192 217 255
191 217 255
191 217 255
192 217 255
192 217 255
192 217 255
192 217 255
191 217 255
191 217 255
192 217 255
191 217 255
192 217 255
191 217 255
191 217 255
192 217 255
191 217 255
191 217 255
192 217 255
191 217 255
192 217 255
191 217 255
191 217 255
191 217 255
192 217 255
191 217 255
191 217 255
192 217 255
191 217 255
191 217 255
191 217 255
192 217 255
192 217 255
191 217 255
191 217 255
191 217 255
192 217 255
192 217 255
191 217 255
191 217 255
191 217 255
191 217 255
192 217 255
191 217 255
192 217 255
192 217 255
192 217 255
191 217 255
191 217 255
192 217 255
192 217 255
192 217 255
192 217 255
191 217 255
192 217 255
192 217 255
191 217 255
192 217 255
192 217 255
191 217 255
192 217 255
192 217 255
192 217 255
192 217 255
191 217 255
191 217 255
191 217 255
191 217 255
191 217 255
191 217 255
191 217 255
191 217 255
191 217 255
192 217 255
191 217 255
192 217 255
191 217 255
192 217 255
192 217 255
191 217 255
191 217 255
192 217 255
192 217 255
192 217 255
191 217 255
191 217 255
191 217 255
192 217 255
191 217 255
192 217 255
191 217 255
192 217 255
191 217 255
191 217 255
192 217 255
192 217 255
192 217 255
192 217 255
191 217 255
192 217 255
191 217 255
191 217 255
192 217 255
191 217 255
192 217 255
191 217 255
191 217 255
191 217 255
192 217 255
192 217 255
192 217 255
192 217 255
192 217 255
192 217 255
192 217 255
192 217 255
192 217 255
192 217 255
192 217 255
192 217 255
192 217 255
192 217 255
192 217 255
192 217 255
192 217 255
192 217 255
192 217 255
192 217 255
192 217 255
192 217 255
192 217 255
192 217 255
192 217 255
192 217 255
192 217 255
192 217 255
192 217 255
192 217 255
192 217 255
192 217 255
192 217 255
192 217 255
192 217 255
192 217 255
192 217 255
192 217 255
192 217 255
192 217 255
192 217 255
192 217 255
192 217 255
192 217 255
192 217 255
192 217 255
192 217 255
192 217 255
192 217 255
192 217 255
192 217 255
192 217 255
192 217 255
192 217 255
192 217 255
192 217 255
192 217 255
192 217 255
192 217 255
192 217 255
192 217 255
192 217 255
192 217 255
192 217 255
192 217 255
192 217 255
192 217 255
192 217 255
192 217 255
192 217 255
192 217 255
192 217 255
192 217 255
192 217 255
192 217 255
192 217 255
192 217 255
192 217 255
192 217 255
192 217 255
192 217 255
192 217 255
192 217 255
192 217 255
192 217 255
192 217 255
192 217 255
192 217 255
192 217 255
192 217 255
192 217 255
192 217 255
192 217 255
192 217 255
192 217 255
192 217 255
192 217 255
192 217 255
192 217 255
192 217 255
192 217 255
192 217 255
192 217 255
192 217 255
192 217 255
192 217 255
192 217 255
192 217 255
192 217 255
192 217 255
192 217 255
192 217 255
192 217 255
192 217 255
192 217 255
192 217 255
192 217 255
192 217 255
192 217 255
192 217 255
192 217 255
192 217 255
192 217 255
192 217 255
192 217 255
192 217 255
192 217 255
192 217 255
192 217 255
192 217 255
192 217 255
192 217 255
192 217 255
192 217 255
192 217 255
68 84 107
59 73 94
64 79 102
63 78 100
63 77 99
59 74 95
62 77 100
63 78 100
58 71 89
57 72 95
60 75 96
63 77 99
58 72 93
62 76 97
61 75 97
60 75 96
61 75 96
57 71 92
61 74 95
62 77 100
63 77 98
59 74 96
64 79 102
61 74 95
66 82 106
61 76 97
62 76 98
60 74 95
64 79 100
62 77 99
65 80 104
62 77 98
59 74 96
63 78 99
65 79 101
60 74 95
61 76 98
62 77 100
66 81 103
61 75 96
66 80 101
59 72 92
63 77 99
62 76 97
61 75 96
62 76 96
66 81 103
64 79 102
56 69 87
63 78 100
62 76 98
62 76 98
57 71 92
60 74 96
57 71 90
63 79 101
58 72 93
64 78 100
61 75 97
58 72 93
64 79 102
61 75 96
61 76 99
60 75 96
62 76 99
64 78 100
61 75 97
65 80 102
60 75 98
58 72 93
61 76 97
63 77 98
64 80 102
61 75 95
59 73 93
64 79 100
62 76 97
65 78 99
60 74 95
62 77 99
60 74 95
65 79 101
62 76 98
59 73 94
65 80 103
65 80 103
59 73 94
63 78 101
64 78 100
62 76 98
58 73 94
65 80 103
60 74 95
62 77 99
61 74 95
64 78 99
62 78 101
62 77 99
68 83 106
61 75 97
63 78 100
59 72 92
61 75 97
63 77 99
58 72 93
58 72 93
60 74 95
66 81 103
60 73 93
61 75 97
68 83 105
65 80 101
66 81 102
63 77 98
60 74 95
64 79 102
63 77 98
63 78 99
63 78 99
61 75 95
62 76 98
64 80 103
62 76 98
62 75 96
60 74 96
63 76 96
59 72 91
64 79 100
62 77 98
71 87 111
192 217 255
192 217 255
192 217 255
192 217 255
192 217 255
192 217 255
192 217 255
192 217 255
192 217 255
192 217 255
192 217 255
192 217 255
192 217 255
192 217 255
192 217 255
192 217 255
192 217 255
192 217 255
192 217 255
192 217 255
192 217 255
192 217 255
192 217 255
192 217 255
192 217 255
192 217 255
192 217 255
192 217 255
192 217 255
192 217 255
192 217 255
192 217 255
192 217 255
192 217 255
192 217 255
192 217 255
192 217 255
192 217 255
192 217 255
192 217 255
192 217 255
192 217 255
192 217 255
192 217 255
192 217 255
192 217 255
192 217 255
192 217 255
192 217 255
192 217 255
192 217 255
192 217 255
192 217 255
192 217 255
192 217 255
192 217 255
192 217 255
192 217 255
192 217 255
192 217 255
192 217 255
192 217 255
192 217 255
192 217 255
192 217 255
192 217 255
192 217 255
192 217 255
192 217 255
192 217 255
192 217 255
192 217 255
192 217 255
192 217 255
192 217 255
192 217 255
192 217 255
192 217 255
192 217 255
192 217 255
192 217 255
192 217 255
192 217 255
192 217 255
192 217 255
192 217 255
192 217 255
192 217 255
192 217 255
192 217 255
192 217 255
192 217 255
192 217 255
192 217 255
192 217 255
192 217 255
192 217 255
192 217 255
192 217 255
192 217 255
192 217 255
192 217 255
192 217 255
192 217 255
192 217 255
192 217 255
192 217 255
192 217 255
192 217 255
192 217 255
192 217 255
192 217 255
192 217 255
192 217 255
192 217 255
192 217 255
192 217 255
192 217 255
192 217 255
192 217 255
192 217 255
192 217 255
192 217 255
192 217 255
192 217 255
192 217 255
192 217 255
192 217 255
192 217 255
192 217 255
192 217 255
192 217 255
192 217 255
192 217 255
192 217 255
192 217 255
192 217 255
192 217 255
192 217 255
192 217 255
192 217 255
192 217 255
192 217 255
192 217 255
192 217 255
192 217 255
192 217 255
192 217 255
192 217 255
192 217 255
192 217 255
192 217 255
192 217 255
192 217 255
192 217 255
192 217 255
192 217 255
192 217 255
192 217 255
192 217 255
192 217 255
192 217 255
192 217 255
192 217 255
192 217 255
192 217 255
192 217 255
192 217 255
192 217 255
192 217 255
192 217 255
192 217 255
192 217 255
192 217 255
192 217 255
192 217 255
192 217 255
192 217 255
192 218 255
192 217 255
192 217 255
192 218 255
192 218 255
192 218 255
192 218 255
192 218 255
192 218 255
192 218 255
192 218 255
192 218 255
192 218 255
192 218 255
192 218 255
192 218 255
192 218 255
192 218 255
192 218 255
192 218 255
192 218 255
192 218 255
192 218 255
192 218 255
192 218 255
192 218 255
192 218 255
192 218 255
192 218 255
192 218 255
192 218 255
192 218 255
192 218 255
192 218 255
192 218 255
192 218 255
192 218 255
192 218 255
192 218 255
192 218 255
192 218 255
192 218 255
192 218 255
192 218 255
192 218 255
192 218 255
192 218 255
192 218 255
192 218 255
192 218 255
192 218 255
192 218 255
192 218 255
192 218 255
192 218 255
192 218 255
192 218 255
192 218 255
192 218 255
192 218 255
192 218 255
192 218 255
192 218 255
192 218 255
192 218 255
192 218 255
192 218 255
192 218 255
192 218 255
192 218 255
192 218 255
192 218 255
192 218 255
192 218 255
192 218 255
192 218 255
192 218 255
192 218 255
192 218 255
192 218 255
192 218 255
192 218 255
192 218 255
192 218 255
192 218 255
192 218 255
192 218 255
192 218 255
192 218 255
192 218 255
192 218 255
192 218 255
69 82 103
60 74 94
61 75 96
63 77 98
62 76 97
62 76 97
62 76 97
59 72 92
57 72 93
61 75 97
58 71 91
63 78 100
60 74 96
60 74 95
61 75 95
59 73 95
60 75 96
61 74 94
62 76 97
59 74 95
61 75 96
60 75 97
62 76 97
60 74 94
62 77 99
63 78 100
62 77 101
60 74 96
61 75 95
56 69 88
60 74 96
62 76 98
62 77 99
64 79 101
64 79 102
59 73 94
64 79 102
66 80 101
60 73 93
59 73 94
58 72 92
58 72 92
60 74 95
57 71 92
60 73 93
63 77 99
62 76 98
61 76 98
61 75 97
58 71 91
59 73 93
60 74 94
63 77 98
61 76 98
61 74 95
61 73 93
62 76 98
63 77 99
59 73 95
63 78 99
60 74 95
62 76 97
60 74 95
61 75 97
62 76 98
63 78 100
64 78 98
57 70 91
60 74 95
64 78 100
59 73 94
61 76 98
63 77 98
63 77 98
62 76 96
57 69 87
63 78 101
63 77 99
59 74 95
63 78 100
64 78 100
64 79 101
64 79 102
62 76 97
56 70 90
58 72 92
63 77 99
64 79 103
63 77 99
59 72 92
60 74 94
60 75 96
60 75 98
62 77 98
57 71 92
64 79 101
64 78 100
61 76 97
59 73 94
58 73 94
60 75 97
61 76 97
63 76 97
60 74 95
64 79 101
60 74 96
61 76 97
54 67 87
63 77 98
63 77 98
58 72 92
63 77 98
63 78 100
62 76 98
57 70 89
63 78 100
66 81 104
61 75 96
63 78 100
62 77 98
59 73 94
60 74 94
63 77 98
64 78 99
59 72 93
62 77 98
62 76 97
58 72 93
61 75 95
75 91 114
192 218 255
192 218 255
192 218 255
192 218 255
192 218 255
192 218 255
192 218 255
192 218 255
192 218 255
192 218 255
192 218 255
192 218 255
192 218 255
192 218 255
192 218 255
192 218 255
192 218 255
192 218 255
192 218 255
192 218 255
192 218 255
192 218 255
192 218 255
192 218 255
192 218 255
192 218 255
192 218 255
192 218 255
192 218 255
192 218 255
192 218 255
192 218 255
192 218 255
192 218 255
192 218 255
192 218 255
192 218 255
192 218 255
192 218 255
192 218 255
192 218 255
192 218 255
192 218 255
192 218 255
192 218 255
192 218 255
192 218 255
192 218 255
192 218 255
192 218 255
192 218 255
192 218 255
192 218 255
192 218 255
192 218 255
192 218 255
192 218 255
192 218 255
192 218 255
192 218 255
192 218 255
192 218 255
192 218 255
192 218 255
192 218 255
192 218 255
192 218 255
192 218 255
192 218 255
192 218 255
192 218 255
192 218 255
192 218 255
192 218 255
192 218 255
192 218 255
192 218 255
192 218 255
192 218 255
192 218 255
192 218 255
192 218 255
192 218 255
192 218 255
192 218 255
192 218 255
192 218 255
192 217 255
192 217 255
192 218 255
192 218 255
192 217 255
192 217 255
192 217 255
192 217 255
192 217 255
192 217 255
192 217 255
192 217 255
192 217 255
192 217 255
192 217 255
192 217 255
192 217 255
192 217 255
192 217 255
192 217 255
192 217 255
192 217 255
192 217 255
192 217 255
192 217 255
192 217 255
192 217 255
192 217 255
192 217 255
192 217 255
192 217 255
192 217 255
192 217 255
192 217 255
192 217 255
192 217 255
192 217 255
192 217 255
192 217 255
192 217 255
192 217 255
192 217 255
192 217 255
192 217 255
192 217 255
192 217 255
192 217 255
192 217 255
192 218 255
192 218 255
192 218 255
192 218 255
192 218 255
192 218 255
192 218 255
192 218 255
192 218 255
192 218 255
192 218 255
192 218 255
192 218 255
192 218 255
192 218 255
192 218 255
192 218 255
192 218 255
192 218 255
192 218 255
192 218 255
192 218 255
192 218 255
192 218 255
192 218 255
192 218 255
192 218 255
192 218 255
192 218 255
192 218 255
192 218 255
192 218 255
192 218 255
192 218 255
192 218 255
192 218 255
192 218 255
192 218 255
192 218 255
192 218 255
192 218 255
192 218 255
192 218 255
193 218 255
193 218 255
193 218 255
192 218 255
193 218 255
193 218 255
192 218 255
193 218 255
193 218 255
193 218 255
193 218 255
193 218 255
193 218 255
193 218 255
193 218 255
193 218 255
193 218 255
193 218 255
193 218 255
193 218 255
193 218 255
193 218 255
193 218 255
193 218 255
193 218 255
193 218 255
193 218 255
193 218 255
193 218 255
193 218 255
193 218 255
193 218 255
193 218 255
193 218 255
193 218 255
193 218 255
193 218 255
193 218 255
193 218 255
193 218 255
193 218 255
193 218 255
193 218 255
193 218 255
193 218 255
193 218 255
193 218 255
193 218 255
193 218 255
193 218 255
193 218 255
193 218 255
193 218 255
193 218 255
193 218 255
193 218 255
193 218 255
193 218 255
193 218 255
193 218 255
193 218 255
193 218 255
193 218 255
193 218 255
193 218 255
193 218 255
193 218 255
193 218 255
193 218 255
193 218 255
193 218 255
193 218 255
193 218 255
193 218 255
193 218 255
193 218 255
193 218 255
193 218 255
193 218 255
193 218 255
193 218 255
193 218 255
193 218 255
193 218 255
193 218 255
193 218 255
193 218 255
193 218 255
193 218 255
193 218 255
193 218 255
193 218 255
78 93 117
62 76 98
61 75 96
56 70 90
61 75 96
62 76 98
63 77 98
61 75 97
58 73 94
61 76 97
66 80 102
64 79 102
62 76 97
62 75 96
62 77 98
59 72 93
57 71 91
61 76 97
62 76 97
57 71 92
61 76 99
59 74 95
62 76 98
61 75 97
65 79 101
65 80 103
58 71 91
60 74 94
63 77 99
62 76 98
60 74 95
59 73 94
63 77 99
58 71 91
60 74 94
63 78 99
63 77 98
60 74 94
63 78 99
61 75 95
60 74 95
59 74 96
60 75 97
62 76 98
61 76 99
59 73 94
60 74 96
56 69 88
61 75 97
63 76 97
60 75 97
63 77 98
60 75 96
61 75 97
58 72 92
61 76 98
63 78 101
58 72 93
63 78 99
55 69 88
58 71 91
61 75 96
61 75 97
61 75 97
64 78 99
60 74 95
62 76 98
59 73 94
63 77 97
66 81 103
64 79 100
62 76 98
60 74 95
61 76 97
60 74 95
63 78 101
64 79 101
62 77 99
59 73 95
60 74 94
61 74 95
59 72 90
62 76 97
63 78 101
65 79 100
58 72 92
59 73 94
65 80 102
61 75 96
58 72 93
63 78 101
61 75 96
57 71 92
62 76 97
60 74 94
59 73 94
58 72 93
62 76 96
61 75 95
62 76 97
62 77 99
60 74 95
61 75 96
64 79 101
64 80 103
60 74 93
63 78 100
60 74 95
57 70 90
58 72 93
58 72 92
59 74 95
60 73 94
60 74 95
60 75 97
63 78 101
62 77 98
61 76 97
60 74 94
61 75 96
62 76 97
57 70 90
58 72 93
60 75 97
61 75 96
61 75 97
58 72 92
60 74 94
65 80 102
74 89 111
193 218 255
193 218 255
193 218 255
193 218 255
193 218 255
193 218 255
193 218 255
193 218 255
193 218 255
193 218 255
193 218 255
193 218 255
193 218 255
193 218 255
193 218 255
193 218 255
193 218 255
193 218 255
193 218 255
193 218 255
193 218 255
193 218 255
193 218 255
193 218 255
193 218 255
193 218 255
193 218 255
193 218 255
193 218 255
193 218 255
193 218 255
193 218 255
193 218 255
193 218 255
193 218 255
193 218 255
193 218 255
193 218 255
193 218 255
193 218 255
193 218 255
193 218 255
193 218 255
193 218 255
193 218 255
193 218 255
193 218 255
193 218 255
193 218 255
193 218 255
193 218 255
193 218 255
193 218 255
193 218 255
193 218 255
193 218 255
193 218 255
193 218 255
193 218 255
193 218 255
193 218 255
193 218 255
193 218 255
193 218 255
193 218 255
193 218 255
193 218 255
193 218 255
193 218 255
193 218 255
193 218 255
193 218 255
193 218 255
193 218 255
193 218 255
193 218 255
193 218 255
193 218 255
193 218 255
193 218 255
193 218 255
193 218 255
193 218 255
193 218 255
193 218 255
193 218 255
193 218 255
193 218 255
193 218 255
192 218 255
193 218 255
193 218 255
192 218 255
192 218 255
192 218 255
192 218 255
192 218 255
192 218 255
192 218 255
192 218 255
192 218 255
192 218 255
192 218 255
192 218 255
192 218 255
192 218 255
192 218 255
192 218 255
192 218 255
192 218 255
192 218 255
192 218 255
192 218 255
192 218 255
192 218 255
192 218 255
192 218 255
192 218 255
192 218 255
192 218 255
192 218 255
192 218 255
192 218 255
192 218 255
192 218 255
192 218 255
192 218 255
192 218 255
192 218 255
192 218 255
192 218 255
192 218 255
192 218 255
192 218 255
192 218 255
193 218 255
193 218 255
193 218 255
193 218 255
193 218 255
193 218 255
193 218 255
193 218 255
193 218 255
193 218 255
193 218 255
193 218 255
193 218 255
193 218 255
193 218 255
193 218 255
193 218 255
193 218 255
193 218 255
193 218 255
193 218 255
193 218 255
193 218 255
193 218 255
193 218 255
193 218 255
193 218 255
193 218 255
193 218 255
193 218 255
193 218 255
193 218 255
193 218 255
193 218 255
193 218 255
193 218 255
193 218 255
193 218 255
193 218 255
193 218 255
193 218 255
193 218 255
193 218 255
193 218 255
193 218 255
193 218 255
193 218 255
193 218 255
193 218 255
193 218 255
193 218 255
193 218 255
193 218 255
193 218 255
193 218 255
193 218 255
193 218 255
193 218 255
193 218 255
193 218 255
193 218 255
193 218 255
193 218 255
193 218 255
193 218 255
193 218 255
193 218 255
193 218 255
193 218 255
193 218 255
193 218 255
193 218 255
193 218 255
193 218 255
193 218 255
193 218 255
193 218 255
193 218 255
193 218 255
193 218 255
193 218 255
193 218 255
193 218 255
193 218 255
193 218 255
193 218 255
193 218 255
193 218 255
193 218 255
193 218 255
193 218 255
193 218 255
193 218 255
193 218 255
193 218 255
193 218 255
193 218 255
193 218 255
193 218 255
193 218 255
193 218 255
193 218 255
193 218 255
193 218 255
193 218 255
193 218 255
193 218 255
193 218 255
193 218 255
193 218 255
193 218 255
193 218 255
193 218 255
193 218 255
193 218 255
193 218 255
193 218 255
193 218 255
193 218 255
193 218 255
193 218 255
193 218 255
193 218 255
193 218 255
193 218 255
193 218 255
193 218 255
193 218 255
193 218 255
193 218 255
193 218 255
193 218 255
193 218 255
193 218 255
193 218 255
82 99 124
58 71 92
61 76 98
59 73 94
60 74 95
57 70 90
65 79 100
59 73 94
62 76 97
58 72 92
62 76 98
64 79 101
64 78 98
62 77 101
63 78 100
58 72 94
67 81 102
53 66 84
61 75 96
58 72 93
58 72 93
62 76 98
59 72 91
59 72 92
65 80 103
61 75 96
62 75 96
58 72 93
63 79 102
58 72 92
59 74 96
62 77 99
60 73 93
57 70 90
60 74 96
61 75 96
62 76 97
63 77 98
59 73 94
60 75 96
65 79 101
62 76 97
61 75 96
64 78 100
59 72 91
58 71 91
62 75 95
61 75 96
64 78 99
60 75 96
61 75 96
60 74 96
60 74 95
61 75 96
58 72 93
62 75 96
63 77 98
62 76 98
57 70 91
56 68 88
63 77 99
63 78 100
62 76 97
61 75 95
58 71 92
62 76 98
61 76 99
62 77 99
65 79 102
58 72 93
64 78 100
59 74 95
61 75 97
62 76 97
58 72 93
61 74 94
62 75 96
65 80 102
67 82 105
65 80 102
64 79 101
65 79 99
57 70 90
62 77 98
62 77 100
61 76 98
63 77 98
59 74 95
57 70 91
56 70 92
61 75 96
58 71 92
63 78 100
60 74 94
60 74 96
63 77 98
62 76 98
64 78 99
61 75 96
61 76 98
62 75 96
61 75 95
63 78 100
62 77 98
61 75 97
58 72 93
62 76 97
60 74 96
63 78 100
56 69 89
62 77 98
65 79 101
65 79 100
56 70 90
58 72 92
64 79 102
65 80 102
62 76 98
61 74 94
63 77 98
62 76 96
58 72 92
62 77 99
62 76 98
63 77 98
58 73 95
59 73 95
64 78 99
63 78 99
78 93 115
193 218 255
193 218 255
193 218 255
193 218 255
193 218 255
193 218 255
193 218 255
193 218 255
193 218 255
193 218 255
193 218 255
193 218 255
193 218 255
193 218 255
193 218 255
193 218 255
193 218 255
193 218 255
193 218 255
193 218 255
193 218 255
193 218 255
193 218 255
193 218 255
193 218 255
193 218 255
193 218 255
193 218 255
193 218 255
193 218 255
193 218 255
193 218 255
193 218 255
193 218 255
193 218 255
193 218 255
193 218 255
193 218 255
193 218 255
193 218 255
193 218 255
193 218 255
193 218 255
193 218 255
193 218 255
193 218 255
193 218 255
193 218 255
193 218 255
193 218 255
193 218 255
193 218 255
193 218 255
193 218 255
193 218 255
193 218 255
193 218 255
193 218 255
193 218 255
193 218 255
193 218 255
193 218 255
193 218 255
193 218 255
193 218 255
193 218 255
193 218 255
193 218 255
193 218 255
193 218 255
193 218 255
193 218 255
193 218 255
193 218 255
193 218 255
193 218 255
193 218 255
193 218 255
193 218 255
193 218 255
193 218 255
193 218 255
193 218 255
193 218 255
193 218 255
193 218 255
193 218 255
193 218 255
193 218 255
193 218 255
193 218 255
193 218 255
193 218 255
193 218 255
193 218 255
193 218 255
193 218 255
193 218 255
193 218 255
193 218 255
193 218 255
193 218 255
193 218 255
193 218 255
193 218 255
193 218 255
193 218 255
193 218 255
193 218 255
193 218 255
193 218 255
193 218 255
193 218 255
193 218 255
193 218 255
193 218 255
193 218 255
193 218 255
193 218 255
193 218 255
193 218 255
193 218 255
193 218 255
193 218 255
193 218 255
193 218 255
193 218 255
193 218 255
193 218 255
193 218 255
193 218 255
193 218 255
193 218 255
193 218 255
193 218 255
193 218 255
193 218 255
193 218 255
193 218 255
193 218 255
193 218 255
193 218 255
193 218 255
193 218 255
193 218 255
193 218 255
193 218 255
193 218 255
193 218 255
193 218 255
193 218 255
193 218 255
193 218 255
193 218 255
193 218 255
193 218 255
193 218 255
193 218 255
193 218 255
193 218 255
193 218 255
193 218 255
193 218 255
193 218 255
193 218 255
193 218 255
193 218 255
193 218 255
193 218 255
193 218 255
193 218 255
193 218 255
193 218 255
193 218 255
193 218 255
193 218 255
193 218 255
193 218 255
193 218 255
193 218 255
193 218 255
193 218 255
193 218 255
193 218 255
193 218 255
193 218 255
193 218 255
193 218 255
193 218 255
193 218 255
193 218 255
193 218 255
193 218 255
193 218 255
193 218 255
193 218 255
193 218 255
193 218 255
193 218 255
193 218 255
193 218 255
193 218 255
193 218 255
193 218 255
193 218 255
193 218 255
193 218 255
193 218 255
193 218 255
193 218 255
193 218 255
193 218 255
193 218 255
193 218 255
193 218 255
193 218 255
193 218 255
193 218 255
193 218 255
193 218 255
193 218 255
194 218 255
194 218 255
194 218 255
194 218 255
194 218 255
194 218 255
194 218 255
194 218 255
194 218 255
194 218 255
194 218 255
194 218 255
194 218 255
194 218 255
194 218 255
194 218 255
194 218 255
194 218 255
194 218 255
194 218 255
194 218 255
194 218 255
194 218 255
194 218 255
194 218 255
194 218 255
194 218 255
194 218 255
194 218 255
194 218 255
194 218 255
194 218 255
194 218 255
194 218 255
194 218 255
194 218 255
194 219 255
194 219 255
194 219 255
194 219 255
194 219 255
194 219 255
194 219 255
194 219 255
194 219 255
194 219 255
194 219 255
194 219 255
194 219 255
104 122 149
60 73 93
61 74 94
65 80 102
61 75 96
66 81 103
61 75 96
66 80 100
60 74 96
57 70 90
60 76 99
57 71 91
59 73 93
64 78 99
63 78 100
62 77 99
62 76 97
61 75 95
56 69 90
62 76 97
60 73 91
59 73 95
58 72 93
60 74 95
64 78 99
61 75 96
59 73 93
64 77 98
63 77 98
59 73 93
64 78 100
61 75 95
62 76 96
61 75 96
56 69 88
60 74 94
58 72 94
59 73 95
64 79 101
60 73 94
58 70 89
61 74 93
64 79 102
63 78 101
59 73 93
62 76 98
63 77 99
61 75 97
63 77 99
63 77 99
59 73 94
61 74 95
61 75 96
58 72 92
64 78 100
63 78 100
58 71 90
59 73 93
62 76 97
61 75 96
60 74 94
63 78 100
60 74 96
62 77 98
62 76 98
61 75 96
65 80 102
59 73 94
61 74 95
57 70 91
65 79 101
65 79 101
61 76 97
60 74 94
55 67 85
61 75 96
60 74 94
63 78 100
57 70 90
58 71 91
65 80 104
61 76 98
61 74 93
59 72 92
64 79 101
59 72 92
62 76 98
59 73 94
61 75 97
61 75 97
63 77 98
58 72 93
61 75 96
62 76 97
59 73 93
60 73 93
56 69 89
58 72 92
61 76 100
62 76 99
61 75 97
61 75 97
55 68 87
59 72 93
61 75 96
59 73 93
61 75 95
64 78 100
61 75 97
59 72 92
61 75 95
62 77 98
59 72 93
59 73 93
60 74 95
60 74 94
60 73 93
60 74 95
64 78 100
62 76 98
63 78 100
60 74 95
62 76 98
59 72 91
61 75 97
60 74 95
58 72 92
62 76 96
58 70 89
99 116 141
194 219 255
194 219 255
194 219 255
194 219 255
194 219 255
194 219 255
194 219 255
194 219 255
194 219 255
194 219 255
194 219 255
194 219 255
194 219 255
194 219 255
194 218 255
194 218 255
194 218 255
194 218 255
194 218 255
194 218 255
194 218 255
194 218 255
194 218 255
194 218 255
194 218 255
194 218 255
194 218 255
194 218 255
194 218 255
194 218 255
194 218 255
194 218 255
194 218 255
194 218 255
194 218 255
194 218 255
194 218 255
194 218 255
194 218 255
194 218 255
194 218 255
194 218 255
194 218 255
194 218 255
194 218 255
194 218 255
194 218 255
194 218 255
194 218 255
193 218 255
193 218 255
193 218 255
193 218 255
193 218 255
193 218 255
193 218 255
193 218 255
193 218 255
193 218 255
193 218 255
193 218 255
193 218 255
193 218 255
193 218 255
193 218 255
193 218 255
193 218 255
193 218 255
193 218 255
193 218 255
193 218 255
193 218 255
193 218 255
193 218 255
193 218 255
193 218 255
193 218 255
193 218 255
193 218 255
193 218 255
193 218 255
193 218 255
193 218 255
193 218 255
193 218 255
193 218 255
193 218 255
193 218 255
193 218 255
193 218 255
193 218 255
193 218 255
193 218 255
193 218 255
193 218 255
193 218 255
193 218 255
193 218 255
193 218 255
193 218 255
193 218 255
193 218 255
193 218 255
193 218 255
193 218 255
193 218 255
193 218 255
193 218 255
193 218 255
193 218 255
193 218 255
193 218 255
193 218 255
193 218 255
193 218 255
193 218 255
193 218 255
193 218 255
193 218 255
193 218 255
193 218 255
193 218 255
193 218 255
193 218 255
193 218 255
193 218 255
193 218 255
193 218 255
193 218 255
193 218 255
193 218 255
193 218 255
193 218 255
193 218 255
193 218 255
193 218 255
193 218 255
193 218 255
193 218 255
193 218 255
193 218 255
193 218 255
193 218 255
193 218 255
193 218 255
193 218 255
193 218 255
193 218 255
193 218 255
193 218 255
193 218 255
193 218 255
193 218 255
193 218 255
193 218 255
193 218 255
193 218 255
193 218 255
193 218 255
193 218 255
193 218 255
193 218 255
193 218 255
193 218 255
193 218 255
193 218 255
193 218 255
193 218 255
193 218 255
193 218 255
193 218 255
193 218 255
193 218 255
193 218 255
193 218 255
193 218 255
193 218 255
193 218 255
193 218 255
193 218 255
193 218 255
194 218 255
194 218 255
194 218 255
194 218 255
194 218 255
194 218 255
194 218 255
194 218 255
194 218 255
194 218 255
194 218 255
194 218 255
194 218 255
194 218 255
194 218 255
194 218 255
194 218 255
194 218 255
194 218 255
194 218 255
194 218 255
194 218 255
194 218 255
194 218 255
194 218 255
194 218 255
194 218 255
194 218 255
194 218 255
194 218 255
194 218 255
194 218 255
194 218 255
194 219 255
194 219 255
194 219 255
194 219 255
194 219 255
194 219 255
194 219 255
194 219 255
194 219 255
194 219 255
194 219 255
194 219 255
194 219 255
194 219 255
194 219 255
194 219 255
194 219 255
194 219 255
194 219 255
194 219 255
194 219 255
194 219 255
194 219 255
194 219 255
194 219 255
194 219 255
194 219 255
194 219 255
194 219 255
194 219 255
194 219 255
194 219 255
194 219 255
194 219 255
194 219 255
194 219 255
194 219 255
194 219 255
194 219 255
194 219 255
194 219 255
194 219 255
194 219 255
194 219 255
194 219 255
194 219 255
194 219 255
194 219 255
194 219 255
194 219 255
194 219 255
194 219 255
194 219 255
194 219 255
194 219 255
194 219 255
110 129 156
62 75 95
63 78 100
60 74 94
61 75 96
60 74 95
62 77 98
62 76 96
61 74 94
62 76 97
61 75 96
58 73 96
59 72 92
63 77 97
58 71 90
60 74 96
60 74 95
58 73 94
61 76 97
63 77 99
61 74 95
60 74 94
60 74 96
60 74 96
61 75 95
54 66 85
57 70 90
61 76 97
57 70 89
58 72 92
61 75 97
63 78 99
61 74 95
61 75 96
63 78 100
65 80 103
63 78 100
59 74 95
62 76 97
62 77 98
59 72 92
62 76 97
58 71 91
62 76 97
59 73 93
61 75 95
61 75 96
59 74 96
64 79 101
67 82 105
63 77 97
64 79 101
65 79 100
67 82 104
60 74 96
59 72 91
58 72 92
65 80 102
61 75 97
58 73 94
58 72 93
63 79 101
58 73 95
65 79 101
60 73 94
58 71 91
63 77 99
61 75 96
64 77 98
62 77 99
60 74 94
62 76 97
60 75 97
61 75 95
61 75 95
58 72 93
58 72 93
61 76 99
60 74 94
60 72 91
63 77 98
64 78 100
64 79 101
62 77 99
56 70 90
60 75 97
61 74 94
61 75 95
64 78 99
61 76 98
61 76 98
58 71 91
55 69 89
61 77 99
62 76 97
53 66 85
61 75 96
58 72 93
58 72 93
61 75 95
57 70 90
63 78 100
58 72 92
59 73 93
61 74 95
59 72 91
62 76 98
61 76 98
67 81 103
62 76 97
59 73 95
66 82 105
61 76 97
57 70 90
63 77 98
61 77 100
63 78 101
57 71 91
58 71 92
60 74 95
58 72 92
60 75 97
61 75 96
60 73 93
62 76 97
62 76 98
61 76 97
62 77 98
60 73 93
99 115 140
194 219 255
194 219 255
194 219 255
194 219 255
194 219 255
194 219 255
194 219 255
194 219 255
194 219 255
194 219 255
194 219 255
194 219 255
194 219 255
194 219 255
194 219 255
194 219 255
194 219 255
194 219 255
194 219 255
194 219 255
194 219 255
194 219 255
194 219 255
194 219 255
194 219 255
194 219 255
194 219 255
194 219 255
194 219 255
194 219 255
194 219 255
194 219 255
194 219 255
194 219 255
194 219 255
194 219 255
194 219 255
194 219 255
194 219 255
194 219 255
194 219 255
194 219 255
194 219 255
194 219 255
194 219 255
194 219 255
194 219 255
194 219 255
194 219 255
194 219 255
194 219 255
194 219 255
194 219 255
194 219 255
194 218 255
194 218 255
194 218 255
194 218 255
194 218 255
194 218 255
194 218 255
194 218 255
194 218 255
194 218 255
194 218 255
194 218 255
194 218 255
194 218 255
194 218 255
194 218 255
194 218 255
194 218 255
194 218 255
194 218 255
194 218 255
194 218 255
194 218 255
194 218 255
194 218 255
194 218 255
194 218 255
194 218 255
194 218 255
194 218 255
194 218 255
194 218 255
194 218 255
194 218 255
194 218 255
194 218 255
193 218 255
194 218 255
193 218 255
193 218 255
193 218 255
193 218 255
193 218 255
193 218 255
193 218 255
193 218 255
193 218 255
193 218 255
193 218 255
193 218 255
193 218 255
193 218 255
193 218 255
193 218 255
193 218 255
193 218 255
193 218 255
193 218 255
193 218 255
193 218 255
193 218 255
193 218 255
193 218 255
193 218 255
193 218 255
193 218 255
193 218 255
193 218 255
193 218 255
193 218 255
193 218 255
193 218 255
193 218 255
193 218 255
193 218 255
193 218 255
193 218 255
193 218 255
193 218 255
193 218 255
193 218 255
193 218 255
193 218 255
193 218 255
193 218 255
193 218 255
193 218 255
194 218 255
194 218 255
194 218 255
194 218 255
194 218 255
194 218 255
194 218 255
194 218 255
194 218 255
194 218 255
194 218 255
194 218 255
194 218 255
194 218 255
194 218 255
194 218 255
194 218 255
194 218 255
194 218 255
194 218 255
194 218 255
194 218 255
194 218 255
194 218 255
194 218 255
194 218 255
194 218 255
194 218 255
194 218 255
194 218 255
194 218 255
194 218 255
194 218 255
194 218 255
194 218 255
194 218 255
194 218 255
194 218 255
194 218 255
194 219 255
194 219 255
194 219 255
194 219 255
194 219 255
194 219 255
194 219 255
194 219 255
194 219 255
194 219 255
194 219 255
194 219 255
194 219 255
194 219 255
194 219 255
194 219 255
194 219 255
194 219 255
194 219 255
194 219 255
194 219 255
194 219 255
194 219 255
194 219 255
194 219 255
194 219 255
194 219 255
194 219 255
194 219 255
194 219 255
194 219 255
194 219 255
194 219 255
194 219 255
194 219 255
194 219 255
194 219 255
194 219 255
194 219 255
194 219 255
194 219 255
194 219 255
194 219 255
194 219 255
194 219 255
194 219 255
194 219 255
194 219 255
194 219 255
194 219 255
194 219 255
194 219 255
194 219 255
194 219 255
194 219 255
194 219 255
194 219 255
195 219 255
195 219 255
195 219 255
195 219 255
195 219 255
195 219 255
195 219 255
195 219 255
195 219 255
195 219 255
195 219 255
195 219 255
195 219 255
195 219 255
195 219 255
195 219 255
195 219 255
195 219 255
195 219 255
195 219 255
195 219 255
195 219 255
195 219 255
195 219 255
195 219 255
195 219 255
195 219 255
195 219 255
195 219 255
195 219 255
195 219 255
195 219 255
195 219 255
118 137 165
66 80 103
59 72 92
61 75 96
59 72 92
62 77 99
60 74 94
56 69 90
63 77 97
64 78 98
60 74 94
60 74 96
63 77 99
56 69 88
62 76 97
61 74 94
60 74 95
61 75 96
56 70 90
60 74 94
61 75 95
60 74 95
65 79 102
59 73 94
57 70 90
60 74 95
63 77 97
59 72 91
60 73 93
58 72 92
59 73 93
62 77 98
57 71 91
62 76 98
59 73 94
55 67 86
62 76 96
59 73 93
63 77 98
65 79 99
59 72 92
63 78 100
59 72 92
59 73 94
61 75 96
63 78 100
61 75 95
62 77 98
57 71 91
60 73 93
59 73 94
63 77 98
60 74 95
58 71 92
63 77 98
62 75 95
60 74 95
58 72 93
62 76 96
63 78 99
62 76 97
57 70 90
56 70 90
59 73 94
56 70 89
60 73 93
61 75 96
61 75 96
60 74 94
64 78 100
62 76 98
54 67 86
58 71 92
57 70 89
63 77 98
65 79 100
59 73 93
59 73 94
60 74 95
59 73 94
63 78 101
61 75 95
58 71 91
61 76 98
59 73 94
62 76 97
62 76 98
59 72 93
61 74 95
62 77 99
67 83 105
61 76 98
61 75 97
62 76 96
63 77 99
57 71 91
58 71 90
59 72 92
63 76 95
63 78 100
60 74 95
64 78 99
63 76 96
59 73 94
60 73 94
66 81 103
60 74 95
61 75 95
61 75 95
59 73 94
62 77 99
60 74 94
62 77 98
64 78 99
59 72 93
59 73 94
62 76 97
62 76 97
63 76 96
60 75 97
55 69 89
64 79 100
61 75 96
58 72 91
60 74 94
59 73 94
62 77 100
61 75 96
58 72 93
111 129 155
195 219 255
195 219 255
195 219 255
195 219 255
195 219 255
195 219 255
195 219 255
195 219 255
195 219 255
195 219 255
195 219 255
195 219 255
195 219 255
195 219 255
195 219 255
195 219 255
195 219 255
195 219 255
195 219 255
195 219 255
195 219 255
195 219 255
195 219 255
195 219 255
195 219 255
195 219 255
195 219 255
195 219 255
195 219 255
195 219 255
195 219 255
195 219 255
194 219 255
194 219 255
194 219 255
194 219 255
194 219 255
194 219 255
194 219 255
194 219 255
194 219 255
194 219 255
194 219 255
194 219 255
194 219 255
194 219 255
194 219 255
194 219 255
194 219 255
194 219 255
194 219 255
194 219 255
194 219 255
194 219 255
194 219 255
194 219 255
194 219 255
194 219 255
194 219 255
194 219 255
194 219 255
194 219 255
194 219 255
194 219 255
194 219 255
194 219 255
194 219 255
194 219 255
194 219 255
194 219 255
194 219 255
194 219 255
194 219 255
194 219 255
194 219 255
194 219 255
194 219 255
194 219 255
194 219 255
194 219 255
194 219 255
194 219 255
194 219 255
194 219 255
194 219 255
194 219 255
194 219 255
194 219 255
194 219 255
194 219 255
194 218 255
194 218 255
194 218 255
194 218 255
194 218 255
194 218 255
194 218 255
194 218 255
194 218 255
194 218 255
194 218 255
194 218 255
194 218 255
194 218 255
194 218 255
194 218 255
194 218 255
194 218 255
194 218 255
194 218 255
194 218 255
194 218 255
194 218 255
194 218 255
194 218 255
194 218 255
194 218 255
194 218 255
194 218 255
194 218 255
194 218 255
194 218 255
194 218 255
194 218 255
194 218 255
194 218 255
194 218 255
194 218 255
193 218 255
193 218 255
193 218 255
193 218 255
193 218 255
193 218 255
193 218 255
194 218 255
194 218 255
194 218 255
194 218 255
194 218 255
194 218 255
194 218 255
194 218 255
194 218 255
194 218 255
194 218 255
194 218 255
194 219 255
194 219 255
194 219 255
194 219 255
194 219 255
194 219 255
194 219 255
194 219 255
194 219 255
194 219 255
194 219 255
194 219 255
194 219 255
194 219 255
194 219 255
194 219 255
194 219 255
194 219 255
194 219 255
194 219 255
194 219 255
194 219 255
194 219 255
194 219 255
194 219 255
194 219 255
194 219 255
194 219 255
194 219 255
194 219 255
194 219 255
194 219 255
194 219 255
194 219 255
194 219 255
194 219 255
194 219 255
194 219 255
194 219 255
194 219 255
194 219 255
194 219 255
194 219 255
194 219 255
194 219 255
194 219 255
194 219 255
194 219 255
194 219 255
194 219 255
194 219 255
194 219 255
194 219 255
194 219 255
194 219 255
194 219 255
194 219 255
194 219 255
194 219 255
195 219 255
195 219 255
195 219 255
195 219 255
195 219 255
195 219 255
195 219 255
195 219 255
195 219 255
195 219 255
195 219 255
195 219 255
195 219 255
195 219 255
195 219 255
195 219 255
195 219 255
195 219 255
195 219 255
195 219 255
195 219 255
195 219 255
195 219 255
195 219 255
195 219 255
195 219 255
195 219 255
195 219 255
195 219 255
195 219 255
195 219 255
195 219 255
195 219 255
195 219 255
195 219 255
195 219 255
195 219 255
195 219 255
195 219 255
195 219 255
195 219 255
195 219 255
195 219 255
195 219 255
195 219 255
195 219 255
195 219 255
195 219 255
195 219 255
195 219 255
195 219 255
195 219 255
195 219 255
195 219 255
195 219 255
195 219 255
195 219 255
195 219 255
195 219 255
195 219 255
195 219 255
195 219 255
195 219 255
195 219 255
135 154 183
60 74 94
64 79 102
57 72 93
62 76 97
61 75 96
61 75 96
61 74 94
58 72 93
61 76 98
61 74 94
61 75 96
60 74 94
62 76 97
62 76 97
66 81 103
59 73 93
63 77 99
60 75 96
61 74 94
56 69 89
59 72 92
60 74 94
62 76 98
61 76 98
62 75 95
57 70 90
60 73 93
60 73 93
65 80 102
64 78 100
55 67 85
64 79 102
64 79 102
65 79 101
61 74 94
61 74 94
63 77 99
65 80 102
57 71 93
61 75 97
59 74 95
61 75 96
62 77 98
59 72 92
60 75 96
59 73 95
61 75 97
58 72 93
56 69 89
58 71 91
61 76 98
58 71 91
57 70 88
59 73 93
57 71 92
58 72 92
62 76 97
61 75 95
63 77 98
59 73 94
60 74 95
57 71 91
61 75 96
64 78 99
60 74 95
62 77 98
58 71 91
57 71 91
61 75 95
57 70 90
60 73 94
57 71 91
60 74 96
61 75 97
63 77 98
61 75 97
59 73 95
59 72 92
64 79 101
65 80 101
63 77 100
61 76 98
66 82 105
66 80 100
58 71 91
64 79 101
64 79 100
61 75 97
63 77 98
57 71 92
57 70 90
57 71 92
60 73 92
57 71 91
58 71 90
59 72 93
59 73 93
61 75 96
60 74 95
61 76 97
61 75 96
62 75 96
59 72 92
64 78 100
62 76 98
64 79 102
59 73 93
63 78 100
62 76 96
60 74 95
60 74 94
63 77 99
61 75 97
57 71 91
56 69 88
64 78 100
64 79 100
60 74 95
61 76 98
60 73 94
61 76 97
60 75 97
59 72 92
60 74 95
59 73 93
61 74 95
55 69 89
59 72 92
127 145 173
195 219 255
195 219 255
195 219 255
195 219 255
195 219 255
195 219 255
195 219 255
195 219 255
195 219 255
195 219 255
195 219 255
195 219 255
195 219 255
195 219 255
195 219 255
195 219 255
195 219 255
195 219 255
195 219 255
195 219 255
195 219 255
195 219 255
195 219 255
195 219 255
195 219 255
195 219 255
195 219 255
195 219 255
195 219 255
195 219 255
195 219 255
195 219 255
195 219 255
195 219 255
195 219 255
195 219 255
195 219 255
195 219 255
195 219 255
195 219 255
195 219 255
195 219 255
195 219 255
195 219 255
195 219 255
195 219 255
195 219 255
195 219 255
195 219 255
195 219 255
195 219 255
195 219 255
195 219 255
195 219 255
195 219 255
195 219 255
195 219 255
195 219 255
195 219 255
195 219 255
195 219 255
195 219 255
194 219 255
194 219 255
194 219 255
194 219 255
194 219 255
194 219 255
194 219 255
194 219 255
194 219 255
194 219 255
194 219 255
194 219 255
194 219 255
194 219 255
194 219 255
194 219 255
194 219 255
194 219 255
194 219 255
194 219 255
194 219 255
194 219 255
194 219 255
194 219 255
194 219 255
194 219 255
194 219 255
194 219 255
194 219 255
194 219 255
194 219 255
194 219 255
194 219 255
194 219 255
194 219 255
194 219 255
194 219 255
194 219 255
194 219 255
194 219 255
194 219 255
194 219 255
194 219 255
194 219 255
194 219 255
194 219 255
194 219 255
194 219 255
194 219 255
194 219 255
194 219 255
194 219 255
194 219 255
194 219 255
194 219 255
194 219 255
194 219 255
194 219 255
194 219 255
194 219 255
194 219 255
194 218 255
194 218 255
194 218 255
194 218 255
194 218 255
194 218 255
194 218 255
194 218 255
194 218 255
194 218 255
194 218 255
194 218 255
194 219 255
194 219 255
194 219 255
194 219 255
194 219 255
194 219 255
194 219 255
194 219 255
194 219 255
194 219 255
194 219 255
194 219 255
194 219 255
194 219 255
194 219 255
194 219 255
194 219 255
194 219 255
194 219 255
194 219 255
194 219 255
194 219 255
194 219 255
194 219 255
194 219 255
194 219 255
194 219 255
194 219 255
194 219 255
194 219 255
194 219 255
194 219 255
194 219 255
194 219 255
194 219 255
194 219 255
194 219 255
194 219 255
194 219 255
194 219 255
194 219 255
194 219 255
194 219 255
194 219 255
194 219 255
194 219 255
195 219 255
195 219 255
195 219 255
195 219 255
195 219 255
195 219 255
195 219 255
195 219 255
195 219 255
195 219 255
195 219 255
195 219 255
195 219 255
195 219 255
195 219 255
195 219 255
195 219 255
195 219 255
195 219 255
195 219 255
195 219 255
195 219 255
195 219 255
195 219 255
195 219 255
195 219 255
195 219 255
195 219 255
195 219 255
195 219 255
195 219 255
195 219 255
195 219 255
195 219 255
195 219 255
195 219 255
195 219 255
195 219 255
195 219 255
195 219 255
195 219 255
195 219 255
195 219 255
195 219 255
195 219 255
195 219 255
195 219 255
195 219 255
195 219 255
195 219 255
195 219 255
195 219 255
195 219 255
195 219 255
195 219 255
195 219 255
195 219 255
195 219 255
195 219 255
195 219 255
195 219 255
195 219 255
195 219 255
195 219 255
195 219 255
196 220 255
196 220 255
196 220 255
196 220 255
196 220 255
196 220 255
196 220 255
196 220 255
196 220 255
196 220 255
196 220 255
196 220 255
196 220 255
196 220 255
196 220 255
196 220 255
196 220 255
196 220 255
196 220 255
196 220 255
196 220 255
196 220 255
196 220 255
196 220 255
163 185 217
60 73 93
65 79 99
56 68 88
64 77 98
60 73 93
58 72 93
63 77 98
58 71 90
58 72 92
56 69 89
60 74 96
60 74 95
60 73 92
60 74 95
57 71 91
61 75 96
58 71 90
60 73 94
59 73 94
61 75 96
61 76 98
61 76 97
58 72 91
59 73 93
62 76 96
60 73 94
61 74 94
60 73 94
60 75 96
64 79 100
63 78 100
59 73 93
61 75 96
59 72 92
56 69 88
59 73 93
61 75 95
58 72 93
56 70 90
61 76 99
62 76 97
59 73 94
62 76 97
59 73 95
61 75 95
60 73 93
61 76 97
61 75 95
61 75 95
61 75 97
55 68 88
56 70 89
58 72 92
59 74 96
58 71 92
60 74 94
59 73 93
62 77 99
62 76 97
58 73 94
61 75 95
63 77 97
63 77 99
62 77 98
59 73 93
57 71 90
61 76 97
59 72 93
61 75 96
62 77 98
63 78 99
58 71 90
56 69 87
56 69 88
60 73 93
64 78 101
61 75 96
55 68 88
59 72 92
57 71 92
59 73 94
62 76 97
60 74 95
62 76 98
58 72 92
64 79 101
59 73 94
60 74 96
65 79 102
62 76 97
61 75 96
62 76 95
65 79 101
59 74 95
60 75 97
57 70 90
60 74 95
59 73 94
59 73 93
63 77 97
63 77 99
63 77 98
62 77 98
58 71 91
58 71 90
61 75 97
62 76 98
60 74 94
59 72 93
62 77 100
60 73 93
60 74 96
61 75 95
58 71 92
61 75 96
58 71 91
61 75 96
60 73 94
58 71 91
61 75 95
59 73 94
63 77 99
58 71 91
60 73 93
60 74 94
65 79 101
62 76 96
58 71 91
161 182 214
196 220 255
196 220 255
196 220 255
196 220 255
196 220 255
196 220 255
196 220 255
196 220 255
196 220 255
196 220 255
196 220 255
196 220 255
196 220 255
196 220 255
196 220 255
196 220 255
196 220 255
196 220 255
196 220 255
196 220 255
196 220 255
196 220 255
196 220 255
196 220 255
195 219 255
196 220 255
195 219 255
195 219 255
195 219 255
195 219 255
195 219 255
195 219 255
195 219 255
195 219 255
195 219 255
195 219 255
195 219 255
195 219 255
195 219 255
195 219 255
195 219 255
195 219 255
195 219 255
195 219 255
195 219 255
195 219 255
195 219 255
195 219 255
195 219 255
195 219 255
195 219 255
195 219 255
195 219 255
195 219 255
195 219 255
195 219 255
195 219 255
195 219 255
195 219 255
195 219 255
195 219 255
195 219 255
195 219 255
195 219 255
195 219 255
195 219 255
195 219 255
195 219 255
195 219 255
195 219 255
195 219 255
195 219 255
195 219 255
195 219 255
195 219 255
195 219 255
195 219 255
195 219 255
195 219 255
195 219 255
195 219 255
195 219 255
195 219 255
195 219 255
195 219 255
195 219 255
195 219 255
195 219 255
195 219 255
195 219 255
195 219 255
194 219 255
194 219 255
194 219 255
194 219 255
194 219 255
194 219 255
194 219 255
194 219 255
194 219 255
194 219 255
194 219 255
194 219 255
194 219 255
194 219 255
194 219 255
194 219 255
194 219 255
194 219 255
194 219 255
194 219 255
194 219 255
194 219 255
194 219 255
194 219 255
194 219 255
194 219 255
194 219 255
194 219 255
194 219 255
194 219 255
194 219 255
194 219 255
194 219 255
194 219 255
194 219 255
194 219 255
194 219 255
194 219 255
194 219 255
194 219 255
194 219 255
194 219 255
194 219 255
194 219 255
194 219 255
194 219 255
194 219 255
194 219 255
194 219 255
194 219 255
194 219 255
194 219 255
194 219 255
194 219 255
194 219 255
194 219 255
194 219 255
194 219 255
194 219 255
194 219 255
194 219 255
194 219 255
195 219 255
195 219 255
195 219 255
195 219 255
195 219 255
195 219 255
195 219 255
195 219 255
195 219 255
195 219 255
195 219 255
195 219 255
195 219 255
195 219 255
195 219 255
195 219 255
195 219 255
195 219 255
195 219 255
195 219 255
195 219 255
195 219 255
195 219 255
195 219 255
195 219 255
195 219 255
195 219 255
195 219 255
195 219 255
195 219 255
195 219 255
195 219 255
195 219 255
195 219 255
195 219 255
195 219 255
195 219 255
195 219 255
195 219 255
195 219 255
195 219 255
195 219 255
195 219 255
195 219 255
195 219 255
195 219 255
195 219 255
195 219 255
195 219 255
195 219 255
195 219 255
195 219 255
195 219 255
195 219 255
195 219 255
195 219 255
195 219 255
195 219 255
195 219 255
195 219 255
195 219 255
195 219 255
195 219 255
195 219 255
195 219 255
195 219 255
195 219 255
195 219 255
196 220 255
196 220 255
196 220 255
196 220 255
196 220 255
196 220 255
196 220 255
196 220 255
196 220 255
196 220 255
196 220 255
196 220 255
196 220 255
196 220 255
196 220 255
196 220 255
196 220 255
196 220 255
196 220 255
196 220 255
196 220 255
196 220 255
196 220 255
196 220 255
196 220 255
196 220 255
196 220 255
196 220 255
196 220 255
196 220 255
196 220 255
196 220 255
196 220 255
196 220 255
196 220 255
196 220 255
196 220 255
196 220 255
196 220 255
196 220 255
196 220 255
196 220 255
196 220 255
196 220 255
196 220 255
196 220 255
196 220 255
196 220 255
196 220 255
169 191 223
61 75 95
63 77 98
59 73 95
56 70 90
59 73 95
59 72 91
58 71 90
58 71 92
62 76 98
62 76 97
59 73 95
61 75 96
61 75 96
51 63 81
57 70 89
62 76 97
58 71 90
60 73 93
60 73 93
62 75 95
58 71 91
58 72 92
60 73 92
61 75 97
60 74 94
63 78 100
59 73 94
64 78 100
62 77 100
58 72 93
59 73 93
62 76 97
59 73 94
62 75 96
63 77 99
63 77 97
62 76 97
62 76 98
57 71 92
64 77 98
62 76 97
62 76 98
60 75 96
58 72 92
58 71 91
57 70 89
60 73 94
65 79 102
61 74 94
59 72 93
61 75 97
62 77 98
59 72 91
62 76 96
61 75 96
59 73 94
55 68 88
60 74 94
59 73 94
55 68 87
60 72 91
54 67 86
58 72 91
62 77 98
63 78 100
61 75 97
60 75 96
59 73 94
65 81 103
59 73 94
59 73 93
61 76 97
56 70 91
63 77 98
61 75 96
58 72 94
61 75 96
62 76 98
58 73 94
59 73 94
58 72 93
61 75 96
64 79 101
57 69 88
57 70 90
63 78 100
63 77 99
58 71 90
62 75 95
62 76 97
61 75 96
61 75 96
60 73 92
63 78 100
65 80 103
59 73 94
61 75 95
60 73 93
60 73 93
58 71 90
57 71 91
59 73 94
57 70 90
60 74 95
63 77 99
62 76 98
59 74 95
58 72 93
57 71 92
60 74 95
60 74 96
61 74 94
56 69 89
57 70 89
59 72 93
58 71 91
55 68 86
60 73 93
58 72 92
61 74 95
58 72 91
55 68 88
60 75 97
60 73 93
59 73 95
56 69 89
53 65 84
57 70 90
168 189 222
196 220 255
196 220 255
196 220 255
196 220 255
196 220 255
196 220 255
196 220 255
196 220 255
196 220 255
196 220 255
196 220 255
196 220 255
196 220 255
196 220 255
196 220 255
196 220 255
196 220 255
196 220 255
196 220 255
196 220 255
196 220 255
196 220 255
196 220 255
196 220 255
196 220 255
196 220 255
196 220 255
196 220 255
196 220 255
196 220 255
196 220 255
196 220 255
196 220 255
196 220 255
196 220 255
196 220 255
196 220 255
196 220 255
196 220 255
196 220 255
196 220 255
196 220 255
196 220 255
196 220 255
196 220 255
196 220 255
196 220 255
196 220 255
195 219 255
195 219 255
195 219 255
195 219 255
195 219 255
195 219 255
195 219 255
195 219 255
195 219 255
195 219 255
195 219 255
195 219 255
195 219 255
195 219 255
195 219 255
195 219 255
195 219 255
195 219 255
195 219 255
195 219 255
195 219 255
195 219 255
195 219 255
195 219 255
195 219 255
195 219 255
195 219 255
195 219 255
195 219 255
195 219 255
195 219 255
195 219 255
195 219 255
195 219 255
195 219 255
195 219 255
195 219 255
195 219 255
195 219 255
195 219 255
195 219 255
195 219 255
195 219 255
195 219 255
195 219 255
195 219 255
195 219 255
195 219 255
195 219 255
195 219 255
195 219 255
195 219 255
195 219 255
195 219 255
195 219 255
195 219 255
195 219 255
195 219 255
195 219 255
195 219 255
195 219 255
195 219 255
195 219 255
195 219 255
195 219 255
195 219 255
195 219 255
195 219 255
194 219 255
194 219 255
194 219 255
194 219 255
194 219 255
194 219 255
194 219 255
194 219 255
194 219 255
194 219 255
194 219 255
194 219 255
194 219 255
194 219 255
194 219 255
194 219 255
194 219 255
194 219 255
194 219 255
195 219 255
195 219 255
195 219 255
195 219 255
195 219 255
195 219 255
195 219 255
195 219 255
195 219 255
195 219 255
195 219 255
195 219 255
195 219 255
195 219 255
195 219 255
195 219 255
195 219 255
195 219 255
195 219 255
195 219 255
195 219 255
195 219 255
195 219 255
195 219 255
195 219 255
195 219 255
195 219 255
195 219 255
195 219 255
195 219 255
195 219 255
195 219 255
195 219 255
195 219 255
195 219 255
195 219 255
195 219 255
195 219 255
195 219 255
195 219 255
195 219 255
195 219 255
195 219 255
195 219 255
195 219 255
195 219 255
195 219 255
195 219 255
195 219 255
195 219 255
195 219 255
195 219 255
195 219 255
195 219 255
195 219 255
195 219 255
195 219 255
195 219 255
195 219 255
195 219 255
195 219 255
195 219 255
195 219 255
195 219 255
195 219 255
196 220 255
196 220 255
196 220 255
196 220 255
196 220 255
196 220 255
196 220 255
196 220 255
196 220 255
196 220 255
196 220 255
196 220 255
196 220 255
196 220 255
196 220 255
196 220 255
196 220 255
196 220 255
196 220 255
196 220 255
196 220 255
196 220 255
196 220 255
196 220 255
196 220 255
196 220 255
196 220 255
196 220 255
196 220 255
196 220 255
196 220 255
196 220 255
196 220 255
196 220 255
196 220 255
196 220 255
196 220 255
196 220 255
196 220 255
196 220 255
196 220 255
196 220 255
196 220 255
196 220 255
196 220 255
196 220 255
196 220 255
196 220 255
196 220 255
196 220 255
197 220 255
197 220 255
197 220 255
197 220 255
197 220 255
197 220 255
197 220 255
197 220 255
197 220 255
197 220 255
197 220 255
197 220 255
197 220 255
197 220 255
197 220 255
197 220 255
197 220 255
197 220 255
197 220 255
197 220 255
193 216 251
65 80 103
53 65 83
61 75 96
56 69 88
58 71 91
59 73 93
55 68 88
61 75 96
61 74 94
61 76 97
60 73 93
58 72 92
62 77 98
54 67 87
63 78 100
64 78 99
60 73 94
58 72 92
62 77 98
57 70 90
58 72 92
62 75 95
65 80 101
56 69 89
60 74 95
61 75 96
58 72 93
58 72 92
61 76 97
64 77 98
57 70 89
64 78 100
60 74 94
59 72 93
59 73 93
63 77 99
63 77 99
59 74 95
58 72 91
58 71 92
63 78 100
62 75 95
59 73 93
60 74 95
62 76 97
57 71 92
57 70 90
59 72 92
60 73 93
63 78 101
59 72 93
62 77 99
59 73 93
57 71 91
59 73 94
64 78 98
61 75 96
61 75 97
63 79 102
61 75 96
62 76 97
63 77 98
60 74 96
56 69 89
61 74 94
58 72 94
57 70 90
67 82 105
59 73 93
60 74 96
60 74 94
60 73 92
59 73 93
66 81 102
65 79 101
59 73 93
59 73 93
61 75 96
59 73 94
63 77 99
64 78 100
58 71 92
56 70 89
60 74 95
55 68 87
59 73 94
61 76 97
56 71 92
59 74 95
61 75 96
60 74 94
59 72 93
57 69 89
61 76 97
59 72 92
61 77 99
58 72 92
63 76 96
63 77 99
60 73 94
64 79 100
60 74 96
55 68 88
57 70 90
56 69 88
59 73 93
62 76 97
63 77 98
63 77 97
62 76 98
63 78 100
56 69 88
57 70 88
60 73 94
61 76 98
61 76 98
59 73 92
57 70 89
57 70 89
60 74 94
62 76 97
61 74 93
61 75 96
57 70 89
60 74 95
57 69 89
62 77 98
61 75 97
191 214 248
197 220 255
197 220 255
197 220 255
197 220 255
197 220 255
197 220 255
197 220 255
197 220 255
197 220 255
197 220 255
197 220 255
197 220 255
197 220 255
197 220 255
197 220 255
197 220 255
197 220 255
197 220 255
197 220 255
197 220 255
196 220 255
196 220 255
196 220 255
196 220 255
196 220 255
196 220 255
196 220 255
196 220 255
196 220 255
196 220 255
196 220 255
196 220 255
196 220 255
196 220 255
196 220 255
196 220 255
196 220 255
196 220 255
196 220 255
196 220 255
196 220 255
196 220 255
196 220 255
196 220 255
196 220 255
196 220 255
196 220 255
196 220 255
196 220 255
196 220 255
196 220 255
196 220 255
196 220 255
196 220 255
196 220 255
196 220 255
196 220 255
196 220 255
196 220 255
196 220 255
196 220 255
196 220 255
196 220 255
196 220 255
196 220 255
196 220 255
196 220 255
196 220 255
196 220 255
195 219 255
195 219 255
195 219 255
195 219 255
195 219 255
195 219 255
195 219 255
195 219 255
195 219 255
195 219 255
195 219 255
195 219 255
195 219 255
195 219 255
195 219 255
195 219 255
195 219 255
195 219 255
195 219 255
195 219 255
195 219 255
195 219 255
195 219 255
195 219 255
195 219 255
195 219 255
195 219 255
195 219 255
195 219 255
195 219 255
195 219 255
195 219 255
195 219 255
195 219 255
195 219 255
195 219 255
195 219 255
195 219 255
195 219 255
195 219 255
195 219 255
195 219 255
195 219 255
195 219 255
195 219 255
195 219 255
195 219 255
195 219 255
195 219 255
195 219 255
195 219 255
195 219 255
195 219 255
195 219 255
195 219 255
195 219 255
195 219 255
195 219 255
195 219 255
195 219 255
195 219 255
195 219 255
195 219 255
195 219 255
195 219 255
195 219 255
195 219 255
195 219 255
195 219 255
195 219 255
195 219 255
195 219 255
195 219 255
195 219 255
195 219 255
195 219 255
195 219 255
195 219 255
195 219 255
195 219 255
195 219 255
195 219 255
195 219 255
195 219 255
195 219 255
195 219 255
195 219 255
195 219 255
195 219 255
195 219 255
195 219 255
195 219 255
195 219 255
195 219 255
195 219 255
195 219 255
195 219 255
195 219 255
195 219 255
195 219 255
195 219 255
195 219 255
195 219 255
195 219 255
195 219 255
195 219 255
195 219 255
195 219 255
195 219 255
195 219 255
196 220 255
196 220 255
196 220 255
196 220 255
196 220 255
196 220 255
196 220 255
196 220 255
196 220 255
196 220 255
196 220 255
196 220 255
196 220 255
196 220 255
196 220 255
196 220 255
196 220 255
196 220 255
196 220 255
196 220 255
196 220 255
196 220 255
196 220 255
196 220 255
196 220 255
196 220 255
196 220 255
196 220 255
196 220 255
196 220 255
196 220 255
196 220 255
196 220 255
196 220 255
196 220 255
196 220 255
196 220 255
196 220 255
196 220 255
196 220 255
196 220 255
196 220 255
196 220 255
196 220 255
196 220 255
196 220 255
196 220 255
196 220 255
196 220 255
196 220 255
196 220 255
196 220 255
196 220 255
197 220 255
197 220 255
197 220 255
197 220 255
197 220 255
197 220 255
197 220 255
197 220 255
197 220 255
197 220 255
197 220 255
197 220 255
197 220 255
197 220 255
197 220 255
197 220 255
197 220 255
197 220 255
197 220 255
197 220 255
197 220 255
197 220 255
197 220 255
197 220 255
197 220 255
197 220 255
197 220 255
196 219 254
189 212 247
181 203 238
181 204 239
173 195 229
166 188 221
159 181 215
157 179 212
147 168 199
145 166 198
135 156 188
117 137 167
65 80 103
54 67 87
61 75 96
58 71 91
65 79 100
55 68 88
62 76 98
64 78 99
61 75 96
57 71 91
59 73 93
64 78 99
58 71 91
63 77 98
61 76 99
55 68 87
59 72 90
59 71 90
64 79 102
55 68 87
59 72 91
60 74 95
57 70 89
61 74 95
57 70 89
57 70 90
56 69 89
58 72 92
59 73 93
58 72 94
60 73 94
60 75 96
62 76 96
58 71 91
58 71 92
58 72 93
60 73 92
61 74 95
64 77 98
59 72 92
57 71 91
57 70 90
59 72 92
55 67 85
54 66 85
56 69 88
59 72 93
59 74 96
54 66 85
59 72 92
60 73 93
62 76 96
56 70 90
60 74 95
61 74 95
59 73 93
59 72 92
60 74 94
60 74 94
61 74 94
62 76 98
63 77 97
58 71 92
61 76 98
62 76 98
60 74 94
62 75 95
58 71 91
60 73 93
59 72 92
57 71 92
59 73 94
61 76 97
57 70 89
58 72 93
60 74 94
58 72 92
59 73 93
60 74 94
62 76 96
61 74 94
56 69 88
60 73 94
58 71 92
63 78 100
55 68 87
58 71 91
64 79 101
60 74 95
62 76 98
62 76 97
54 68 88
59 72 92
64 78 99
60 74 95
64 79 102
58 71 92
63 77 99
62 76 98
57 71 91
61 75 96
62 76 99
58 71 92
61 75 96
61 74 95
62 76 97
53 65 82
59 73 94
62 76 97
57 70 89
60 73 93
55 69 88
61 74 94
63 78 100
59 72 91
60 74 95
59 73 94
59 73 93
61 76 97
57 72 94
57 70 89
56 68 87
59 72 93
58 72 92
60 73 93
61 74 94
62 75 95
71 86 109
138 159 190
136 157 189
139 160 191
133 154 186
152 174 207
160 183 216
163 185 218
173 196 230
176 199 234
184 207 241
190 213 248
196 219 254
197 220 255
197 220 255
197 220 255
197 220 255
197 220 255
197 220 255
197 220 255
197 220 255
197 220 255
197 220 255
197 220 255
197 220 255
197 220 255
197 220 255
197 220 255
197 220 255
197 220 255
197 220 255
197 220 255
197 220 255
197 220 255
197 220 255
197 220 255
197 220 255
197 220 255
197 220 255
197 220 255
197 220 255
197 220 255
196 220 255
196 220 255
196 220 255
196 220 255
196 220 255
196 220 255
196 220 255
196 220 255
196 220 255
196 220 255
196 220 255
196 220 255
196 220 255
196 220 255
196 220 255
196 220 255
196 220 255
196 220 255
196 220 255
196 220 255
196 220 255
196 220 255
196 220 255
196 220 255
196 220 255
196 220 255
196 220 255
196 220 255
196 220 255
196 220 255
196 220 255
196 220 255
196 220 255
196 220 255
196 220 255
196 220 255
196 220 255
196 220 255
196 220 255
196 220 255
196 220 255
196 220 255
196 220 255
196 220 255
196 220 255
196 220 255
196 220 255
196 220 255
196 220 255
195 219 255
195 219 255
195 219 255
195 219 255
195 219 255
195 219 255
195 219 255
195 219 255
195 219 255
195 219 255
195 219 255
195 219 255
195 219 255
195 219 255
195 219 255
195 219 255
195 219 255
195 219 255
195 219 255
195 219 255
195 219 255
195 219 255
195 219 255
195 219 255
195 219 255
195 219 255
195 219 255
195 219 255
195 219 255
195 219 255
195 219 255
195 219 255
195 219 255
195 219 255
195 219 255
195 219 255
195 219 255
195 219 255
195 219 255
195 219 255
195 219 255
195 219 255
195 219 255
195 219 255
195 219 255
195 219 255
195 219 255
195 219 255
195 219 255
195 219 255
195 219 255
195 219 255
195 219 255
195 219 255
195 219 255
195 219 255
195 219 255
195 219 255
195 219 255
195 219 255
195 219 255
195 219 255
195 219 255
195 219 255
195 219 255
195 219 255
195 219 255
195 219 255
195 219 255
195 219 255
195 219 255
196 220 255
195 219 255
196 220 255
196 220 255
196 220 255
196 220 255
196 220 255
196 220 255
196 220 255
196 220 255
196 220 255
196 220 255
196 220 255
196 220 255
196 220 255
196 220 255
196 220 255
196 220 255
196 220 255
196 220 255
196 220 255
196 220 255
196 220 255
196 220 255
196 220 255
196 220 255
196 220 255
196 220 255
196 220 255
196 220 255
196 220 255
196 220 255
196 220 255
196 220 255
196 220 255
196 220 255
196 220 255
196 220 255
196 220 255
196 220 255
196 220 255
196 220 255
196 220 255
196 220 255
196 220 255
196 220 255
196 220 255
196 220 255
196 220 255
196 220 255
196 220 255
196 220 255
196 220 255
197 220 255
197 220 255
197 220 255
197 220 255
197 220 255
197 220 255
197 220 255
197 220 255
197 220 255
197 220 255
197 220 255
197 220 255
197 220 255
197 220 255
197 220 255
197 220 255
197 220 255
197 220 255
197 220 255
197 220 255
197 220 255
197 220 255
197 220 255
197 220 255
197 220 255
197 220 255
197 220 255
197 220 255
197 220 255
197 221 255
191 214 249
190 213 248
184 207 241
169 191 225
157 179 212
162 184 217
152 174 207
142 164 197
134 155 186
133 154 186
124 145 176
112 132 162
107 127 157
99 119 149
95 115 144
91 110 139
80 99 127
80 99 127
80 99 127
80 99 127
79 98 127
78 98 127
79 98 127
79 98 127
80 99 127
80 99 127
79 99 127
79 98 127
63 78 99
57 71 91
60 74 95
60 73 92
60 74 94
58 71 90
59 72 92
57 70 90
58 72 94
55 67 85
63 77 99
56 70 90
64 78 99
59 73 94
57 70 89
58 71 92
59 72 91
63 78 100
65 79 100
59 72 92
61 75 94
56 69 88
55 67 86
63 77 98
57 70 91
62 76 97
64 79 102
57 71 91
60 73 94
55 67 86
61 75 96
59 72 93
59 73 93
62 76 98
57 72 93
59 74 96
59 73 95
59 73 94
62 75 94
60 74 96
63 77 98
60 73 93
58 72 94
58 72 93
57 71 91
61 74 93
56 70 90
57 70 90
59 72 91
60 73 93
61 75 97
60 74 94
62 76 98
57 70 90
59 73 94
58 71 91
64 78 99
58 71 90
59 73 93
60 74 95
60 75 97
61 75 96
59 73 94
56 69 89
61 74 95
57 69 88
58 72 92
59 73 92
59 72 92
60 75 97
64 78 99
58 71 91
60 75 96
60 74 95
62 75 95
58 72 91
61 76 98
61 75 95
54 67 86
57 70 90
60 73 93
63 76 96
58 71 91
57 70 90
61 74 93
60 74 94
57 70 90
59 73 94
60 74 94
58 71 91
62 77 99
60 74 95
61 76 97
60 73 92
61 74 95
56 69 88
58 71 91
57 70 90
61 76 98
63 77 97
56 70 91
61 75 96
61 74 93
62 76 96
53 66 85
58 71 91
64 78 98
58 71 91
60 74 95
61 74 94
61 75 96
58 72 93
60 73 93
59 72 93
64 78 100
55 67 86
56 69 89
59 73 93
54 66 85
60 73 93
66 81 104
55 68 87
65 79 100
64 78 100
57 70 90
62 76 97
59 73 93
68 84 108
82 100 127
80 99 127
80 99 127
79 97 126
79 98 127
79 99 127
79 98 127
81 99 127
77 96 126
79 98 127
80 99 127
81 101 130
92 112 142
98 118 147
99 119 149
112 133 165
126 146 176
114 134 165
123 144 175
138 159 190
140 161 194
157 178 211
164 185 218
161 183 216
166 188 222
176 199 232
187 210 245
192 216 250
197 221 255
197 220 255
197 220 255
197 220 255
197 220 255
197 220 255
197 220 255
197 220 255
197 220 255
197 220 255
197 220 255
197 220 255
197 220 255
197 220 255
197 220 255
197 220 255
197 220 255
197 220 255
197 220 255
197 220 255
197 220 255
197 220 255
197 220 255
197 220 255
197 220 255
197 220 255
197 220 255
197 220 255
197 220 255
197 220 255
196 220 255
196 220 255
196 220 255
196 220 255
196 220 255
196 220 255
196 220 255
196 220 255
196 220 255
196 220 255
196 220 255
196 220 255
196 220 255
196 220 255
196 220 255
196 220 255
196 220 255
196 220 255
196 220 255
196 220 255
196 220 255
196 220 255
196 220 255
196 220 255
196 220 255
196 220 255
196 220 255
196 220 255
196 220 255
196 220 255
196 220 255
196 220 255
196 220 255
196 220 255
196 220 255
196 220 255
196 220 255
196 220 255
196 220 255
196 220 255
196 220 255
196 220 255
196 220 255
196 220 255
196 220 255
196 220 255
196 220 255
196 220 255
196 220 255
196 220 255
196 220 255
196 219 255
195 219 255
195 219 255
195 219 255
195 219 255
195 219 255
195 219 255
195 219 255
195 219 255
195 219 255
195 219 255
195 219 255
195 219 255
195 219 255
195 219 255
195 219 255
195 219 255
195 219 255
195 219 255
195 219 255
195 219 255
195 219 255
195 219 255
195 219 255
195 219 255
195 219 255
195 219 255
195 219 255
195 219 255
195 219 255
195 219 255
195 219 255
195 219 255
195 219 255
196 220 255
196 220 255
196 220 255
196 220 255
196 220 255
196 220 255
196 220 255
196 220 255
196 220 255
196 220 255
196 220 255
196 220 255
196 220 255
196 220 255
196 220 255
196 220 255
196 220 255
196 220 255
196 220 255
196 220 255
196 220 255
196 220 255
196 220 255
196 220 255
196 220 255
196 220 255
196 220 255
196 220 255
196 220 255
196 220 255
196 220 255
196 220 255
196 220 255
196 220 255
196 220 255
196 220 255
196 220 255
196 220 255
196 220 255
196 220 255
196 220 255
196 220 255
196 220 255
196 220 255
196 220 255
196 220 255
196 220 255
196 220 255
196 220 255
196 220 255
196 220 255
196 220 255
196 220 255
196 220 255
197 220 255
197 220 255
197 220 255
197 220 255
197 220 255
197 220 255
197 220 255
197 220 255
197 220 255
197 220 255
197 220 255
197 220 255
197 220 255
197 220 255
197 220 255
197 220 255
197 220 255
197 220 255
197 220 255
197 220 255
197 220 255
197 220 255
197 220 255
197 220 255
197 220 255
197 220 255
197 220 255
197 220 255
197 220 255
197 221 255
197 221 255
197 221 255
194 217 252
179 202 235
176 199 232
169 191 225
164 187 220
152 174 207
153 174 207
132 153 184
136 156 188
113 133 162
120 140 171
104 125 156
99 118 148
89 108 136
81 101 130
79 99 127
80 99 127
79 99 127
80 99 127
80 99 127
78 98 127
78 97 125
79 98 127
78 98 127
80 99 127
82 100 127
79 98 127
78 97 125
77 97 127
79 98 127
77 97 127
80 99 127
79 98 127
79 98 127
78 98 127
80 99 127
78 98 127
78 98 127
79 98 127
78 98 127
78 98 127
78 97 126
79 98 127
71 88 115
60 74 94
58 71 90
60 74 94
64 78 99
58 70 89
59 73 94
56 68 85
66 81 102
60 74 95
60 73 93
58 71 92
57 71 91
61 75 96
61 76 97
59 73 92
61 74 95
57 70 89
58 72 92
57 70 91
55 69 89
58 71 90
63 76 96
61 75 95
62 77 98
53 65 83
61 74 94
54 66 84
61 75 97
60 75 96
55 68 87
60 73 93
62 76 97
59 73 94
61 74 95
56 69 88
59 72 91
62 76 97
61 75 96
59 73 92
58 71 91
58 71 91
61 74 93
61 75 96
61 74 95
59 72 93
60 74 94
60 74 95
60 74 95
63 76 96
61 75 97
57 71 91
58 72 93
62 74 92
55 67 87
61 74 94
59 72 92
60 73 91
57 70 89
57 71 91
58 71 91
58 72 92
65 79 101
62 76 98
60 74 95
60 74 96
57 70 89
58 70 89
59 73 93
62 76 97
60 74 95
65 79 101
55 69 88
58 72 93
64 79 100
60 72 91
58 72 92
63 76 97
61 75 96
61 75 96
57 71 91
59 72 92
57 71 91
57 70 89
58 72 92
63 77 99
62 75 95
61 75 96
62 77 98
58 72 93
65 80 102
62 77 99
60 74 95
56 69 89
60 74 94
59 73 94
56 69 88
62 76 98
54 66 83
61 75 96
60 74 96
59 72 92
54 68 88
59 72 92
62 77 98
58 72 93
60 73 93
59 73 94
57 70 90
57 71 92
59 72 91
60 74 95
61 75 95
57 70 90
59 71 90
58 73 94
62 75 95
60 73 92
57 70 90
57 70 90
62 76 96
60 74 94
57 70 90
51 64 82
58 71 91
56 69 89
55 68 88
71 88 113
79 98 126
79 98 127
82 100 127
79 98 127
78 98 127
79 98 127
80 99 127
78 98 127
80 99 127
80 99 127
80 99 127
82 100 127
79 99 127
79 98 127
80 99 127
80 99 127
80 98 127
79 98 127
81 99 127
77 97 127
80 99 127
80 99 127
81 99 127
80 99 127
80 99 127
80 99 127
80 99 127
80 99 127
84 103 131
91 110 139
107 127 158
107 126 156
110 130 159
126 147 177
124 145 176
137 158 191
147 169 202
151 173 206
163 185 218
164 187 220
184 207 241
189 212 247
189 212 247
197 221 255
197 221 255
197 221 255
197 220 255
197 220 255
197 220 255
197 220 255
197 220 255
197 220 255
197 220 255
197 220 255
197 220 255
197 220 255
197 220 255
197 220 255
197 220 255
197 220 255
197 220 255
197 220 255
197 220 255
197 220 255
197 220 255
197 220 255
197 220 255
197 220 255
197 220 255
197 220 255
197 220 255
197 220 255
197 220 255
197 220 255
197 220 255
196 220 255
196 220 255
196 220 255
196 220 255
196 220 255
196 220 255
196 220 255
196 220 255
196 220 255
196 220 255
196 220 255
196 220 255
196 220 255
196 220 255
196 220 255
196 220 255
196 220 255
196 220 255
196 220 255
196 220 255
196 220 255
196 220 255
196 220 255
196 220 255
196 220 255
196 220 255
196 220 255
196 220 255
196 220 255
196 220 255
196 220 255
196 220 255
196 220 255
196 220 255
196 220 255
196 220 255
196 220 255
196 220 255
196 220 255
196 220 255
196 220 255
196 220 255
196 220 255
196 220 255
196 220 255
196 220 255
196 220 255
196 220 255
196 220 255
196 220 255
196 220 255
196 220 255
196 220 255
196 220 255
195 219 255
195 219 255
195 219 255
195 219 255
195 219 255
195 219 255
195 219 255
196 220 255
196 220 255
196 220 255
196 220 255
196 220 255
196 220 255
196 220 255
196 220 255
196 220 255
196 220 255
196 220 255
196 220 255
196 220 255
196 220 255
196 220 255
196 220 255
196 220 255
196 220 255
196 220 255
196 220 255
196 220 255
196 220 255
196 220 255
196 220 255
196 220 255
196 220 255
196 220 255
196 220 255
196 220 255
196 220 255
196 220 255
196 220 255
196 220 255
196 220 255
196 220 255
196 220 255
196 220 255
196 220 255
196 220 255
196 220 255
196 220 255
196 220 255
196 220 255
196 220 255
196 220 255
197 220 255
197 220 255
197 220 255
197 220 255
197 220 255
197 220 255
197 220 255
197 220 255
197 220 255
197 220 255
197 220 255
197 220 255
197 220 255
197 220 255
197 220 255
197 220 255
197 220 255
197 220 255
197 220 255
197 220 255
197 220 255
197 220 255
197 220 255
197 220 255
197 220 255
197 220 255
197 220 255
197 220 255
197 220 255
197 220 255
197 221 255
197 221 255
197 221 255
197 221 255
193 216 250
184 206 240
167 189 222
163 185 218
160 182 215
158 180 213
130 150 181
136 157 189
129 150 180
121 142 172
113 134 166
103 123 153
92 111 139
84 103 131
78 98 127
78 98 127
79 98 127
80 99 127
81 99 127
80 98 127
81 99 127
79 99 127
81 99 127
79 98 127
79 98 127
79 98 127
80 99 127
80 99 127
78 97 127
79 98 127
79 98 126
78 98 127
80 99 127
79 98 127
78 98 127
81 100 127
82 100 127
80 99 127
80 99 127
80 99 127
80 99 127
79 98 127
78 97 127
76 96 126
80 99 127
81 100 127
80 99 127
77 96 125
79 98 127
80 99 127
80 99 127
79 98 127
78 97 127
79 97 126
78 98 127
77 96 126
78 98 127
75 93 119
58 71 91
56 69 89
53 66 85
58 71 91
63 78 100
59 72 92
55 68 87
62 76 97
59 73 93
60 73 93
63 77 97
58 71 90
57 71 90
60 74 94
57 70 90
61 74 94
57 71 92
61 75 95
59 73 93
58 71 89
62 75 95
60 74 96
63 76 97
62 76 98
57 69 88
61 74 95
58 71 91
58 71 91
59 72 92
59 72 92
59 72 92
64 78 99
61 76 98
59 72 92
56 68 87
60 75 97
61 75 96
55 69 89
56 69 89
56 69 88
58 71 91
57 69 88
58 70 89
59 73 94
60 74 95
61 76 97
59 72 92
59 72 91
63 76 97
56 69 89
59 72 92
55 68 88
60 74 95
57 70 90
58 72 92
61 75 96
57 71 92
58 72 91
59 72 93
62 75 95
58 71 90
59 72 92
61 75 96
64 78 98
62 76 97
62 76 97
62 76 96
60 74 94
59 73 93
59 72 92
61 74 95
60 74 95
62 76 96
61 75 94
58 72 93
62 75 96
60 73 92
59 72 91
57 71 91
65 80 101
55 68 87
58 71 90
62 77 98
59 73 94
56 69 87
57 70 91
54 66 85
60 74 94
60 74 95
62 76 97
55 68 87
58 71 91
54 67 87
62 76 96
61 75 97
55 69 89
57 70 90
62 75 94
63 76 96
61 74 95
62 76 97
58 71 90
60 74 94
56 70 90
54 67 86
58 71 90
57 70 89
59 74 95
57 69 88
58 72 92
58 71 91
58 72 92
60 73 93
56 69 88
60 73 94
56 69 87
57 70 89
60 74 95
59 74 95
57 70 89
54 67 86
56 70 89
53 65 85
59 73 94
58 72 91
53 66 85
75 93 121
77 97 127
79 97 125
78 98 127
79 98 126
78 98 127
76 96 126
79 98 127
80 99 127
79 98 127
80 99 127
80 99 127
80 99 127
77 97 126
79 98 126
80 99 127
79 98 127
79 98 127
80 99 127
79 98 127
80 99 127
80 99 127
79 98 127
79 99 127
80 99 127
79 98 127
82 100 127
79 98 127
80 99 127
79 98 126
80 99 127
81 99 127
79 98 127
80 99 127
80 99 127
80 99 127
79 99 127
80 99 127
78 98 127
80 99 127
78 98 127
78 98 127
78 98 127
80 99 127
85 105 134
100 119 148
98 118 148
107 127 157
114 134 163
124 145 175
135 155 186
137 158 189
143 165 197
153 175 208
175 197 231
175 197 231
184 207 241
189 212 247
197 221 255
197 221 255
197 221 255
197 221 255
197 221 255
197 220 255
197 220 255
197 220 255
197 220 255
197 220 255
197 220 255
197 220 255
197 220 255
197 220 255
197 220 255
197 220 255
197 220 255
197 220 255
197 220 255
197 220 255
197 220 255
197 220 255
197 220 255
197 220 255
197 220 255
197 220 255
197 220 255
197 220 255
197 220 255
197 220 255
197 220 255
197 220 255
197 220 255
197 220 255
196 220 255
196 220 255
196 220 255
196 220 255
196 220 255
196 220 255
196 220 255
196 220 255
196 220 255
196 220 255
196 220 255
196 220 255
196 220 255
196 220 255
196 220 255
196 220 255
196 220 255
196 220 255
196 220 255
196 220 255
196 220 255
196 220 255
196 220 255
196 220 255
196 220 255
196 220 255
196 220 255
196 220 255
196 220 255
196 220 255
196 220 255
196 220 255
196 220 255
196 220 255
196 220 255
196 220 255
196 220 255
196 220 255
196 220 255
196 220 255
196 220 255
196 220 255
196 220 255
196 220 255
196 220 255
196 220 255
196 220 255
196 220 255
196 220 255
196 220 255
196 220 255
196 220 255
196 220 255
196 220 255
196 220 255
196 220 255
196 220 255
196 220 255
196 220 255
196 220 255
196 220 255
196 220 255
196 220 255
196 220 255
196 220 255
196 220 255
196 220 255
196 220 255
196 220 255
196 220 255
196 220 255
196 220 255
196 220 255
196 220 255
196 220 255
197 220 255
197 220 255
197 220 255
197 220 255
197 220 255
197 220 255
197 220 255
197 220 255
197 220 255
197 220 255
197 220 255
197 220 255
197 220 255
197 220 255
197 220 255
197 220 255
197 220 255
197 220 255
197 220 255
197 220 255
197 220 255
197 220 255
197 220 255
197 220 255
197 220 255
197 220 255
197 220 255
197 220 255
197 220 255
197 220 255
197 221 255
197 221 255
197 221 255
197 221 255
197 221 255
196 219 254
195 218 253
180 203 238
179 201 235
169 191 225
153 175 208
146 167 199
136 157 188
128 149 181
130 151 183
117 138 168
92 111 140
89 108 138
86 105 133
79 99 127
79 98 127
80 98 127
78 98 127
79 98 127
77 96 126
79 98 127
79 98 127
80 99 127
79 98 127
80 99 127
80 99 127
79 98 127
79 98 127
79 98 127
80 99 127
80 99 127
81 100 127
80 99 127
79 98 127
80 99 127
82 100 127
80 99 127
79 98 127
80 99 127
79 98 127
80 99 127
79 98 127
78 98 127
78 98 127
79 99 127
79 99 127
80 99 127
79 99 127
78 98 127
81 99 127
81 99 127
79 98 126
79 98 127
79 98 127
78 98 127
79 99 127
81 99 127
80 99 127
79 97 125
81 100 127
80 99 127
79 98 127
78 97 127
78 97 127
79 98 127
78 98 127
79 98 127
78 98 127
80 99 127
81 99 127
79 99 127
77 96 126
63 77 99
56 70 90
55 67 86
61 74 94
61 75 96
55 68 86
58 72 92
62 77 99
59 72 93
62 75 96
55 67 85
58 72 93
60 73 93
58 71 90
61 74 94
59 72 91
59 73 92
62 76 97
60 74 96
59 72 92
56 70 90
60 74 94
58 72 92
56 69 88
59 72 92
62 76 97
65 79 100
60 74 94
59 72 91
62 76 98
57 70 89
60 73 94
57 71 92
60 73 94
54 67 86
60 73 92
59 72 93
56 69 89
62 76 96
58 71 90
62 76 97
56 69 88
61 75 95
59 72 93
55 68 86
59 73 94
61 75 96
57 71 91
56 69 89
57 69 87
58 72 91
58 72 92
58 72 92
61 75 96
60 74 95
61 75 97
60 74 94
58 72 93
61 75 96
60 73 94
59 73 93
57 70 90
62 77 99
60 75 96
61 75 96
55 68 86
64 78 100
60 74 95
62 76 97
62 76 96
59 71 91
60 73 93
58 71 90
59 73 93
63 77 98
62 76 96
59 73 94
58 71 91
58 70 89
56 69 89
59 71 91
60 73 94
60 74 94
62 76 97
59 73 93
55 67 87
60 73 93
59 72 93
62 75 95
56 70 91
63 77 98
62 76 97
58 70 89
60 73 92
61 75 95
59 72 92
59 72 91
63 77 98
57 70 89
63 77 98
57 70 90
61 74 95
55 67 87
56 68 88
57 71 91
58 71 91
63 77 98
58 72 92
58 72 92
62 76 98
56 69 88
58 72 93
59 72 91
58 71 91
57 70 90
59 72 92
59 72 92
58 71 90
54 67 86
57 70 90
56 68 87
62 76 96
60 74 95
60 73 93
55 68 87
58 72 93
78 98 127
79 99 127
79 98 127
77 97 127
81 100 127
78 97 125
80 99 127
79 98 126
80 99 127
81 99 127
78 97 127
78 97 127
80 99 127
78 98 127
80 98 126
79 98 126
78 97 126
78 98 127
79 98 127
80 99 127
78 97 126
78 97 126
80 98 127
80 99 127
78 98 127
81 99 127
80 98 127
80 99 127
79 98 127
80 99 127
81 99 127
79 98 127
78 98 127
80 99 127
78 98 127
80 99 126
79 98 127
80 98 127
79 98 127
80 99 127
80 99 127
80 99 127
81 99 127
81 100 127
79 98 127
79 98 127
81 100 127
78 98 127
79 98 127
80 99 127
79 99 127
80 99 127
80 99 127
79 98 127
80 99 127
80 99 127
80 99 127
81 99 127
81 100 129
90 109 139
98 118 148
113 133 163
111 131 162
137 158 190
140 161 193
142 163 194
152 174 206
160 181 214
172 195 229
175 198 231
189 212 247
197 221 255
197 221 255
197 221 255
197 221 255
197 221 255
197 221 255
197 221 255
197 220 255
197 220 255
197 220 255
197 220 255
197 220 255
197 220 255
197 220 255
197 220 255
197 220 255
197 220 255
197 220 255
197 220 255
197 220 255
197 220 255
197 220 255
197 220 255
197 220 255
197 220 255
197 220 255
197 220 255
197 220 255
197 220 255
197 220 255
197 220 255
197 220 255
197 220 255
197 220 255
197 220 255
197 220 255
196 220 255
196 220 255
196 220 255
196 220 255
196 220 255
196 220 255
196 220 255
196 220 255
196 220 255
196 220 255
196 220 255
196 220 255
196 220 255
196 220 255
196 220 255
196 220 255
196 220 255
196 220 255
196 220 255
196 220 255
196 220 255
196 220 255
196 220 255
196 220 255
196 220 255
196 220 255
196 220 255
196 220 255
196 220 255
196 220 255
196 220 255
196 220 255
196 220 255
196 220 255
196 220 255
196 220 255
196 220 255
196 220 255
196 220 255
196 220 255
196 220 255
196 220 255
196 220 255
196 220 255
197 220 255
197 220 255
197 220 255
197 220 255
197 220 255
197 220 255
197 220 255
197 220 255
197 220 255
197 220 255
197 220 255
197 220 255
197 220 255
197 220 255
197 220 255
197 220 255
197 220 255
197 220 255
197 220 255
197 220 255
197 220 255
197 220 255
197 220 255
197 220 255
197 220 255
197 220 255
197 220 255
197 220 255
197 220 255
197 220 255
197 220 255
197 221 255
197 221 255
197 221 255
197 221 255
197 221 255
197 221 255
197 221 255
197 221 255
193 216 250
180 203 238
172 195 229
168 190 223
156 178 211
152 173 206
139 160 191
130 151 182
121 141 172
112 132 162
94 112 140
88 108 138
81 100 129
79 98 127
80 99 127
77 97 127
81 99 127
79 98 127
79 99 127
78 98 127
79 98 127
79 99 127
78 98 127
79 99 127
78 97 126
79 98 127
81 99 127
78 98 127
79 99 127
79 98 127
81 100 127
81 99 127
79 98 127
81 99 127
80 99 127
78 98 127
80 99 127
80 99 127
79 98 127
81 99 127
78 97 126
79 98 127
79 98 127
79 98 127
77 97 127
78 98 127
79 98 127
80 98 126
78 97 127
79 98 127
78 98 127
78 98 127
80 99 127
79 98 127
80 99 127
80 99 127
80 99 127
79 98 127
78 98 127
81 99 127
79 98 127
79 98 127
79 98 127
80 99 127
80 99 127
78 97 125
80 99 127
81 99 127
78 98 127
78 97 126
79 98 127
79 98 127
80 99 127
79 98 127
79 98 127
78 97 127
80 99 127
79 98 127
80 99 127
78 97 127
79 98 127
77 97 127
79 98 127
79 98 126
61 77 100
60 73 93
60 73 93
57 70 90
60 73 93
63 78 100
63 77 97
61 75 95
60 73 93
59 72 93
57 71 91
56 69 88
63 77 97
58 71 90
59 72 93
64 78 99
57 71 91
59 73 94
57 70 90
63 76 97
60 74 95
57 71 91
58 72 93
59 73 93
54 67 86
61 76 97
60 74 94
53 65 83
57 70 89
56 68 87
63 76 96
57 70 91
57 69 88
60 73 92
58 71 91
62 76 97
62 76 97
59 71 90
57 71 91
62 75 95
57 71 91
62 76 97
57 70 90
58 72 91
56 70 91
62 77 99
56 69 89
56 68 86
60 74 94
57 69 87
54 67 85
56 69 88
59 72 92
57 70 90
58 71 90
57 70 90
59 73 93
59 73 93
61 75 95
57 70 90
57 71 91
59 73 94
61 74 94
58 71 91
58 71 90
62 76 97
60 74 95
56 69 88
61 75 97
60 73 93
59 72 91
60 73 93
53 66 85
59 72 92
59 71 90
56 69 87
54 67 85
62 75 95
60 73 93
57 69 88
57 71 90
58 72 92
61 75 95
61 75 94
59 73 94
56 69 88
61 75 96
57 71 91
56 69 88
55 68 87
58 71 91
59 73 93
57 70 89
59 72 92
58 72 93
62 76 97
59 73 93
61 74 95
56 69 88
60 74 95
58 71 91
61 74 94
57 71 90
59 73 93
58 72 92
56 69 88
58 71 92
59 72 92
60 74 94
58 72 92
56 69 89
62 76 97
60 75 97
60 74 95
55 69 88
56 69 89
60 72 91
58 71 91
57 70 89
59 72 91
63 77 98
62 75 96
58 71 91
54 66 84
54 68 89
63 78 100
80 99 127
78 97 125
79 98 127
79 98 127
80 99 127
77 97 127
79 98 127
81 99 127
78 97 127
80 99 127
80 99 127
80 99 127
79 98 127
79 99 127
80 99 127
79 98 127
79 98 127
80 98 127
78 98 127
79 98 127
78 98 127
81 99 127
80 99 127
80 99 127
79 98 127
80 99 127
79 98 127
78 98 127
80 99 127
80 99 127
79 98 127
79 98 127
79 98 127
80 99 127
79 98 125
77 97 127
79 98 127
80 99 127
80 99 127
79 98 127
79 98 127
80 99 127
79 99 127
77 97 127
78 97 127
78 97 126
78 98 127
80 99 127
79 99 127
79 98 127
80 99 127
79 98 127
78 98 127
79 98 127
79 98 127
79 99 127
80 99 127
80 98 125
79 98 127
80 99 127
79 98 127
79 98 127
78 98 127
81 99 127
80 99 127
80 99 127
79 98 127
81 100 127
79 99 127
78 98 127
78 98 127
79 99 127
96 115 144
95 115 144
97 118 149
123 143 174
125 146 176
144 166 198
145 166 198
150 172 204
165 187 220
175 197 231
183 206 240
192 216 250
197 221 255
197 221 255
197 221 255
197 221 255
197 221 255
197 221 255
197 221 255
197 221 255
197 220 255
197 220 255
197 220 255
197 220 255
197 220 255
197 220 255
197 220 255
197 220 255
197 220 255
197 220 255
197 220 255
197 220 255
197 220 255
197 220 255
197 220 255
197 220 255
197 220 255
197 220 255
197 220 255
197 220 255
197 220 255
197 220 255
197 220 255
197 220 255
197 220 255
197 220 255
197 220 255
197 220 255
197 220 255
197 220 255
196 220 255
196 220 255
196 220 255
196 220 255
196 220 255
196 220 255
196 220 255
196 220 255
196 220 255
196 220 255
196 220 255
196 220 255
196 220 255
196 220 255
196 220 255
197 220 255
197 220 255
197 220 255
197 220 255
197 220 255
197 220 255
197 220 255
197 220 255
197 220 255
197 220 255
197 220 255
197 220 255
197 220 255
197 220 255
197 220 255
197 220 255
197 220 255
197 220 255
197 220 255
197 220 255
197 220 255
197 220 255
197 220 255
197 220 255
197 220 255
197 220 255
197 220 255
197 220 255
197 220 255
197 220 255
197 220 255
197 220 255
197 221 255
197 221 255
197 221 255
197 221 255
197 221 255
197 221 255
197 221 255
197 221 255
196 220 254
192 215 249
178 201 235
166 188 221
152 174 207
151 173 206
139 160 191
120 141 172
122 143 175
121 141 172
104 124 153
95 115 144
83 102 131
78 98 127
79 98 127
80 99 127
78 98 127
79 99 127
80 99 127
79 99 127
81 99 127
79 98 126
79 98 127
80 99 127
80 99 127
80 99 127
79 98 127
78 98 127
81 100 127
80 99 127
81 100 127
79 98 127
78 98 127
79 98 126
76 96 125
79 99 127
80 99 127
80 99 127
78 97 126
78 97 124
79 98 127
80 99 127
80 99 127
78 98 127
79 98 127
80 99 127
79 98 127
78 98 127
79 98 127
80 99 127
80 99 127
80 99 127
80 99 127
80 99 127
80 99 127
80 99 127
79 98 127
82 100 127
80 99 127
80 99 127
80 99 127
78 98 127
79 98 127
81 99 127
79 99 127
80 99 127
80 98 127
77 97 126
79 97 126
79 98 126
79 98 127
80 98 126
78 97 127
78 97 126
79 99 127
77 97 127
80 99 127
79 99 127
77 97 126
79 98 127
79 99 127
79 98 127
79 98 127
78 97 126
78 98 126
80 99 127
80 99 127
78 98 127
78 98 126
79 98 127
79 98 127
80 99 127
79 98 127
79 99 127
79 97 126
78 97 126
78 98 127
71 88 112
57 71 91
61 74 93
57 70 90
64 77 97
58 71 90
56 68 88
59 73 93
57 71 91
60 74 95
61 75 95
58 72 92
59 72 93
60 74 94
59 73 92
62 76 96
59 73 94
57 71 91
60 73 94
60 73 93
63 78 100
57 69 88
62 75 95
57 70 88
57 70 90
62 76 97
58 71 91
54 67 86
56 70 90
57 71 92
57 69 88
60 74 96
63 77 97
60 73 92
59 72 91
61 75 96
63 77 97
57 70 90
59 73 94
57 70 90
59 73 93
58 71 90
59 73 94
61 75 95
55 68 87
58 72 92
57 71 91
58 71 91
61 76 98
61 75 97
59 71 90
60 73 94
62 75 96
58 71 90
61 74 94
59 72 92
61 74 95
60 73 93
58 71 91
54 66 84
60 73 93
61 74 94
56 69 88
56 69 89
60 74 94
58 71 92
61 76 97
61 75 95
59 73 93
56 70 90
59 72 92
60 74 94
57 70 90
68 83 104
60 74 95
58 71 90
57 70 89
57 70 89
56 68 86
64 78 100
62 76 97
54 67 87
55 68 88
60 74 95
56 69 88
62 75 95
56 69 88
56 70 90
56 68 87
60 73 93
57 71 92
60 74 94
60 73 92
61 75 96
55 67 85
57 71 92
62 76 97
54 66 84
54 67 86
59 73 94
56 69 88
57 70 90
59 72 92
59 72 92
58 71 89
56 69 87
54 66 85
59 73 93
56 68 87
57 70 89
55 68 87
61 74 95
56 69 88
62 75 95
60 73 93
56 68 86
59 72 92
59 72 92
58 72 92
54 66 84
59 73 93
57 69 88
55 67 86
58 71 90
58 70 89
70 87 112
80 99 127
79 98 127
79 98 127
78 97 127
79 98 126
79 98 126
79 99 127
78 97 127
78 98 127
78 98 127
77 96 124
79 98 127
79 98 127
79 98 127
81 99 127
78 97 125
79 98 127
78 97 126
77 97 126
80 99 127
80 98 126
79 98 127
79 98 127
80 98 127
78 97 126
79 99 127
80 99 127
80 99 127
81 100 127
78 98 127
79 98 127
79 98 127
78 98 127
80 99 127
80 99 127
79 99 127
80 99 127
78 98 127
79 98 127
80 99 127
78 98 127
81 99 127
79 98 127
78 97 126
78 97 126
78 98 127
78 97 127
77 97 127
80 99 127
76 97 127
81 99 127
81 99 127
80 99 127
80 99 127
78 97 127
79 98 127
78 97 127
80 99 127
78 98 127
82 100 127
80 99 127
81 100 127
77 97 127
79 98 127
78 97 127
79 99 127
80 99 127
81 99 127
79 99 127
79 98 127
78 97 126
80 99 127
80 99 127
79 98 127
78 98 127
79 98 127
79 98 127
80 99 127
82 100 127
80 99 127
80 99 127
81 99 127
79 99 127
80 99 127
80 99 127
99 118 148
106 126 156
113 134 166
128 149 180
125 145 176
136 156 188
147 169 202
161 184 217
168 190 223
181 204 238
187 210 244
195 218 253
197 221 255
197 221 255
197 221 255
197 221 255
197 221 255
197 221 255
197 221 255
197 221 255
197 220 255
197 220 255
197 220 255
197 220 255
197 220 255
197 220 255
197 220 255
197 220 255
197 220 255
197 220 255
197 220 255
197 220 255
197 220 255
197 220 255
197 220 255
197 220 255
197 220 255
197 220 255
197 220 255
197 220 255
197 220 255
197 220 255
197 220 255
197 220 255
197 220 255
197 220 255
197 220 255
197 220 255
197 220 255
197 220 255
197 220 255
197 220 255
197 220 255
197 220 255
197 220 255
197 220 255
197 220 255
197 220 255
197 220 255
197 220 255
197 220 255
197 220 255
197 220 255
197 220 255
197 220 255
197 220 255
197 220 255
197 220 255
197 220 255
197 220 255
197 221 255
197 221 255
197 221 255
197 221 255
197 221 255
197 221 255
197 221 255
197 221 255
197 221 255
197 221 255
197 221 255
193 216 250
178 201 235
169 191 225
161 183 216
147 168 201
147 168 199
128 149 180
114 136 167
111 131 161
104 124 154
89 108 138
82 101 130
80 99 127
79 98 127
79 98 127
82 100 127
79 99 127
79 98 127
81 99 127
78 98 127
80 99 127
79 98 127
79 98 127
79 98 127
79 98 127
80 99 127
78 98 127
78 98 127
80 99 127
79 98 127
78 98 127
78 98 127
79 99 127
81 99 127
80 99 127
79 98 127
79 98 127
79 99 127
80 99 127
80 98 126
82 100 127
79 98 127
78 98 127
79 98 127
79 99 127
79 98 127
79 98 126
80 99 127
78 97 126
79 98 125
80 99 127
79 98 127
80 99 127
80 99 127
80 98 127
81 99 127
79 98 126
78 97 127
79 98 127
77 96 124
81 99 127
77 97 126
80 99 127
80 99 127
77 97 126
80 99 127
80 99 127
80 99 127
78 97 126
77 97 126
78 98 127
78 98 127
80 99 127
79 98 127
79 98 125
81 99 127
80 99 127
79 97 125
80 99 127
77 97 127
78 97 125
78 97 127
79 99 127
79 98 127
77 97 126
77 96 124
76 96 127
80 98 127
78 98 127
78 98 127
77 97 126
78 97 126
79 98 127
78 98 127
79 98 127
79 98 127
78 98 127
78 97 127
78 98 127
81 99 127
79 98 126
80 99 127
79 97 124
79 97 125
79 98 127
78 97 126
80 99 127
81 99 127
76 95 123
54 67 85
62 75 96
60 74 94
61 74 93
61 75 95
56 69 88
59 72 93
55 68 86
62 76 96
58 71 90
60 73 93
56 68 88
59 73 93
60 73 93
60 74 93
57 70 89
59 73 93
56 69 89
62 76 97
58 72 92
58 71 90
57 69 88
59 72 92
60 74 93
50 62 79
59 73 94
65 80 103
60 74 94
58 70 89
57 71 91
57 70 90
62 76 97
54 67 86
58 72 92
59 73 93
58 71 91
59 72 93
58 70 89
52 64 82
61 74 94
60 74 94
56 68 87
61 75 97
59 72 93
58 72 91
62 76 96
56 70 90
59 73 93
57 69 87
58 72 92
59 73 94
58 72 93
54 67 87
59 72 92
59 73 93
61 75 95
64 78 98
61 75 96
60 73 92
62 76 98
59 72 92
57 71 91
60 74 95
62 76 97
58 71 90
58 70 89
59 73 94
56 69 89
56 68 86
57 70 89
63 78 100
59 73 93
54 67 87
58 72 92
64 77 98
59 72 91
57 69 89
58 71 91
63 76 95
55 67 86
59 72 92
54 66 85
61 75 96
59 74 96
60 74 94
61 75 95
58 72 92
61 74 94
60 73 92
56 69 89
62 77 98
58 71 91
58 71 90
58 71 90
62 77 99
59 72 92
61 74 93
60 74 95
60 75 96
56 68 87
63 77 98
60 74 94
60 74 95
63 77 98
60 74 95
58 72 93
61 75 97
56 69 88
60 74 93
54 66 83
59 73 93
53 65 84
59 72 91
60 74 94
60 73 93
59 73 93
62 76 96
60 73 92
57 70 90
59 72 91
58 71 91
55 67 86
58 71 91
59 72 92
78 96 124
78 97 125
78 97 126
77 95 123
78 97 127
78 98 127
81 99 127
78 98 126
78 97 126
79 99 127
79 99 127
79 98 127
80 98 127
77 96 125
80 99 127
81 99 127
79 98 126
78 97 125
76 97 127
79 98 127
80 99 127
79 98 127
78 98 127
78 97 126
80 99 127
77 96 125
78 97 126
79 98 127
78 96 124
81 99 127
80 99 127
78 97 127
79 98 127
80 99 127
79 98 127
81 99 127
79 98 127
79 98 127
78 98 127
79 98 127
80 99 127
77 97 126
80 99 127
80 99 127
79 98 127
79 99 127
80 99 127
79 98 127
81 98 125
77 97 126
78 98 127
81 99 127
78 97 126
78 98 127
80 99 127
79 98 127
79 98 127
79 98 127
78 98 127
80 99 127
78 98 127
80 99 127
80 99 127
80 99 127
79 98 127
80 99 127
80 99 127
79 98 127
79 98 127
81 100 127
79 98 127
81 99 127
81 100 127
80 99 127
81 99 127
78 98 127
80 99 127
80 99 127
79 98 127
78 98 127
79 98 127
79 99 127
80 99 127
80 99 127
79 99 127
79 99 127
80 99 127
80 98 127
79 98 127
80 99 127
79 98 127
78 98 127
79 98 127
80 99 127
78 98 127
79 98 125
77 97 126
80 100 129
93 113 143
96 116 145
113 134 165
113 132 162
121 142 172
148 170 202
149 171 203
162 184 217
173 195 229
182 205 239
190 212 247
197 221 255
197 221 255
197 221 255
197 221 255
197 221 255
197 221 255
197 221 255
197 221 255
197 221 255
197 221 255
197 221 255
197 220 255
197 220 255
197 220 255
197 220 255
197 220 255
197 220 255
197 220 255
197 220 255
197 220 255
197 220 255
197 220 255
197 220 255
197 220 255
197 220 255
197 220 255
197 220 255
197 220 255
197 220 255
197 220 255
197 220 255
197 220 255
197 220 255
197 220 255
197 221 255
197 221 255
197 221 255
197 221 255
197 221 255
197 221 255
197 221 255
197 221 255
197 221 255
197 221 255
197 221 255
197 221 255
186 209 243
174 196 230
167 189 222
155 177 211
157 179 212
142 163 195
134 155 186
113 133 162
111 131 162
97 117 147
83 102 132
84 102 131
79 98 127
80 99 127
79 98 126
78 98 127
78 98 127
81 99 127
78 98 127
79 98 127
80 99 127
79 98 127
80 99 127
78 98 127
80 99 127
79 99 127
80 99 127
79 98 127
79 99 127
80 99 127
78 98 127
79 99 127
80 99 127
78 97 127
79 99 127
79 98 127
77 97 127
78 97 126
80 99 127
79 98 127
78 98 127
82 100 127
80 99 127
79 98 127
78 98 127
79 98 127
80 98 127
79 98 127
78 97 127
79 97 125
80 99 127
79 99 127
79 98 127
80 99 127
81 99 126
79 98 127
79 98 126
81 99 127
78 98 127
80 99 127
79 98 126
81 100 127
79 98 127
77 97 127
80 99 127
80 99 127
80 99 127
79 98 127
80 99 127
78 97 127
81 100 127
77 96 125
78 98 127
80 99 127
81 99 127
79 98 127
81 99 127
79 97 125
79 99 127
79 98 127
81 99 127
80 99 127
77 96 125
77 97 127
76 96 125
78 98 127
79 98 126
81 99 127
80 99 127
78 98 127
78 97 125
79 98 127
80 99 127
78 98 127
79 98 127
80 98 127
81 99 127
80 99 127
80 99 127
78 97 126
77 95 123
78 98 127
77 97 127
81 99 127
77 96 126
80 99 127
79 97 125
80 99 127
78 98 127
79 98 127
80 99 126
80 99 127
78 98 127
77 97 126
77 97 127
76 96 126
80 99 127
79 98 125
77 96 124
77 96 126
79 98 126
62 76 97
54 67 85
60 72 91
62 75 95
58 71 90
57 70 91
59 72 93
60 73 93
60 73 93
58 71 91
55 68 87
55 67 85
56 70 90
55 67 86
61 74 94
58 72 92
58 71 91
61 74 95
59 73 93
63 76 97
52 64 83
59 72 91
62 76 97
59 72 92
62 75 94
60 74 94
61 74 95
56 68 86
55 68 87
58 71 92
62 77 99
59 72 92
57 69 88
59 72 91
60 73 92
60 73 93
56 70 90
59 73 93
63 77 97
62 75 94
61 75 96
57 71 90
60 74 96
59 73 93
57 71 91
63 77 99
60 73 93
59 72 92
55 68 88
57 70 90
56 69 88
59 73 94
56 69 88
63 76 96
61 75 97
57 70 90
60 73 94
55 68 88
58 71 91
59 72 91
56 69 88
61 74 94
55 68 88
61 74 94
58 72 92
57 71 92
61 73 92
61 75 96
57 71 91
58 72 92
60 73 93
60 73 93
57 71 92
60 73 93
57 70 90
55 69 91
63 77 97
62 77 98
58 70 89
57 69 87
57 71 91
57 71 91
54 67 86
59 72 91
57 70 91
62 75 95
58 70 87
57 69 88
58 71 90
60 73 92
54 67 86
62 75 95
59 73 93
60 74 95
60 74 95
58 70 89
58 71 91
61 75 97
60 73 92
55 68 88
61 75 95
62 76 96
57 70 90
56 69 88
58 71 91
58 71 90
62 77 98
60 73 94
60 74 95
59 72 93
62 76 96
59 73 93
60 74 94
58 71 91
54 66 84
58 71 90
54 67 86
56 69 88
60 73 93
55 67 86
59 71 90
59 72 92
55 68 87
63 78 100
77 96 125
78 97 126
81 99 127
77 97 127
80 99 127
79 98 125
78 97 126
77 97 127
81 100 127
78 97 127
78 97 125
80 99 127
76 95 123
77 96 124
80 98 126
77 95 123
80 99 127
76 95 123
79 98 127
78 97 126
78 97 127
79 98 127
79 98 126
78 97 126
78 97 126
78 98 127
79 98 127
78 97 125
79 98 127
80 99 127
80 99 127
78 98 127
79 99 127
78 98 127
80 99 127
80 98 127
79 98 127
80 99 127
79 98 127
79 97 124
80 99 127
80 99 127
80 98 126
76 96 126
79 98 127
80 98 127
81 100 127
80 98 127
80 99 127
79 98 126
78 98 127
79 99 127
79 98 127
79 98 127
78 97 127
81 99 127
78 98 127
79 98 127
79 98 127
80 99 127
79 98 127
79 98 127
80 99 127
79 98 127
79 99 127
80 99 127
80 98 127
80 99 127
78 97 127
80 99 127
80 99 127
78 98 127
79 98 127
79 99 127
79 99 127
78 98 127
80 99 127
79 99 127
80 99 127
79 98 127
79 98 127
79 98 127
78 98 127
79 99 127
79 99 127
80 99 127
80 99 127
77 97 127
79 99 127
79 98 127
79 98 127
79 99 127
79 98 127
80 99 127
80 99 127
79 98 127
80 99 127
81 99 127
79 98 127
79 99 127
80 99 127
79 98 127
78 98 127
79 98 127
81 100 127
79 98 127
81 100 127
80 99 127
79 98 127
78 97 126
92 111 140
98 118 149
112 133 165
119 139 170
124 145 176
144 165 197
158 180 213
153 175 208
174 196 230
177 199 232
190 213 248
197 221 255
197 221 255
197 221 255
197 221 255
197 221 255
197 221 255
197 221 255
197 221 255
197 221 255
197 221 255
197 221 255
197 220 255
197 220 255
197 220 255
197 220 255
197 220 255
197 220 255
197 221 255
197 221 255
197 221 255
197 221 255
197 221 255
196 219 254
193 216 250
174 196 230
166 188 221
159 181 214
134 155 186
136 157 189
122 142 172
111 131 161
104 124 154
93 113 142
82 102 131
81 99 127
80 99 127
81 99 127
78 97 126
80 99 127
80 99 127
79 98 127
79 99 127
80 99 127
81 100 127
79 98 127
80 99 127
80 99 127
80 98 127
78 98 127
80 99 127
80 99 127
79 98 126
79 99 127
80 98 127
80 99 127
80 99 127
79 98 127
80 99 127
79 99 127
79 99 127
77 96 125
79 99 127
79 98 127
79 98 127
80 99 127
80 99 127
79 98 127
81 100 127
80 99 127
81 100 127
81 99 127
77 97 126
78 98 127
80 99 127
79 98 127
79 98 127
79 98 127
78 97 126
80 99 127
79 98 127
81 99 127
79 98 127
80 99 127
80 99 127
81 99 127
78 98 127
78 97 126
78 97 125
80 99 127
80 99 127
78 97 125
77 96 125
79 98 127
78 98 127
80 99 127
78 98 127
79 98 126
76 96 125
78 97 125
78 98 127
78 98 127
78 97 126
80 98 127
79 98 127
80 99 127
78 98 127
80 98 126
79 98 126
79 98 127
79 98 127
81 99 127
79 98 126
79 99 127
78 98 127
79 98 126
80 99 127
80 99 127
78 97 126
78 98 127
77 97 126
77 97 127
77 96 124
81 99 127
77 97 127
78 97 126
78 97 126
80 99 127
78 98 126
79 98 127
79 98 127
80 99 127
77 97 127
77 96 125
80 98 127
78 97 125
80 98 126
79 98 127
79 98 127
77 96 126
79 98 127
78 98 127
80 99 127
77 96 124
78 98 127
77 97 127
79 98 127
78 97 127
77 96 126
77 96 125
81 100 127
78 98 127
79 98 127
79 97 126
78 97 126
76 95 124
66 82 106
56 68 87
57 70 89
57 70 89
56 68 87
55 68 87
52 65 84
57 70 89
58 72 93
56 68 87
56 69 89
62 77 98
56 70 91
61 74 94
59 73 93
56 70 90
63 76 97
61 74 95
53 65 83
58 71 91
58 70 88
61 74 94
57 70 90
56 69 89
60 74 94
59 73 93
63 77 99
57 70 90
58 71 91
57 71 91
60 74 95
57 69 88
57 70 89
63 77 97
59 73 93
59 72 92
63 76 96
58 70 90
53 66 86
58 71 90
58 71 90
57 70 90
61 74 95
61 74 94
56 70 90
61 74 93
57 70 90
63 76 95
59 72 93
60 74 94
59 73 93
59 73 93
60 74 95
54 66 83
55 67 85
58 71 91
61 75 96
61 74 94
58 71 90
57 70 90
60 73 93
59 73 93
57 69 89
62 76 96
63 76 96
63 76 97
57 70 89
60 73 93
60 73 93
60 73 93
53 66 85
61 74 94
59 73 94
58 72 92
61 75 95
58 72 92
59 72 92
64 79 101
60 73 92
60 73 93
58 70 90
57 70 90
60 74 95
58 72 93
64 79 100
54 66 85
63 76 95
56 69 89
55 68 87
57 71 92
60 73 93
59 72 91
57 70 90
61 75 96
59 72 91
56 69 88
58 71 91
56 68 87
59 73 93
59 72 91
59 72 92
56 69 88
56 70 90
58 71 91
60 73 92
59 72 92
60 73 92
59 72 92
59 73 94
58 71 91
61 74 93
61 74 93
56 68 87
61 75 96
59 72 92
54 66 85
59 71 91
56 68 86
55 68 86
54 67 86
55 67 85
56 69 88
58 70 89
65 81 104
80 98 127
76 95 124
78 97 127
78 97 127
78 97 125
80 98 127
81 99 127
79 98 126
80 99 127
80 99 127
79 98 126
78 96 124
78 97 127
78 97 126
80 99 127
77 96 125
80 99 127
77 97 127
79 98 127
79 98 127
79 98 127
78 97 126
79 98 127
78 98 126
80 99 127
78 98 127
79 98 127
79 97 124
79 98 127
80 98 127
78 98 127
79 98 126
79 98 127
79 98 127
78 97 125
80 99 127
79 98 127
78 98 127
79 98 127
79 98 127
78 97 126
77 96 124
77 97 127
80 99 127
81 99 127
79 98 127
79 98 126
77 97 126
77 96 125
78 98 126
79 98 127
80 99 127
78 97 127
80 99 127
78 97 127
78 97 127
79 98 126
78 98 127
81 99 127
79 98 127
81 99 127
78 97 127
79 98 127
79 98 126
79 98 127
80 99 127
79 98 127
80 99 127
80 99 127
80 99 127
78 98 127
78 98 127
79 98 127
80 99 127
80 99 127
78 97 126
80 99 127
78 97 127
80 98 125
80 99 127
80 99 127
78 98 127
80 99 127
78 98 127
79 98 127
79 98 126
81 99 127
80 99 127
80 99 127
80 98 127
80 99 127
79 98 127
78 97 127
80 99 127
79 98 127
81 100 127
80 99 127
80 98 126
81 100 127
78 98 127
78 98 127
79 98 127
80 99 127
78 97 126
80 99 127
80 99 127
81 99 127
78 98 127
79 98 127
78 98 127
79 99 127
80 99 127
81 99 127
82 100 127
79 98 126
79 98 127
80 99 127
79 98 127
79 98 127
79 98 127
80 99 127
83 102 130
97 117 147
104 124 154
116 137 167
121 142 172
134 154 185
147 168 200
152 173 206
164 186 218
163 185 218
189 212 247
197 221 255
197 221 255
197 221 255
197 221 255
197 221 255
197 221 255
124 145 176
115 135 165
104 124 154
103 123 152
90 110 140
80 100 129
79 99 127
80 99 127
80 99 127
80 99 127
80 99 127
78 98 127
77 97 127
76 97 127
79 98 126
79 98 127
79 98 127
78 98 127
80 99 126
79 98 127
80 99 127
80 99 127
79 99 127
81 99 127
81 99 127
78 98 127
79 98 127
79 98 127
79 98 127
80 99 127
79 98 127
79 98 127
81 100 127
78 98 127
78 97 127
81 100 127
80 98 127
81 99 127
80 99 127
78 98 127
81 99 127
81 100 127
78 97 126
79 99 127
80 99 127
79 98 127
78 98 127
80 99 127
79 98 127
78 97 126
77 97 127
80 99 127
79 98 127
79 98 127
77 97 126
78 98 127
79 98 127
79 99 127
79 98 127
79 99 127
78 98 127
80 99 127
79 98 127
79 98 127
77 96 124
80 98 127
76 95 124
80 99 127
79 98 127
80 99 127
78 97 125
77 97 126
77 97 126
78 97 126
79 98 127
78 98 127
79 98 127
81 100 127
77 96 125
80 99 127
79 98 127
80 99 127
78 98 127
78 97 125
79 98 126
79 98 127
81 99 127
79 98 127
79 98 127
78 97 126
80 98 126
79 98 127
76 96 126
79 98 126
78 97 126
78 98 127
80 99 127
79 98 127
79 98 126
77 96 125
77 96 125
78 97 125
78 98 127
79 99 127
76 96 125
78 98 127
79 98 126
79 98 127
80 99 127
79 98 126
79 98 127
77 97 127
78 97 125
81 99 127
78 97 126
79 99 127
79 98 127
79 98 127
77 96 125
76 96 126
80 99 127
78 98 127
80 99 127
80 98 127
79 97 125
78 97 126
79 98 127
78 97 126
79 97 126
78 98 126
78 97 125
76 95 124
79 98 126
78 97 124
79 98 126
78 97 126
79 97 125
80 98 125
75 93 121
58 72 92
58 71 91
60 73 92
59 73 93
56 69 87
56 68 87
58 72 92
63 77 99
56 69 88
58 72 92
54 67 85
57 70 90
55 68 87
60 74 95
57 69 88
57 71 91
61 74 94
59 73 93
58 71 92
56 68 87
54 67 86
59 72 91
58 72 92
60 74 94
57 70 89
63 76 96
58 71 91
61 74 93
55 67 86
57 69 89
61 74 95
63 76 97
58 70 89
59 73 93
58 71 91
60 73 93
58 72 93
58 71 90
60 73 92
61 75 96
62 77 98
59 72 91
59 73 93
61 74 94
58 72 91
62 76 97
56 68 87
57 69 89
60 74 94
59 72 91
61 73 93
60 74 94
59 71 90
58 71 92
58 71 90
59 72 92
61 75 96
61 74 94
59 72 92
58 71 91
58 71 90
51 63 81
58 70 90
59 73 94
56 69 89
57 69 88
58 71 90
56 68 87
57 70 89
59 72 92
60 74 94
56 69 88
57 70 90
62 76 96
60 73 93
58 70 90
59 73 92
54 68 87
57 69 87
55 68 86
57 70 89
62 75 94
55 69 89
62 76 96
60 74 94
58 72 94
61 74 95
58 72 92
57 69 89
60 73 93
56 69 88
59 73 93
49 61 79
55 68 87
57 70 90
61 73 92
63 77 97
61 74 95
59 73 93
58 71 90
62 75 95
57 70 90
57 71 91
58 73 94
56 69 87
57 70 88
58 70 89
57 69 87
60 74 94
54 66 85
59 73 94
59 72 91
58 71 91
56 70 90
60 73 93
56 69 88
54 67 86
56 68 86
61 75 95
62 76 96
54 67 87
52 64 82
75 93 119
78 97 125
79 98 126
79 98 127
80 99 127
78 97 126
79 98 126
79 98 127
78 98 127
80 99 126
78 97 125
79 98 127
79 98 127
78 97 125
78 97 126
78 97 126
79 98 126
78 97 126
79 98 126
78 98 127
77 96 124
78 97 127
77 96 124
78 97 124
79 98 127
77 97 126
78 97 126
79 97 126
79 98 127
81 100 127
76 97 127
79 98 126
78 97 126
78 97 126
77 97 127
77 96 125
78 98 127
77 97 126
78 97 125
78 97 126
77 97 126
80 99 127
78 98 127
78 98 127
78 98 127
78 98 127
77 97 126
81 99 127
77 97 127
79 98 127
80 99 127
79 97 125
78 97 126
79 98 127
78 97 125
78 97 127
79 98 127
78 98 127
78 97 125
78 98 127
79 98 127
80 98 125
78 98 127
80 98 126
79 98 127
81 99 127
81 100 127
79 98 127
79 98 127
80 99 127
79 98 127
79 98 127
77 97 126
79 98 127
81 100 127
79 99 127
80 99 127
78 97 126
79 98 127
77 97 126
79 98 126
79 98 127
78 98 127
80 99 127
79 99 127
79 98 126
79 98 127
81 100 127
80 98 127
80 99 127
79 99 127
80 99 127
81 100 127
79 98 127
79 99 127
79 98 127
79 98 127
79 98 127
77 97 127
80 98 127
81 99 127
79 98 127
78 97 126
80 98 127
80 99 127
81 100 127
78 98 127
78 98 127
79 98 127
76 97 127
80 99 127
79 98 127
78 98 127
80 99 127
79 98 127
80 99 127
79 98 127
79 98 127
80 99 127
78 98 127
80 99 127
81 100 127
79 98 127
80 99 127
78 98 127
81 100 127
81 99 127
80 98 126
79 99 127
79 98 127
81 99 127
80 99 127
80 99 127
80 99 127
89 108 136
101 121 151
102 121 151
122 142 172
133 153 184
80 99 127
81 99 127
79 99 127
78 98 127
79 98 127
79 98 127
80 99 127
79 98 127
78 97 127
79 98 127
79 98 127
79 98 127
80 99 127
80 99 127
79 98 127
79 98 127
79 99 127
79 99 127
79 99 127
79 98 127
79 98 127
77 97 127
79 99 127
79 99 127
79 99 127
80 98 127
81 99 127
79 98 127
80 99 127
79 98 127
78 98 127
80 99 127
81 99 127
79 99 127
78 97 126
79 98 127
79 99 127
80 99 127
78 98 127
81 99 127
80 99 127
79 98 127
81 100 127
80 99 127
80 99 127
78 98 127
79 98 127
80 99 127
81 100 127
79 98 127
79 98 126
79 99 127
79 98 127
80 99 127
79 98 127
78 98 127
79 98 127
80 99 127
80 99 127
81 99 127
79 98 127
79 98 127
79 98 127
78 97 126
78 98 127
79 98 126
79 99 127
77 97 126
78 97 127
78 98 127
78 97 126
78 97 125
79 99 127
79 98 127
77 97 126
80 99 127
77 97 127
79 98 127
79 98 126
80 98 127
79 98 126
80 99 127
78 97 126
78 97 126
80 99 127
80 98 126
78 97 127
78 97 127
79 98 126
77 96 123
78 98 127
78 97 126
77 96 126
78 97 126
78 97 126
78 98 127
79 98 127
78 97 127
79 98 127
79 98 127
76 95 125
78 96 124
79 98 127
80 99 127
80 99 127
80 98 127
77 96 125
78 97 126
78 96 124
77 97 127
79 98 127
78 97 125
77 97 127
76 96 125
79 97 125
76 95 124
77 96 125
80 98 126
78 97 127
79 98 127
78 97 125
80 99 127
78 98 127
79 98 127
79 98 127
80 98 124
80 99 127
80 99 127
79 97 126
79 98 127
76 95 123
78 96 125
79 98 126
76 96 125
79 98 127
78 96 124
78 97 125
78 98 127
77 97 127
64 80 103
61 75 95
55 68 86
53 66 84
53 66 85
55 68 87
60 73 93
56 69 88
61 75 95
59 72 92
58 70 89
60 74 95
59 71 89
61 75 95
56 69 89
58 71 91
57 70 90
59 72 91
55 68 87
54 67 86
62 75 94
54 67 86
58 72 92
56 69 89
62 75 95
62 76 95
59 73 92
56 68 86
59 73 93
57 71 91
58 71 90
61 74 95
55 69 88
56 70 89
57 70 91
57 69 88
55 68 87
56 69 88
59 73 93
58 71 91
60 73 93
61 75 95
58 71 91
61 75 95
62 76 97
59 72 91
60 73 93
66 81 102
60 74 94
61 74 95
61 74 94
58 71 90
56 69 89
60 74 95
58 70 90
54 66 84
59 72 91
62 75 96
57 70 89
54 67 86
56 70 90
55 68 87
57 70 90
64 79 101
57 70 90
59 72 92
58 71 90
57 71 92
62 77 99
57 70 90
57 70 90
58 72 91
59 72 92
60 74 94
62 75 95
60 74 94
56 69 89
61 75 95
58 71 90
58 71 90
54 67 86
59 72 92
56 69 88
60 73 93
58 72 92
58 71 91
62 76 96
54 67 86
59 72 90
57 69 87
56 70 90
57 71 91
59 72 92
57 70 90
60 72 92
61 74 94
62 75 95
62 76 97
58 71 90
55 67 86
54 67 86
59 72 91
56 69 88
55 67 86
58 73 94
60 74 95
57 69 89
59 72 91
58 72 92
60 74 94
60 73 93
56 68 87
59 72 91
55 68 87
58 70 89
59 73 93
59 73 94
51 63 81
63 77 98
61 75 96
57 69 88
61 76 97
77 95 122
78 97 126
78 97 126
78 97 126
77 96 125
79 98 127
78 97 125
78 98 127
78 97 124
78 96 124
77 97 127
77 96 126
80 99 126
77 97 126
77 97 126
81 99 127
77 97 126
77 96 124
77 96 125
79 98 126
79 98 127
78 97 126
77 96 124
79 98 126
78 97 126
77 96 125
80 99 127
79 98 127
79 98 127
80 98 126
80 99 127
80 99 126
80 98 127
78 98 127
80 99 127
77 96 126
78 97 125
78 98 127
80 98 126
79 98 127
79 98 127
79 98 126
81 99 127
79 99 127
80 99 127
81 100 127
78 97 127
79 97 125
78 97 127
78 97 126
78 97 127
76 96 125
80 99 127
79 97 126
79 98 127
79 98 127
79 99 127
78 97 126
80 99 127
79 98 127
77 97 126
79 98 127
78 98 127
79 98 127
80 99 127
79 99 127
81 100 127
77 96 125
79 98 127
80 99 127
78 97 126
79 98 127
79 99 127
77 97 126
80 98 126
79 99 127
77 97 127
77 97 126
79 98 127
78 98 127
79 98 127
79 99 127
79 99 127
78 97 126
80 99 127
79 99 127
78 98 127
79 98 127
79 98 127
80 99 127
80 99 127
81 99 127
79 97 125
78 97 127
81 99 127
79 98 126
78 98 126
79 98 127
78 97 126
79 98 127
80 99 127
77 97 127
79 99 127
78 98 127
78 97 127
79 98 127
80 99 127
79 98 127
78 97 126
79 98 127
78 98 127
81 99 127
78 98 127
79 98 127
78 98 127
79 98 127
80 99 127
79 98 127
78 97 126
79 98 127
78 98 127
76 96 126
79 98 127
80 99 127
80 99 127
79 98 127
79 98 127
80 99 127
79 99 127
81 99 127
80 99 127
80 99 127
79 98 127
79 98 127
79 98 127
79 98 127
80 99 127
81 100 127
78 97 126
79 98 127
79 98 127
78 98 127
79 98 126
82 100 127
79 98 127
80 99 127
79 99 127
80 99 127
79 99 127
79 98 126
78 98 127
80 99 127
79 98 127
80 99 127
79 98 127
79 98 127
79 98 127
78 98 127
80 99 127
78 98 127
80 99 127
79 99 127
79 98 127
79 98 127
79 98 127
79 98 126
79 98 127
81 100 127
79 97 125
80 99 127
81 100 127
78 97 127
81 100 127
80 99 127
79 98 127
80 99 127
79 99 127
79 99 127
79 98 127
79 98 127
79 98 127
79 99 127
80 99 127
79 98 127
80 99 127
81 100 127
81 99 127
77 97 127
79 99 127
78 98 127
80 99 127
79 98 127
81 99 127
79 98 127
81 100 127
80 99 127
77 97 126
78 98 127
81 99 127
80 99 127
80 98 126
80 98 127
79 98 127
79 98 127
79 99 127
78 97 127
79 98 127
76 95 125
80 98 126
80 99 127
77 97 126
79 98 126
79 98 127
78 97 127
79 98 127
79 98 127
78 98 127
78 97 126
78 97 126
78 97 127
78 97 127
79 98 127
79 98 127
78 97 127
80 99 127
78 98 127
79 98 127
79 98 126
78 98 127
78 97 127
79 98 127
79 98 127
81 100 127
77 96 126
79 98 127
80 99 127
78 98 127
80 98 126
78 97 125
79 98 126
79 98 127
78 97 127
77 97 125
78 98 127
79 98 126
79 98 127
77 97 126
76 95 125
78 98 127
78 97 126
80 99 126
79 98 126
81 99 127
80 98 127
76 95 124
79 97 125
77 97 126
79 98 127
81 100 127
76 96 125
79 98 127
78 97 126
78 97 126
78 97 125
77 96 125
78 96 124
76 95 123
78 96 124
78 98 127
78 96 124
80 99 127
79 98 126
76 95 124
79 98 127
78 97 126
78 97 126
77 97 126
79 98 127
69 86 111
59 72 91
52 64 82
62 76 96
60 74 95
56 68 86
53 65 83
59 71 90
57 70 89
57 69 88
57 70 89
57 70 90
57 69 87
55 68 88
55 67 86
55 68 86
55 67 86
55 68 86
55 68 88
56 69 88
56 69 89
57 71 92
59 72 92
59 71 90
56 69 88
55 68 87
58 72 93
56 68 87
59 72 91
56 68 87
58 71 91
59 72 90
61 74 94
53 65 84
55 68 87
60 73 93
55 68 86
57 70 89
60 73 93
61 74 94
61 74 94
57 70 89
61 74 94
59 72 91
58 70 90
57 69 88
52 64 82
58 70 88
55 68 87
63 77 98
56 69 88
58 71 92
57 71 91
58 72 93
59 72 91
57 69 88
60 74 93
59 72 92
55 68 87
58 71 90
60 73 93
57 70 90
56 69 88
58 71 91
57 69 88
54 66 85
55 68 86
57 70 89
61 74 95
59 72 92
56 68 87
56 69 89
57 70 89
58 72 92
56 70 90
53 65 83
59 72 91
54 66 85
58 72 92
59 72 92
55 67 85
57 69 88
61 74 94
57 70 90
58 70 88
58 71 91
57 70 90
53 64 82
63 78 100
59 72 92
54 67 86
59 72 92
53 64 82
56 69 89
58 70 89
58 71 91
58 71 90
58 72 93
61 75 96
56 69 89
55 67 85
60 73 92
58 71 91
60 73 92
60 74 95
57 70 89
60 74 95
61 75 96
59 71 90
55 68 87
58 70 89
57 70 89
61 74 93
57 70 89
60 72 90
59 73 93
54 66 85
52 63 80
58 72 92
54 67 85
56 69 88
68 84 107
76 95 123
78 97 126
76 95 124
76 95 124
78 97 124
78 97 125
79 98 126
78 97 125
79 98 126
79 98 126
77 96 125
78 97 124
78 97 125
78 97 125
79 97 125
79 98 127
79 98 126
79 97 125
79 98 126
81 100 127
79 98 127
79 98 126
78 97 125
80 98 126
78 96 125
77 97 126
78 98 127
77 96 124
78 97 127
79 98 126
78 98 127
79 98 127
79 98 127
80 99 127
79 98 126
78 97 127
76 95 123
79 98 127
79 98 126
79 98 126
78 97 125
79 98 126
79 98 125
79 98 127
78 97 125
78 97 126
79 98 125
80 99 127
78 97 125
79 98 127
79 98 126
79 98 127
79 97 125
79 98 126
76 95 123
77 97 126
79 98 127
79 98 127
79 97 126
80 99 127
79 99 127
79 98 126
80 99 127
80 99 127
78 97 125
81 99 127
80 99 127
78 98 127
78 97 125
77 96 126
81 100 127
78 97 127
77 96 125
78 98 127
79 98 126
78 97 126
77 96 125
79 98 127
79 99 127
78 98 127
79 98 127
78 97 126
81 99 127
77 97 127
80 98 126
79 98 127
80 99 127
79 97 125
77 97 126
80 99 127
80 99 127
79 98 127
80 99 127
80 98 126
79 98 127
78 98 127
80 99 127
80 99 127
80 99 127
80 99 127
80 99 127
79 99 127
79 98 127
79 98 127
79 98 127
80 99 127
81 99 127
78 98 127
80 99 127
80 99 127
78 98 127
80 99 127
79 99 127
80 99 127
79 98 127
78 98 127
78 98 127
78 97 126
80 99 127
79 99 127
79 98 127
79 98 127
78 98 127
81 99 127
80 99 127
79 98 126
79 98 127
80 99 127
80 99 127
79 98 126
81 99 127
79 98 127
78 98 127
79 98 127
82 100 127
80 99 127
79 99 127
78 98 127
78 98 127
80 99 127
79 98 127
77 97 127
79 99 127
79 98 127
79 98 127
80 99 127
79 98 127
80 99 127
79 99 127
78 98 127
78 98 127
81 100 127
80 99 127
80 99 127
80 99 127
79 98 127
77 97 126
80 99 127
79 98 127
79 99 127
80 99 127
78 98 127
80 99 127
79 99 127
79 98 127
79 98 126
80 99 127
79 98 127
79 98 127
78 97 126
80 99 127
79 98 127
78 98 127
79 98 127
78 98 127
80 98 127
80 99 127
78 98 127
80 99 127
80 99 126
79 99 127
80 98 126
80 98 127
82 100 127
78 97 126
78 97 127
81 100 127
80 99 127
79 98 127
78 98 127
78 98 127
79 98 127
81 100 127
80 99 127
78 97 125
80 99 127
79 98 126
79 98 126
80 99 127
79 98 127
78 97 126
79 98 127
80 99 127
79 98 127
80 99 127
75 94 123
79 98 127
80 99 127
79 98 127
79 99 127
78 97 126
79 99 127
80 99 126
79 98 127
79 98 127
80 99 127
82 100 127
80 99 127
79 98 126
79 97 126
79 98 126
78 97 126
77 96 125
79 98 127
76 96 126
80 99 127
78 98 127
79 98 126
79 98 127
77 96 126
80 99 127
80 99 127
79 98 126
80 99 127
76 95 123
78 97 126
80 99 127
79 98 127
79 98 127
79 98 125
77 97 126
79 98 127
79 97 125
80 98 126
81 99 127
78 97 126
79 97 124
79 98 126
78 97 127
77 97 127
79 98 127
77 96 124
75 95 123
78 98 127
78 96 125
78 97 126
81 100 127
78 97 125
77 95 123
77 97 126
78 97 125
78 97 126
79 98 126
80 99 127
79 98 126
77 97 126
78 98 127
77 96 124
77 97 126
78 96 124
77 96 125
77 96 124
77 96 124
79 99 127
79 98 126
75 94 123
77 96 125
75 93 121
76 94 122
59 73 93
54 67 85
59 73 93
57 70 89
57 69 88
56 69 87
52 64 82
56 69 88
59 72 91
58 71 91
60 74 96
59 73 93
52 64 82
58 70 90
60 72 91
58 71 90
55 67 85
57 69 88
56 68 87
56 69 88
57 70 89
58 71 91
59 73 92
57 69 88
58 71 90
55 68 87
57 70 90
57 71 91
60 73 93
59 71 90
54 67 86
56 69 88
54 66 85
58 71 91
58 70 88
64 77 98
58 71 91
54 67 85
57 69 88
55 67 86
63 78 100
58 72 93
59 72 91
56 70 89
55 67 87
57 70 90
57 70 89
54 67 86
59 73 92
57 69 88
57 70 89
59 73 94
57 69 88
59 72 92
57 70 90
60 73 93
60 73 93
57 71 91
56 70 90
58 71 91
59 71 91
54 67 86
57 69 88
57 70 90
58 71 90
61 74 95
60 73 92
53 65 84
56 69 88
65 78 99
61 74 94
55 68 87
60 73 94
56 68 87
58 70 89
54 66 84
53 65 84
52 64 82
60 74 94
56 69 87
60 73 92
53 65 84
56 69 88
62 76 96
57 70 89
55 67 85
59 72 91
60 72 92
57 69 87
57 70 89
57 70 89
59 72 91
62 76 96
57 69 88
56 69 89
56 69 87
57 70 90
58 70 88
60 73 92
57 69 88
60 74 95
53 66 86
62 74 94
58 71 90
55 67 85
57 70 90
60 74 96
60 73 94
57 70 88
58 71 91
53 65 84
55 67 86
55 68 88
58 71 90
55 68 86
59 72 91
52 64 83
57 69 89
58 71 90
55 68 87
79 97 124
76 96 125
78 97 126
74 93 122
76 95 123
76 96 126
79 98 126
77 96 124
79 97 126
78 98 127
77 96 125
75 93 120
76 95 124
78 97 126
78 97 126
79 98 126
78 98 127
80 99 127
77 96 125
79 97 124
79 98 126
78 97 126
80 99 127
77 96 124
79 97 124
78 97 127
79 98 126
78 98 127
75 95 125
79 98 126
79 97 124
77 97 125
78 97 127
77 97 126
78 98 127
78 97 126
78 97 126
79 98 127
76 95 122
78 97 127
81 99 127
81 99 127
79 98 127
77 97 126
79 97 125
77 97 126
79 98 127
78 97 125
78 97 126
75 93 121
79 98 127
80 99 127
79 98 127
78 97 127
78 97 126
81 99 127
78 97 126
79 98 127
79 98 127
79 98 126
80 98 126
79 97 125
80 98 126
79 98 126
78 98 127
79 98 126
78 98 127
80 99 127
79 97 125
78 98 127
80 99 127
78 98 127
78 97 126
79 98 127
79 98 126
79 98 127
79 98 127
80 98 127
79 98 126
79 98 126
77 97 127
79 98 127
79 98 127
79 98 127
79 98 126
78 98 127
80 99 127
79 98 127
78 97 126
78 98 127
79 98 127
77 97 125
78 98 127
79 98 126
79 98 127
77 97 126
80 99 127
79 98 126
79 99 127
78 97 126
79 99 127
78 98 127
79 98 126
79 98 127
80 98 127
79 98 127
80 99 127
78 97 126
78 98 126
78 98 127
80 99 127
79 98 127
78 98 127
78 98 127
79 99 127
80 99 127
79 99 127
80 99 127
76 97 127
78 97 127
78 98 127
79 98 127
80 99 127
81 99 127
79 98 127
80 99 127
79 98 127
79 98 127
81 100 127
81 99 127
79 98 127
80 99 127
81 99 127
79 98 127
79 98 127
81 100 127
78 98 127
81 100 127
77 96 125
79 98 126
78 97 125
80 99 127
80 99 127
80 99 127
78 97 126
79 98 127
79 98 127
81 100 127
78 98 127
80 99 127
79 98 127
81 99 127
80 99 127
79 98 127
80 99 127
80 99 127
78 98 127
79 99 127
79 98 126
79 98 127
81 99 127
79 98 127
78 97 126
80 99 127
81 99 127
76 96 126
81 100 127
78 98 127
80 99 127
78 98 127
79 98 127
78 98 127
80 99 127
80 98 127
81 99 126
78 98 127
78 98 127
78 97 127
79 98 127
80 99 127
78 97 126
79 98 127
79 98 125
78 97 125
78 97 127
79 99 127
78 97 127
79 98 126
79 98 126
79 98 127
77 97 127
79 99 127
80 99 127
78 97 126
80 98 126
79 98 127
81 99 127
79 99 127
79 98 127
78 97 127
79 99 127
78 98 127
80 99 127
80 99 127
80 99 127
80 98 126
78 98 127
82 100 127
78 97 126
80 99 127
78 98 127
79 98 127
80 99 127
79 98 127
81 99 127
78 98 127
78 97 126
80 99 127
79 98 126
76 96 126
77 97 125
80 99 127
77 96 125
78 97 124
78 97 127
79 98 127
79 98 127
77 97 126
80 99 127
79 98 127
80 99 127
78 98 127
80 99 127
77 96 126
78 97 127
78 98 127
79 98 127
80 98 126
78 97 125
77 95 122
80 99 127
79 98 127
79 97 125
78 98 127
79 98 126
79 98 127
76 94 122
78 97 127
79 98 126
80 99 126
77 96 125
80 99 127
80 99 126
74 92 119
77 97 127
80 98 126
78 97 125
78 98 127
78 97 125
77 96 123
78 96 122
79 98 127
75 94 123
78 97 125
77 96 124
79 97 125
77 96 125
77 96 124
78 97 125
80 98 126
78 97 126
75 95 124
77 96 124
77 97 126
78 97 125
79 97 125
78 96 124
77 96 126
76 95 123
76 95 123
67 83 108
55 67 86
57 69 87
58 71 91
54 66 84
56 68 87
59 72 91
57 69 89
57 70 88
56 68 86
55 68 88
61 74 95
55 68 88
60 74 95
53 66 86
61 74 94
54 66 85
56 68 87
59 72 92
60 73 92
58 71 92
55 67 85
55 68 86
60 74 95
54 67 86
59 72 91
56 69 89
61 75 95
57 70 90
56 69 88
55 67 86
57 71 91
56 68 88
56 69 89
59 72 92
55 67 87
59 73 93
55 67 86
56 69 88
60 72 90
57 70 88
60 73 93
58 71 91
58 72 92
60 74 94
58 72 92
56 70 90
61 74 94
58 71 92
60 74 94
60 72 91
58 70 89
60 73 93
56 69 88
61 74 95
57 69 88
57 71 93
53 66 84
57 69 88
60 74 94
59 73 93
60 73 92
56 68 87
57 70 89
60 73 92
61 75 96
60 74 94
55 68 87
55 68 87
57 71 90
59 73 93
53 66 86
61 74 93
57 70 89
51 63 80
57 70 90
55 68 86
63 76 96
61 74 94
60 72 90
58 71 90
59 72 91
58 71 91
58 71 91
57 70 89
57 70 90
61 74 94
56 69 87
56 68 87
59 71 91
57 70 90
60 74 95
58 71 90
55 68 87
58 71 91
58 71 89
55 68 87
53 66 85
63 77 98
58 71 90
60 74 95
62 75 95
60 74 94
59 72 91
54 67 87
56 68 87
58 71 90
57 70 89
59 73 92
53 66 84
61 75 96
60 73 93
58 70 88
59 72 91
58 72 92
56 68 86
56 69 87
61 74 95
55 67 86
68 85 109
79 98 127
75 94 122
75 95 124
78 97 124
78 96 124
79 98 126
76 96 127
77 95 122
78 97 126
78 97 126
77 97 126
78 97 125
76 95 125
77 96 125
78 97 126
77 96 124
78 96 124
78 96 124
79 98 125
78 97 125
78 97 125
76 96 124
78 97 125
77 95 122
78 97 126
78 97 127
78 97 126
80 98 127
77 97 125
79 98 127
76 96 124
78 98 127
76 96 125
78 96 125
78 97 125
76 95 125
80 99 127
79 98 127
77 96 124
76 95 124
78 98 127
78 98 127
82 100 127
79 98 127
78 98 127
78 97 125
80 99 127
80 99 127
79 97 126
80 99 127
78 98 127
80 98 127
78 96 123
79 98 127
79 98 126
78 98 127
79 98 127
78 97 126
79 98 126
79 98 126
79 97 125
79 98 126
77 96 124
78 98 127
78 98 127
77 95 124
81 99 127
78 97 126
80 98 127
80 99 127
80 98 126
77 96 124
79 98 127
80 99 127
78 98 127
79 98 126
78 98 127
79 97 125
80 99 127
79 98 127
78 97 126
78 97 126
80 98 127
79 98 127
79 98 127
81 99 126
77 97 127
80 99 127
80 99 127
80 98 127
78 98 127
80 99 127
77 97 127
79 98 126
80 99 127
79 99 127
79 98 126
79 98 127
81 100 127
80 99 127
80 99 127
78 98 127
80 99 127
79 98 126
80 99 127
78 98 126
79 98 126
79 98 126
79 97 125
80 99 127
79 98 127
78 97 126
79 98 126
80 99 127
77 96 125
78 97 125
80 99 127
81 100 127
78 98 127
79 98 127
79 98 127
80 99 127
78 97 126
79 98 127
79 98 127
78 98 127
80 98 127
78 98 127
79 98 127
80 99 127
80 99 127
79 98 126
80 99 127
80 99 127
80 99 126
80 99 127
79 98 127
79 98 127
79 98 127
79 98 127
79 98 127
79 98 127
79 98 127
78 97 126
80 99 127
77 97 127
79 99 127
78 97 126
80 99 127
78 97 125
81 99 127
80 99 127
80 99 127
80 98 127
80 99 127
78 98 127
80 99 127
79 99 127
80 99 127
78 98 127
79 98 126
78 97 127
79 97 126
80 99 126
79 98 127
80 98 127
79 98 127
77 96 125
78 97 126
79 98 127
80 99 127
79 98 127
77 97 126
80 99 127
79 99 127
78 98 127
79 99 127
80 99 127
78 97 126
79 98 127
79 98 127
79 98 127
78 98 127
79 99 127
78 97 126
79 98 126
79 97 125
79 98 126
77 97 126
79 98 127
80 99 127
78 97 126
77 95 123
78 97 126
81 99 127
79 97 125
79 99 127
78 98 127
78 97 125
77 97 126
79 98 127
80 99 127
79 98 127
80 99 127
79 98 127
81 99 127
80 99 127
79 98 125
79 98 127
78 97 124
77 97 127
78 97 126
78 97 126
79 98 126
79 97 125
78 97 125
79 98 127
80 97 124
77 96 125
80 99 127
78 97 126
82 100 127
79 98 126
79 98 126
78 97 126
80 99 127
80 98 126
78 98 127
80 98 126
77 96 126
80 99 127
78 97 125
78 97 125
79 98 127
79 97 125
79 98 126
78 97 124
78 98 126
76 94 122
77 96 125
78 97 124
79 98 126
78 97 125
79 98 126
78 97 126
78 96 124
76 95 123
79 98 126
80 98 126
80 98 126
78 97 126
78 98 127
79 98 126
77 95 122
77 96 125
78 97 124
78 98 127
78 97 126
75 94 122
79 98 126
76 95 124
77 96 125
77 96 124
79 97 125
77 96 123
80 98 126
79 98 127
79 97 125
79 97 125
79 98 127
77 96 125
75 95 124
76 94 121
78 97 125
79 98 127
80 98 127
77 96 123
79 98 126
78 96 125
73 92 120
76 94 120
58 71 90
58 70 89
57 70 90
61 73 93
52 63 80
59 72 91
58 71 90
59 72 91
55 68 88
56 68 86
58 72 92
55 68 86
57 69 88
63 77 98
56 70 90
54 66 84
54 67 86
57 69 88
53 65 83
60 72 91
57 69 89
56 68 87
57 70 89
58 71 90
56 69 88
61 74 94
57 70 90
54 66 84
52 63 80
56 68 87
54 67 86
56 68 87
57 69 87
59 72 92
57 70 90
56 68 87
58 71 90
59 74 96
57 70 90
67 81 102
58 71 91
54 67 86
55 68 88
53 65 83
62 75 95
59 72 92
57 70 89
59 71 91
60 74 95
55 68 88
60 73 93
61 74 95
57 70 89
55 68 88
59 71 89
55 68 88
57 71 91
58 71 90
60 74 95
55 68 86
59 73 93
54 66 84
56 69 87
63 76 96
53 66 85
55 67 86
58 71 90
61 74 93
55 68 88
56 69 89
59 73 93
60 74 93
59 72 92
53 65 84
54 66 84
59 72 91
58 72 92
57 71 91
59 72 91
59 72 91
57 70 89
59 72 92
57 70 89
56 69 89
53 65 83
61 74 95
56 69 88
53 64 82
60 73 93
55 66 84
57 71 91
58 71 90
58 70 87
57 70 89
59 72 92
52 63 81
57 69 87
56 69 88
58 70 89
57 70 89
60 72 92
56 70 89
58 71 91
61 74 94
50 61 78
62 76 97
60 73 93
57 70 90
63 78 99
57 69 87
52 64 82
59 73 94
56 69 89
54 66 84
55 67 86
53 65 83
57 70 89
56 67 85
74 92 118
80 98 125
76 95 124
78 97 125
77 96 124
78 96 124
79 97 125
75 94 124
76 95 124
80 98 125
78 97 125
77 95 123
76 95 124
80 98 125
77 96 125
76 96 125
76 95 124
76 95 124
80 98 126
77 95 123
81 99 127
77 96 125
77 95 124
79 97 125
77 95 123
78 97 126
77 97 126
77 97 126
76 95 123
76 95 123
78 96 124
78 96 124
79 98 126
79 98 126
78 98 127
79 98 127
79 98 127
76 96 124
77 96 125
79 97 126
77 96 124
78 97 126
77 97 127
76 96 124
77 97 127
80 98 126
76 96 127
79 97 126
78 97 125
77 96 125
79 99 127
78 97 125
78 97 126
78 97 126
79 98 126
80 99 127
79 98 127
78 98 127
81 99 127
78 97 126
79 98 126
78 97 126
80 99 127
77 96 125
80 98 126
80 99 127
79 98 126
81 100 127
76 96 125
78 97 126
78 98 126
78 97 126
79 98 126
80 99 127
80 99 127
80 98 127
79 98 125
79 98 127
79 98 127
78 97 126
78 98 127
78 98 126
80 99 127
80 98 126
78 98 127
78 97 127
78 98 127
80 99 127
78 96 124
80 99 127
80 98 126
78 97 126
79 98 127
79 98 126
79 98 127
78 97 127
79 98 127
80 99 126
79 98 127
78 98 127
80 99 127
79 99 127
80 98 127
82 100 127
79 98 126
80 98 126
80 99 127
80 98 126
78 98 127
80 99 127
79 98 127
79 97 126
77 97 127
77 97 127
79 98 127
80 98 126
78 98 127
79 98 127
80 99 127
79 98 127
78 97 126
76 96 125
81 100 127
78 98 127
80 99 127
78 98 127
80 99 127
79 99 127
78 97 127
80 99 127
79 98 127
80 99 127
80 99 127
81 99 127
80 99 127
78 97 127
79 98 127
79 98 127
77 97 127
80 99 127
80 99 127
81 100 127
80 99 127
79 99 127
80 99 127
77 97 127
80 99 127
80 99 127
79 98 127
80 99 127
79 99 127
80 99 127
80 99 127
81 99 127
79 98 127
80 99 127
78 97 126
79 98 126
80 99 127
80 98 126
80 99 127
80 99 127
78 97 126
77 97 127
80 99 127
78 98 127
79 98 127
79 98 127
77 96 125
80 98 126
78 97 126
78 97 126
78 98 126
80 99 127
79 97 126
79 98 127
80 99 127
79 99 127
79 97 125
81 99 127
78 97 126
78 97 127
77 97 127
78 98 127
80 99 127
81 99 127
81 99 127
80 99 127
77 96 125
79 98 127
77 97 127
81 100 127
81 99 127
79 98 127
78 98 127
78 97 126
78 97 126
80 99 127
79 98 127
78 97 126
78 97 126
78 97 127
78 98 126
81 99 126
79 98 126
79 99 127
79 98 127
79 98 127
78 98 127
79 98 127
78 97 127
78 97 125
79 98 127
78 97 125
79 98 126
78 97 125
78 97 126
79 98 127
79 98 127
80 99 127
77 96 124
80 98 126
79 97 125
80 98 126
76 95 123
79 98 127
77 96 124
79 99 127
79 98 126
76 95 125
77 95 123
80 98 127
80 99 127
79 97 126
77 96 124
78 97 126
78 96 124
77 96 125
77 97 127
79 98 126
79 97 125
77 95 122
79 99 127
80 99 127
79 98 127
79 98 126
77 96 124
77 96 125
77 96 125
76 95 123
80 98 127
75 94 123
79 98 126
78 98 127
79 98 126
77 96 125
76 96 124
76 95 124
74 93 121
78 97 124
76 94 122
77 96 124
76 95 124
78 97 126
79 97 126
78 96 123
78 97 126
76 95 124
75 93 122
79 98 126
78 96 124
76 94 121
77 95 123
75 95 123
76 96 125
77 96 124
76 95 123
77 96 125
78 97 125
77 97 125
79 98 126
79 98 126
65 80 103
54 66 84
61 75 95
55 67 86
54 67 86
55 67 85
57 69 87
57 70 90
60 73 93
53 65 83
53 65 83
55 67 86
54 67 86
55 67 84
56 70 90
57 70 90
53 65 83
58 71 92
58 70 88
50 62 80
55 67 84
58 70 88
59 73 94
57 69 88
54 68 87
59 73 94
56 70 90
63 76 97
54 67 86
57 70 89
57 70 90
58 70 90
54 66 84
62 75 95
55 68 88
57 70 88
58 70 89
58 72 92
61 74 95
57 69 87
54 66 83
54 67 86
54 66 85
54 67 86
56 68 87
56 69 88
52 64 82
57 70 90
57 70 90
56 68 87
64 78 99
58 71 90
60 73 94
56 69 88
57 70 88
59 72 91
57 71 90
58 71 90
56 70 89
61 74 95
55 67 85
57 70 90
66 80 101
60 74 94
59 73 93
56 68 86
61 75 96
61 74 95
59 72 91
56 68 87
52 64 83
56 67 85
56 68 87
57 70 89
53 66 84
56 69 88
59 73 93
64 79 101
56 69 87
57 70 89
59 71 91
54 67 86
59 72 92
61 74 93
57 70 89
56 68 87
57 70 89
59 72 92
55 67 86
54 66 84
55 68 88
60 73 94
57 70 90
59 71 91
58 70 88
58 70 89
56 69 87
59 72 91
59 72 92
58 71 91
54 66 83
56 69 89
61 74 94
58 71 90
52 63 79
57 70 90
54 66 85
56 68 87
55 67 86
59 72 91
59 72 92
59 73 93
60 74 94
56 69 88
57 70 89
56 68 86
56 69 88
67 82 105
76 95 124
78 97 125
75 93 121
74 92 120
77 97 127
78 96 124
77 96 123
78 96 124
78 96 124
79 98 125
74 93 120
76 95 124
77 97 126
76 94 121
75 94 123
80 98 126
75 95 125
77 96 125
79 98 127
77 96 123
78 97 126
79 97 125
76 95 123
76 95 123
77 96 124
78 97 125
77 96 126
78 97 125
79 98 126
77 96 125
75 95 124
77 96 125
77 96 123
78 97 126
78 98 127
80 99 127
78 97 125
77 97 126
78 97 126
79 98 125
80 98 126
78 97 126
78 97 125
78 96 124
80 98 126
77 97 126
78 97 125
78 96 124
80 99 127
78 98 127
80 98 126
78 97 124
79 98 127
75 95 125
77 97 126
79 98 126
79 98 127
80 98 127
80 99 127
78 97 126
79 98 127
78 97 126
78 97 125
76 96 126
78 97 126
78 97 127
78 98 127
79 98 127
78 97 126
80 99 127
78 97 126
77 97 126
79 98 125
79 97 125
78 97 126
79 98 126
79 98 127
78 97 126
79 98 127
79 98 127
76 95 124
79 98 126
78 97 126
78 97 126
78 97 125
80 99 127
80 99 127
80 99 127
78 98 127
78 97 127
81 99 127
78 97 126
78 97 125
79 98 126
78 98 127
80 98 127
77 96 126
80 99 127
81 99 127
79 98 127
80 99 127
77 96 124
78 98 127
80 98 127
79 98 127
80 99 127
78 98 127
77 97 127
77 96 124
78 97 124
78 98 127
77 97 127
78 97 126
78 97 126
79 98 127
80 99 127
80 99 127
80 98 126
79 98 126
78 98 127
80 99 127
80 99 127
78 97 125
78 98 127
80 98 127
78 97 127
80 99 127
79 98 127
79 98 127
79 97 125
79 98 127
80 99 127
80 99 127
80 99 127
80 98 126
80 99 127
80 99 127
80 99 127
78 98 127
80 99 127
80 98 126
77 97 126
80 99 127
82 100 127
80 99 127
80 99 127
79 98 127
80 99 127
80 99 127
78 97 127
77 97 127
79 99 127
79 99 127
80 98 125
81 100 127
77 97 127
78 98 127
79 98 127
81 100 127
78 96 124
79 98 127
78 97 126
78 98 127
80 98 127
79 98 127
76 97 127
80 99 127
78 98 127
79 99 127
80 99 127
79 98 127
81 100 127
78 97 125
80 98 125
81 100 127
77 96 125
79 98 126
80 99 127
78 97 126
79 97 125
80 99 127
79 99 127
78 97 127
78 97 126
79 98 126
78 97 126
80 99 127
78 98 126
77 96 125
80 99 127
79 98 127
80 99 127
77 97 125
76 96 126
79 98 126
80 99 127
79 98 125
78 97 127
78 97 125
79 98 127
78 97 127
79 98 127
77 97 127
80 99 127
77 96 124
79 98 127
80 99 127
78 98 127
77 96 125
79 98 127
77 96 125
78 97 127
77 96 124
78 97 126
78 98 127
81 99 127
77 96 125
78 97 126
80 99 127
78 98 127
78 98 127
79 98 127
78 98 127
80 98 126
80 99 127
77 96 123
79 98 126
78 97 125
79 98 126
76 96 124
80 98 127
78 97 126
78 97 126
76 94 122
77 96 125
80 99 127
75 95 124
79 97 125
77 96 124
75 94 123
78 98 127
79 98 126
77 96 125
79 97 125
77 96 125
78 97 126
77 97 125
79 98 127
78 97 125
77 96 124
74 92 120
77 96 124
78 97 126
78 98 127
79 98 126
78 96 124
79 98 126
78 97 125
78 97 126
77 96 124
77 95 123
75 94 122
77 96 125
77 96 125
76 95 123
77 97 126
75 94 123
81 100 127
75 94 122
77 96 124
75 93 120
75 93 120
78 97 124
74 93 121
78 97 125
78 96 124
77 96 123
75 94 122
77 95 122
79 98 126
75 93 121
75 93 120
74 92 119
54 66 83
55 67 86
60 73 92
55 67 86
54 66 85
60 74 95
57 69 88
54 67 86
56 69 87
58 71 91
56 68 87
56 68 87
51 62 80
58 71 89
58 71 92
56 69 88
53 65 82
56 68 87
58 71 90
55 67 86
54 66 84
59 72 92
61 74 94
59 71 91
55 67 86
55 68 88
55 68 87
58 70 89
56 68 87
61 74 94
58 72 91
58 70 89
54 66 84
54 67 85
57 69 87
58 70 90
55 67 85
60 74 94
53 65 84
54 66 85
54 66 85
57 69 87
53 64 82
54 67 85
57 70 90
62 75 95
59 72 91
57 69 88
58 71 90
53 65 84
55 68 87
54 66 85
59 73 93
55 68 86
56 68 86
60 74 94
54 67 85
54 66 83
56 69 88
60 73 93
57 70 90
59 73 93
58 71 91
59 73 93
52 64 83
58 71 91
59 71 90
58 72 91
64 77 98
61 74 93
55 67 86
52 64 82
60 73 92
60 75 96
56 70 90
57 69 88
57 70 89
57 70 90
59 72 92
61 75 95
55 67 85
59 72 91
54 66 84
57 70 89
54 67 85
60 73 92
55 68 88
56 69 89
60 73 93
60 73 93
62 76 96
57 69 87
57 69 88
55 67 86
57 70 89
58 71 89
59 72 92
58 71 90
62 75 96
56 68 86
59 73 93
58 71 90
57 71 91
58 71 91
54 67 86
58 71 90
56 68 86
55 68 87
52 64 81
57 71 91
58 71 91
62 75 94
58 70 90
59 72 91
59 72 91
56 68 86
75 93 121
77 95 123
77 96 124
75 94 122
79 97 125
76 94 122
76 95 123
77 96 125
79 98 126
76 95 124
78 97 124
76 95 123
76 95 124
77 96 124
76 95 122
76 95 123
77 96 124
78 96 124
76 95 124
77 97 127
79 98 127
74 92 120
74 93 121
79 98 126
79 98 126
78 96 124
80 99 127
76 95 123
78 97 126
79 98 126
77 96 124
79 97 125
78 98 127
78 96 123
78 96 124
78 97 125
79 98 126
77 96 124
79 98 127
79 98 127
77 96 124
78 98 127
76 94 123
77 96 125
78 97 125
78 97 126
78 97 125
78 97 126
78 97 125
75 94 123
77 95 123
77 97 126
79 98 127
79 98 127
78 97 126
80 99 126
78 97 125
76 95 124
79 98 127
81 99 126
78 96 125
77 96 125
79 98 127
78 97 126
77 97 127
79 99 127
77 97 126
79 98 127
79 98 127
79 97 124
80 98 126
78 97 126
80 99 127
79 98 127
79 98 127
80 98 126
79 97 126
76 96 125
78 97 126
79 98 127
80 99 127
80 99 127
79 98 126
77 97 127
79 98 126
79 98 127
81 99 127
80 99 127
80 99 127
79 98 127
78 98 127
76 96 125
78 97 126
78 97 126
79 98 127
78 97 126
80 98 127
80 99 127
77 95 123
78 97 127
78 98 127
80 99 127
79 98 127
79 98 127
80 99 127
79 98 127
78 98 126
79 98 127
81 100 127
79 99 127
80 99 127
81 99 127
80 99 127
78 97 127
78 97 125
80 99 127
78 98 127
79 98 127
80 99 127
79 98 127
80 99 127
80 98 126
80 99 127
80 98 127
79 97 126
79 98 127
79 98 127
79 98 127
79 97 126
79 98 127
81 99 127
79 99 127
81 99 127
80 99 127
78 97 127
78 97 127
78 98 127
81 100 127
80 99 127
79 98 127
81 99 127
81 100 127
80 99 127
78 98 127
78 98 127
79 98 127
81 99 127
79 98 127
79 98 127
80 99 127
80 99 127
80 99 127
78 98 127
79 98 125
79 99 127
79 98 127
81 100 127
77 97 127
79 98 127
80 99 127
80 99 127
78 98 127
77 96 125
80 99 127
79 98 127
79 98 126
80 99 127
80 99 127
81 99 127
79 98 127
78 97 127
79 98 127
78 97 127
80 98 126
78 98 127
80 99 127
77 95 123
78 98 127
79 98 127
79 98 126
76 95 123
78 97 126
80 99 127
79 97 125
80 99 127
79 98 126
79 98 126
79 97 125
78 97 125
80 98 127
79 99 127
77 96 125
79 98 126
80 99 127
79 98 126
78 98 127
77 96 125
79 98 126
79 98 126
79 98 126
81 99 126
78 98 127
80 99 127
79 99 127
78 97 126
78 97 125
78 97 125
81 100 127
78 97 125
77 96 124
81 100 127
80 99 127
79 98 126
78 97 125
78 96 125
79 98 126
79 98 127
78 97 125
80 98 126
78 97 125
79 98 126
78 97 125
78 97 125
79 99 127
78 97 126
78 97 126
79 98 127
80 99 127
76 95 124
76 95 123
77 97 126
78 98 126
80 98 127
81 99 126
77 97 127
78 98 127
77 96 125
77 97 126
77 97 126
77 97 126
76 95 123
80 99 127
79 98 126
80 99 127
76 95 124
78 96 123
80 99 127
78 97 127
78 97 125
77 96 125
77 96 124
79 97 126
76 95 122
78 96 124
78 97 125
78 97 124
73 92 119
77 96 124
76 95 122
77 97 126
76 94 121
74 94 123
78 97 126
77 96 124
77 96 125
77 97 126
78 96 124
76 96 126
77 96 124
79 97 125
78 96 124
72 91 118
77 95 124
78 96 124
80 98 125
79 97 126
75 93 120
77 97 127
79 97 124
76 95 124
76 94 122
76 94 121
74 93 122
75 94 122
62 76 98
56 69 88
58 70 89
55 66 84
55 66 84
54 66 85
51 62 79
62 74 93
57 70 88
54 66 83
54 66 84
53 65 82
57 70 89
58 71 91
53 65 83
55 66 83
55 67 85
57 70 88
57 70 89
59 72 91
55 68 86
55 68 87
56 68 86
59 71 89
57 69 87
56 68 87
54 66 84
57 69 88
57 70 88
49 61 78
54 67 86
56 69 88
59 72 92
58 71 90
62 76 96
60 73 93
58 71 92
53 65 84
56 68 87
59 72 91
54 66 85
57 71 91
54 67 86
57 70 89
61 74 94
59 72 92
63 77 99
57 69 88
55 68 88
58 71 90
56 69 87
55 68 87
59 72 91
55 67 85
54 66 84
56 68 87
61 74 95
49 60 77
56 69 87
61 75 95
56 69 90
62 75 95
60 75 96
61 75 95
53 65 83
53 65 83
57 70 90
58 72 93
58 71 90
54 66 84
60 73 94
56 69 88
57 69 88
57 70 89
56 69 88
55 67 85
58 71 90
59 73 92
60 73 93
55 68 87
59 72 92
53 65 84
58 71 90
54 66 84
59 73 93
57 69 88
55 67 86
57 70 90
59 73 93
58 71 90
60 72 91
56 68 88
55 68 87
56 69 89
56 68 87
59 73 93
59 71 90
57 70 89
59 73 93
54 65 83
51 62 79
55 67 85
58 70 88
55 67 85
59 72 91
55 67 85
54 67 86
54 66 84
53 65 82
57 69 88
62 76 96
56 69 87
57 70 89
56 69 88
57 69 88
61 75 96
74 92 119
74 92 119
75 94 123
76 96 124
75 95 123
76 95 125
79 98 125
79 97 125
78 96 124
76 95 124
77 95 123
77 96 123
77 96 125
77 97 126
78 97 126
79 98 126
77 96 125
77 96 126
76 94 122
75 94 123
78 96 124
76 95 125
78 97 127
77 96 124
78 97 126
78 96 123
78 97 125
77 97 126
79 98 125
79 98 126
75 94 122
78 97 126
77 96 124
78 97 124
79 97 125
78 97 126
78 96 124
78 97 127
78 96 125
78 97 125
81 99 126
78 96 124
78 97 125
76 95 124
77 97 126
78 97 125
78 97 126
77 96 124
77 97 127
79 98 127
79 97 125
78 97 125
76 94 122
79 99 127
77 96 125
77 96 125
79 98 127
80 98 126
78 97 126
78 98 127
78 97 126
80 99 127
77 96 124
79 98 126
78 98 126
78 97 125
77 96 125
77 97 126
79 98 126
79 98 127
79 98 127
80 98 126
78 98 127
79 98 127
79 98 126
78 96 124
79 99 127
78 97 125
77 96 125
78 98 127
79 98 126
79 98 126
78 97 126
80 99 127
77 96 125
78 97 125
80 99 127
79 98 127
79 98 126
81 100 127
79 98 127
80 99 127
78 97 127
76 95 124
79 98 127
80 99 127
80 99 127
78 98 127
80 99 127
79 98 127
78 97 127
80 98 126
77 96 125
78 97 126
78 97 127
79 98 127
81 100 127
78 97 126
79 98 126
80 99 127
78 97 125
80 99 127
78 97 126
79 99 127
79 98 127
78 98 127
78 97 126
79 98 127
80 98 126
77 97 127
80 98 126
78 97 125
79 99 127
80 98 126
78 97 126
80 99 127
78 97 126
78 97 126
80 99 127
79 98 126
80 99 127
80 99 127
79 98 127
78 97 127
79 99 127
79 98 126
80 99 127
80 99 127
80 99 127
79 98 126
80 99 127
78 97 126
77 97 126
79 99 127
80 99 127
79 98 127
78 98 127
79 98 127
80 99 127
79 98 127
79 98 127
79 99 127
81 99 127
78 98 127
77 96 126
81 99 127
80 99 127
79 98 127
80 99 126
76 96 125
80 99 127
78 97 125
80 99 127
78 97 126
79 98 126
81 100 127
78 97 127
80 99 127
79 98 127
78 97 125
79 98 127
79 98 127
80 99 127
78 97 126
77 97 127
79 99 127
80 99 127
78 98 126
78 97 127
79 98 126
79 98 127
78 98 127
78 98 127
80 99 127
80 99 127
79 98 126
79 98 127
77 96 126
77 97 126
77 97 127
78 97 125
78 98 127
77 96 125
78 98 127
80 99 127
79 98 127
79 98 126
78 97 126
79 98 126
78 97 126
79 99 127
77 96 124
78 97 126
79 98 127
79 98 127
78 97 125
77 96 125
78 97 126
80 98 125
78 97 126
77 95 123
78 97 126
80 98 126
80 98 125
77 97 127
79 98 126
78 97 126
79 98 126
79 98 127
79 98 126
80 99 127
79 98 126
77 96 124
78 97 127
80 99 127
75 94 122
78 98 127
79 99 127
77 96 124
77 96 124
77 97 126
77 96 125
77 96 126
76 96 126
77 97 126
80 99 127
80 99 127
80 99 127
79 98 126
77 96 126
77 96 124
77 95 123
78 98 127
76 95 124
79 97 125
76 95 124
78 96 124
77 96 125
78 97 126
78 96 124
78 97 125
76 95 123
76 96 125
79 97 125
78 96 124
78 97 125
77 96 125
78 96 123
78 96 123
74 93 121
76 94 122
77 95 122
76 94 122
76 95 123
78 97 126
77 96 124
74 93 121
75 93 121
74 93 121
76 94 122
78 96 124
75 94 123
78 96 123
78 97 126
78 96 124
76 94 121
77 95 122
77 95 122
78 96 124
77 94 121
74 93 121
75 94 122
73 90 116
77 95 122
75 93 120
54 65 83
56 69 88
56 68 86
53 65 83
53 64 81
58 70 89
62 74 93
53 65 83
54 66 84
56 69 88
60 73 92
55 68 86
58 70 89
58 70 90
57 70 88
54 66 84
57 70 89
59 73 93
57 70 88
56 69 88
56 70 90
58 71 90
55 67 85
57 70 89
56 69 88
55 68 87
58 70 88
58 71 89
56 68 87
58 70 89
58 72 92
57 69 87
58 71 90
57 70 90
57 70 90
61 73 92
57 70 90
54 67 86
60 73 94
58 71 90
55 67 85
55 68 87
56 69 87
58 71 90
60 74 95
57 70 89
52 64 81
58 71 90
57 69 88
55 67 86
52 63 80
63 78 99
50 62 80
57 70 90
59 72 92
52 64 82
58 71 90
54 66 84
57 70 90
55 67 86
58 71 90
58 71 90
64 78 99
59 71 90
53 64 82
57 69 87
58 70 88
57 69 88
54 66 84
60 73 94
61 74 94
56 68 87
60 73 92
59 72 91
59 71 90
60 73 92
59 73 93
56 69 88
56 69 89
54 65 83
54 66 84
55 67 85
58 72 92
58 70 89
58 70 89
54 67 86
57 70 88
61 74 93
57 69 87
52 64 81
59 73 92
58 71 90
53 64 81
52 64 81
54 66 84
53 64 81
56 69 88
56 70 90
60 73 92
55 68 87
56 69 89
50 61 78
52 64 81
62 76 96
61 74 93
55 67 85
55 66 84
57 70 90
57 70 89
57 70 89
57 70 89
58 70 88
54 66 84
55 67 84
75 93 120
75 93 121
77 94 121
75 94 123
77 95 122
73 91 119
76 95 123
78 96 124
77 95 123
76 94 120
77 96 124
77 95 123
75 94 123
79 98 126
77 96 125
78 98 127
78 97 126
76 95 124
76 94 121
79 98 126
78 97 126
77 96 126
78 96 124
79 97 125
77 96 124
76 95 122
77 96 125
75 93 119
77 96 123
78 98 127
80 99 127
79 98 126
76 95 123
78 97 125
76 95 124
76 95 122
78 97 125
80 98 126
78 97 125
78 97 126
74 93 121
76 94 121
76 95 123
77 97 127
79 98 125
79 98 126
78 97 124
78 97 125
78 97 125
78 97 126
77 96 126
80 99 127
78 97 126
75 95 124
79 98 127
78 97 125
76 96 124
77 96 124
77 96 125
78 96 124
79 98 126
78 97 125
77 96 126
76 96 126
82 100 127
79 98 127
79 98 127
79 97 125
79 98 127
78 96 124
79 98 126
77 96 124
81 100 127
79 98 127
79 97 125
77 95 123
79 97 126
80 99 127
78 97 126
77 96 126
78 97 126
78 97 125
77 96 125
78 98 127
79 98 127
77 96 124
78 98 126
81 99 126
78 98 126
80 99 127
79 99 127
79 98 127
79 98 126
79 98 127
79 98 127
79 98 126
76 96 126
80 99 127
77 96 123
81 99 127
78 97 127
80 99 127
78 98 127
81 99 127
80 98 126
78 96 124
79 98 127
78 97 126
79 98 127
79 98 127
79 98 127
79 98 127
78 98 127
80 99 127
79 99 127
80 98 126
80 99 127
78 97 126
78 98 127
78 97 126
79 98 126
80 99 127
79 98 127
80 99 127
82 100 127
80 99 127
79 98 126
78 97 126
78 97 127
80 98 125
81 100 127
78 98 127
80 98 127
81 99 127
79 98 127
80 99 127
79 98 127
79 98 127
80 99 127
79 98 127
79 99 127
79 98 127
78 97 126
79 98 127
78 97 126
79 98 126
79 98 127
80 99 127
77 97 126
81 100 127
78 97 126
79 98 127
78 98 127
80 99 127
78 97 125
78 98 127
78 97 127
80 99 127
79 98 127
79 98 126
78 97 126
78 97 125
79 98 127
79 97 126
79 98 127
79 99 127
79 98 127
79 98 126
79 98 127
80 99 127
78 97 126
79 98 127
78 97 126
79 98 126
79 98 127
79 98 127
78 98 127
79 99 127
78 97 126
78 98 127
78 98 127
79 97 126
77 97 126
79 98 127
78 97 125
77 96 126
79 98 127
79 98 127
79 98 127
78 98 126
78 97 126
78 97 126
77 96 125
79 98 126
80 99 127
77 95 124
77 97 126
78 98 127
78 97 126
78 96 123
78 97 127
78 98 127
80 99 127
80 99 127
78 97 125
78 96 124
76 95 122
79 98 127
80 99 127
79 98 127
78 97 126
78 96 124
78 97 124
78 97 126
78 97 126
78 97 125
79 98 126
79 98 126
77 97 127
76 96 125
79 98 125
78 97 126
79 98 126
77 96 125
79 98 126
78 98 127
77 97 125
79 98 127
78 97 127
78 98 127
77 96 125
77 96 124
76 96 125
77 96 125
81 99 127
78 97 124
77 96 125
77 97 126
78 97 125
77 97 126
80 97 124
75 94 122
78 97 127
79 97 124
78 98 127
75 94 122
79 97 125
77 96 125
79 98 126
77 96 125
77 95 123
80 98 127
78 96 124
77 96 125
78 97 125
78 97 125
78 96 124
78 96 123
75 94 123
78 96 122
77 95 123
79 98 127
77 95 123
75 93 119
75 93 120
73 91 118
75 94 122
75 93 120
76 95 123
76 94 122
77 95 121
75 93 121
77 96 125
77 96 124
76 93 120
76 94 122
76 94 121
71 89 116
73 93 121
75 94 122
78 97 124
74 92 118
75 94 122
77 95 122
75 94 121
77 96 124
67 81 103
57 69 88
57 70 88
55 68 87
54 67 85
57 69 88
53 64 81
58 71 90
60 74 94
54 65 83
59 71 90
55 67 86
55 68 86
53 65 84
57 69 87
58 71 90
54 66 84
59 73 93
55 67 86
56 68 87
56 68 86
49 60 76
57 70 89
55 66 84
58 71 89
55 67 84
54 67 86
60 73 94
53 66 85
58 71 92
54 66 85
61 75 95
55 67 85
56 69 89
59 72 91
64 78 98
58 70 88
58 71 90
56 69 88
56 69 89
57 69 87
59 71 90
59 72 91
61 75 95
55 67 85
55 67 86
55 68 86
54 66 84
64 78 98
54 67 86
54 65 83
57 70 90
58 70 89
55 68 87
57 69 87
59 73 94
57 70 90
58 70 88
59 73 93
58 71 91
53 65 83
52 64 82
54 67 85
57 69 87
59 72 91
58 71 90
59 72 91
57 69 88
58 71 90
56 68 87
55 67 85
57 70 89
58 72 92
54 66 85
62 75 94
56 68 86
60 73 94
54 66 85
58 72 91
54 66 84
60 72 92
59 71 90
55 67 85
55 68 87
57 70 89
60 72 92
58 70 89
53 66 84
60 72 91
60 73 91
59 72 91
59 71 91
53 65 83
57 69 88
56 68 86
52 64 82
55 68 86
55 67 85
57 69 88
54 66 85
56 68 87
58 70 89
57 69 88
56 69 89
58 71 90
58 72 91
49 60 77
51 62 79
59 72 92
55 68 86
59 71 89
61 75 95
55 67 86
62 77 99
74 92 119
75 93 120
75 93 120
76 94 122
74 93 120
77 97 125
74 92 120
77 95 123
81 99 127
77 95 124
75 93 120
78 96 123
78 97 126
76 95 122
76 95 122
76 95 123
76 95 124
76 95 123
77 96 124
77 96 125
74 93 120
78 96 123
78 96 124
74 93 120
76 95 123
79 98 126
78 98 127
77 96 124
82 99 126
80 99 127
75 95 125
76 95 124
75 94 123
74 92 120
79 98 125
76 94 121
76 95 123
76 95 124
78 97 126
79 97 124
77 95 123
79 98 127
78 97 125
74 93 121
79 98 126
79 97 125
78 96 124
77 97 125
77 96 124
77 96 126
78 96 123
77 95 123
78 97 126
79 98 125
76 96 126
78 97 126
79 98 127
79 98 125
77 95 122
77 96 124
78 96 124
76 95 123
79 98 126
77 96 123
78 97 126
78 96 124
78 96 123
78 97 125
79 98 127
77 96 124
81 99 127
76 95 124
78 97 126
78 97 125
79 97 125
76 96 125
78 98 127
78 97 125
76 95 124
77 96 123
78 98 127
78 97 127
80 98 126
79 98 127
79 98 126
78 98 127
78 98 127
79 98 127
80 98 126
79 97 126
78 97 126
78 97 126
80 97 124
77 97 127
78 97 126
79 98 127
77 97 126
80 99 127
80 99 127
79 98 125
77 97 127
80 98 127
79 98 127
78 97 126
78 97 125
77 96 125
79 98 127
78 97 126
79 97 124
79 98 127
78 98 127
77 96 126
79 98 126
78 97 127
80 99 127
80 99 127
79 98 127
78 97 127
80 99 127
79 98 127
80 98 126
78 97 126
78 98 127
79 98 127
79 98 126
79 98 127
78 98 127
79 98 127
79 99 127
79 98 127
79 99 127
79 98 127
80 99 127
77 97 127
79 98 127
78 97 125
77 97 126
79 98 127
80 99 126
79 97 126
79 97 125
79 98 126
77 97 127
80 98 126
80 99 127
80 99 127
79 99 127
80 98 127
79 98 127
79 98 127
77 96 124
79 98 127
79 98 127
79 98 127
77 97 127
80 99 127
79 98 126
78 98 127
79 98 127
80 99 127
80 98 127
79 98 126
80 99 127
81 100 127
80 99 127
77 97 126
79 97 126
78 98 127
77 97 126
79 98 126
80 99 126
79 98 127
79 98 127
79 98 127
79 99 127
77 97 127
77 97 126
78 97 127
79 98 127
78 97 125
79 98 126
78 97 126
77 96 125
79 98 127
79 98 127
78 97 127
78 98 127
78 98 127
78 97 126
79 98 127
77 96 126
79 98 127
80 99 127
78 97 126
79 98 127
77 97 126
78 97 125
78 97 126
78 97 126
78 98 127
78 96 124
79 98 126
78 98 127
79 98 127
79 97 125
77 96 124
75 95 124
76 96 125
77 95 122
77 96 124
79 97 125
80 99 127
77 96 125
76 96 125
78 97 127
79 98 126
76 95 123
78 97 124
79 98 127
79 98 127
78 98 126
78 97 127
78 98 126
75 93 120
77 96 123
77 96 124
77 96 125
75 94 123
77 96 125
77 96 123
78 97 126
78 97 125
77 97 126
76 95 122
75 94 122
78 97 126
77 95 124
78 97 124
75 94 123
76 95 124
79 98 127
77 96 124
78 97 124
78 97 126
78 96 124
75 94 121
78 96 125
78 98 126
75 94 122
78 96 124
77 95 123
78 96 124
76 94 122
77 97 125
76 95 123
79 98 126
78 96 124
76 95 123
79 97 125
78 97 124
76 95 123
76 94 122
77 95 122
76 95 123
75 93 121
78 96 123
79 97 123
78 97 125
77 95 122
79 96 123
75 94 123
76 95 122
78 97 125
75 94 122
74 92 121
76 94 121
78 97 125
77 95 120
75 93 120
75 94 121
75 94 123
75 95 123
77 95 122
78 97 125
74 93 120
73 91 118
74 92 119
56 69 88
56 68 87
59 71 90
54 65 82
55 67 85
54 67 86
54 67 85
54 66 83
57 69 88
53 65 84
57 70 89
53 65 84
64 78 99
57 70 89
53 66 84
52 64 82
49 59 75
54 66 83
58 71 90
52 64 81
55 67 87
56 69 88
55 68 87
55 67 85
55 66 84
52 64 82
52 64 81
55 68 87
59 72 91
57 70 89
60 73 92
56 68 85
56 69 88
59 72 91
56 68 86
55 67 86
57 70 89
59 71 90
60 73 94
55 67 85
55 68 86
54 66 85
50 62 80
57 70 89
59 72 92
55 67 86
54 66 84
61 74 93
59 72 91
61 74 95
58 70 89
54 65 81
57 69 87
56 69 88
59 72 90
53 65 83
57 70 89
53 65 82
53 65 83
58 71 90
58 71 90
58 71 91
56 68 87
60 72 91
56 69 88
60 73 92
52 65 83
62 75 94
56 69 88
54 66 83
62 75 95
54 67 85
58 71 91
54 66 84
54 66 84
56 69 87
56 68 87
57 71 91
55 68 87
57 70 90
55 68 86
52 63 81
54 66 85
56 68 87
57 70 90
55 67 86
58 71 90
55 67 86
57 70 89
53 65 83
55 68 87
55 68 86
55 68 87
51 63 81
57 70 89
57 69 89
56 69 88
58 70 90
54 66 84
54 66 84
58 70 88
58 70 89
57 70 89
56 68 86
57 69 88
55 67 84
59 72 92
55 67 84
52 63 79
50 61 78
54 66 84
59 71 90
77 94 121
76 94 121
75 92 119
74 93 122
76 95 124
74 92 119
77 95 123
72 89 114
76 93 120
78 97 126
78 97 124
72 90 116
74 93 121
77 96 123
73 91 117
74 92 120
77 94 121
76 95 122
75 95 124
74 93 122
77 95 122
77 96 123
78 97 125
76 93 120
77 95 124
76 94 122
75 94 122
76 94 121
74 92 120
76 94 121
77 96 124
77 96 124
76 94 122
77 97 125
75 93 120
77 95 121
76 96 125
77 96 123
77 96 124
77 96 124
78 97 125
79 98 126
75 94 122
78 97 126
77 96 124
76 95 123
76 94 122
76 95 124
78 98 127
77 97 127
76 95 122
79 98 127
78 97 126
76 95 124
78 96 124
77 96 124
74 94 124
78 97 125
78 97 127
77 97 126
76 95 124
77 96 125
77 97 126
78 97 126
75 94 124
79 98 126
78 97 125
79 97 126
79 98 127
77 96 124
79 97 126
80 98 126
79 98 127
81 100 127
78 97 125
78 95 122
77 97 126
79 98 126
79 98 126
78 97 124
79 97 125
78 98 127
76 96 125
78 97 126
80 98 126
79 98 127
80 99 127
78 98 127
80 98 126
78 97 126
79 97 125
78 96 124
80 99 127
77 96 124
78 97 125
79 98 126
79 98 126
79 98 126
79 98 127
79 98 127
78 97 126
78 97 126
79 97 125
78 98 127
79 98 126
79 98 127
81 99 127
76 95 124
77 96 125
79 99 127
79 98 127
79 98 127
79 99 127
80 99 127
78 97 127
78 97 126
79 99 127
79 98 127
78 97 126
80 98 127
79 98 126
77 96 125
80 99 127
77 97 127
80 98 127
79 98 127
79 98 127
80 98 127
78 98 127
77 96 126
80 99 127
79 99 127
78 98 127
78 98 127
78 97 127
78 98 127
78 98 127
79 98 127
77 97 127
80 99 127
80 99 127
78 98 127
79 98 127
78 97 125
80 99 127
78 97 127
79 98 127
79 98 127
79 98 126
79 97 126
77 97 127
78 97 126
81 99 127
79 99 127
80 99 127
79 98 127
79 98 127
78 97 127
78 98 127
78 97 125
78 98 127
77 96 125
77 97 127
80 99 127
79 98 126
78 97 126
80 99 127
79 98 127
79 97 125
79 98 127
80 99 127
78 98 127
78 97 126
78 97 126
78 97 125
78 97 126
80 99 127
80 99 127
79 98 127
79 98 127
79 98 127
78 97 125
79 98 126
80 99 127
80 99 127
78 97 126
78 98 127
78 97 127
78 98 127
77 95 123
78 97 126
79 98 127
79 97 126
80 98 127
78 96 122
79 98 126
78 97 126
79 98 127
78 97 126
78 97 125
77 97 125
77 95 123
79 99 127
78 97 125
77 97 126
79 98 126
78 96 123
79 98 126
77 97 125
78 97 126
78 96 125
78 97 124
78 96 124
80 99 126
80 99 127
77 95 123
77 96 124
79 98 127
78 97 125
77 96 124
76 95 125
78 97 125
77 97 125
77 96 125
78 96 125
78 96 125
78 97 125
77 96 125
78 96 124
77 96 124
78 97 126
79 98 127
77 96 125
75 93 121
79 97 126
77 96 124
79 98 127
80 98 127
77 96 125
75 93 120
76 95 123
79 97 123
74 93 122
77 96 124
75 94 123
78 97 126
75 94 122
79 97 125
78 97 124
76 95 124
77 96 123
78 97 125
77 96 124
75 93 120
76 95 123
77 95 124
78 97 126
77 96 126
75 94 123
78 97 126
75 94 121
79 98 127
76 94 121
76 94 122
76 94 122
74 93 122
73 91 118
76 94 122
77 95 122
74 92 120
75 92 119
77 96 124
75 94 122
77 95 122
73 90 117
74 92 119
74 92 118
76 94 120
78 97 126
75 94 123
71 89 115
74 92 118
74 91 118
73 92 119
76 94 122
72 91 118
72 90 116
72 90 115
68 84 108
50 60 76
52 64 80
52 64 80
51 63 80
58 71 90
51 62 80
56 68 87
58 71 90
50 61 77
61 75 95
59 71 91
58 72 91
53 65 82
59 72 91
53 64 81
55 67 85
55 67 85
56 69 88
53 64 80
54 67 86
58 71 90
58 70 88
53 66 85
51 62 79
55 67 86
55 67 86
64 78 98
57 69 88
54 66 84
56 69 88
58 71 91
56 69 87
56 68 85
58 72 92
55 67 86
56 68 86
58 71 91
55 67 85
56 69 88
59 71 89
58 70 89
56 69 87
63 77 98
56 69 88
53 66 84
56 69 88
56 69 87
57 69 87
57 69 87
55 68 88
61 74 94
59 72 91
61 74 94
57 70 90
56 69 88
56 68 86
54 65 83
58 71 90
54 67 86
55 68 88
62 75 95
55 67 85
58 71 90
54 66 84
58 70 89
55 68 87
58 71 90
56 69 88
58 72 91
57 70 88
59 72 92
59 73 93
56 68 86
63 76 96
60 73 94
53 66 85
56 68 85
57 69 88
62 75 95
57 69 88
60 73 93
57 70 88
59 71 88
54 66 85
51 63 80
55 67 84
60 73 92
58 71 90
51 62 80
57 70 89
57 69 87
54 67 85
53 65 83
56 69 87
56 68 86
50 62 78
55 68 86
53 64 81
55 66 84
54 66 83
51 62 78
58 71 89
54 66 83
55 68 86
53 65 83
57 69 88
56 68 86
53 65 82
59 72 92
55 67 85
68 83 107
74 92 119
75 94 123
76 95 123
71 89 116
74 92 119
76 94 121
76 94 121
75 93 120
73 92 121
75 95 124
75 92 119
77 94 120
76 94 122
74 91 117
76 94 122
74 93 122
75 93 121
76 95 124
75 93 121
77 96 124
78 97 125
76 94 121
77 96 123
75 93 121
76 94 122
77 96 125
77 95 121
75 93 119
77 96 124
80 98 126
79 98 126
76 95 124
77 96 123
76 94 120
78 97 125
76 94 122
76 96 125
77 96 123
75 94 122
78 97 126
78 97 126
76 95 125
78 97 127
78 96 123
76 95 123
77 96 125
76 95 124
78 96 123
77 95 123
78 97 125
75 94 122
75 94 124
74 93 121
77 97 126
76 95 123
79 98 127
79 97 125
79 98 127
78 97 127
78 97 126
79 98 127
78 97 126
79 98 126
78 97 125
77 97 126
78 97 126
77 96 125
78 97 127
78 96 123
76 95 124
78 97 126
79 98 125
79 97 123
78 97 126
78 97 126
76 95 122
79 97 125
77 96 125
79 98 127
79 98 127
78 97 126
79 98 126
76 94 121
78 97 126
78 98 127
77 96 125
80 99 127
77 96 124
77 96 126
79 98 127
79 98 125
79 98 127
79 98 127
77 95 124
79 97 125
79 97 125
79 98 127
77 97 127
78 97 126
77 96 125
79 98 127
78 98 127
76 95 123
80 98 126
76 94 122
77 95 124
80 99 127
79 98 127
79 98 127
78 97 126
78 97 126
78 97 127
78 98 127
77 96 123
79 98 126
76 96 127
78 97 127
79 98 127
80 99 127
80 99 127
79 98 127
79 99 127
78 98 127
81 99 127
79 98 126
80 98 126
77 97 126
80 99 127
79 99 127
77 97 127
78 97 126
78 97 126
79 99 127
79 98 126
79 98 127
79 98 127
79 98 126
78 98 127
80 99 127
80 99 127
79 98 125
77 97 126
80 98 127
79 98 127
80 99 127
78 97 127
80 99 127
79 98 127
77 96 125
79 98 127
79 98 127
79 98 127
79 98 127
79 98 126
76 96 125
79 98 126
77 97 125
80 99 127
78 98 127
79 98 127
80 99 127
81 100 127
79 98 127
79 98 127
80 98 127
79 98 127
79 98 127
78 97 127
78 96 123
79 98 127
79 98 126
79 97 125
77 96 124
78 97 126
77 97 127
79 97 125
79 98 126
78 97 126
78 97 125
78 98 127
78 97 126
80 98 126
77 96 123
79 98 127
77 97 127
77 97 126
78 97 125
79 99 127
79 97 125
78 97 127
79 98 125
78 98 126
78 97 126
78 97 125
79 98 126
78 96 124
79 99 127
77 96 125
78 97 126
79 98 127
77 96 124
78 97 126
78 97 126
77 97 126
79 97 126
77 96 124
78 97 126
79 97 124
77 96 125
77 96 124
77 96 125
78 97 125
77 97 126
78 98 127
78 97 125
78 97 126
77 97 126
77 96 125
76 96 125
79 98 125
78 97 126
78 97 126
78 97 126
78 97 124
78 97 126
78 97 127
76 95 124
78 96 123
75 95 123
77 97 126
78 96 123
80 98 125
75 94 123
75 94 122
79 98 126
79 98 126
78 96 124
77 96 124
76 96 124
76 95 123
75 94 123
78 97 125
76 95 122
79 98 125
77 96 125
76 96 125
76 95 123
75 95 124
77 96 124
76 95 122
77 96 124
75 93 120
75 94 121
75 94 121
74 93 120
78 95 122
76 95 124
77 96 124
76 96 125
77 96 123
77 95 123
77 95 122
76 94 122
73 91 119
77 96 125
77 95 123
78 96 123
77 95 122
74 93 120
76 94 120
76 94 121
75 92 119
74 93 120
79 97 124
72 90 118
74 92 119
74 92 119
73 91 118
73 92 119
77 96 124
77 95 122
76 94 122
76 93 120
76 94 121
76 95 122
73 92 119
70 89 117
76 94 121
76 94 121
61 75 95
52 64 81
56 68 86
52 63 81
57 69 87
55 68 87
53 64 80
60 73 93
54 66 84
50 62 79
54 66 82
55 67 85
54 66 83
53 65 82
53 65 83
52 63 80
55 67 84
56 69 87
53 65 83
56 68 85
56 68 86
53 65 82
58 71 91
54 66 83
58 71 91
52 63 80
55 67 85
61 75 95
58 71 89
61 75 96
54 66 84
58 70 89
56 69 87
55 67 85
58 70 88
52 64 81
58 71 89
56 68 86
58 71 90
63 76 96
61 73 92
60 73 92
54 65 82
52 63 81
53 65 83
50 61 78
55 67 86
58 70 89
56 69 88
57 69 88
60 73 93
57 70 88
58 70 89
61 73 92
54 67 87
56 68 87
54 66 84
60 73 92
58 70 90
57 70 89
57 69 88
55 67 86
56 69 87
57 69 89
57 70 90
60 74 95
57 70 89
57 70 89
56 68 86
59 72 91
56 68 87
58 71 89
57 70 89
49 60 78
51 62 79
54 66 84
60 73 93
59 73 93
57 70 88
53 65 84
51 62 80
54 66 83
56 68 86
53 64 82
59 72 91
55 67 85
54 65 83
59 72 92
52 64 83
54 66 83
58 72 93
55 68 87
53 66 85
56 68 88
56 68 87
57 70 89
59 71 90
56 69 88
53 64 81
57 68 86
57 69 88
50 61 78
54 65 82
61 74 93
55 67 85
55 67 86
49 61 77
56 67 85
54 66 83
59 73 93
72 90 117
75 93 120
72 90 117
73 91 119
76 94 121
74 92 119
71 89 117
73 91 117
75 93 121
73 92 119
74 92 118
76 94 122
78 96 123
73 90 117
74 93 121
69 87 113
73 91 118
76 94 121
76 94 122
77 95 122
76 94 121
77 95 121
75 93 121
78 97 124
77 95 123
77 96 124
76 95 123
75 93 120
76 95 123
77 96 124
77 96 124
76 95 123
76 94 121
74 93 121
75 93 120
76 96 124
78 96 123
76 94 121
78 97 126
77 96 123
77 95 123
76 94 121
77 95 123
76 95 123
76 96 125
78 97 126
77 96 125
79 98 126
76 94 120
79 98 127
77 96 124
74 94 123
78 97 126
77 96 124
78 97 124
74 92 120
78 97 126
80 99 127
79 98 127
77 95 123
78 97 127
79 98 127
79 98 126
77 96 125
79 98 127
78 97 125
79 98 127
78 97 127
78 97 125
77 96 124
77 95 122
78 97 125
77 97 126
79 97 125
78 98 127
80 99 127
78 97 126
80 98 127
77 97 126
79 98 127
79 98 127
78 97 126
77 96 126
78 97 126
80 98 127
78 97 126
80 99 127
79 98 127
76 96 126
79 98 126
78 97 125
79 97 126
79 97 125
76 96 126
77 97 126
79 98 127
80 98 126
80 99 127
78 97 126
77 96 125
78 98 127
81 99 126
79 98 127
79 97 126
78 97 125
78 98 127
77 97 126
79 99 127
78 97 126
78 98 126
76 96 125
79 98 127
79 97 124
77 96 126
79 98 126
78 97 126
78 97 126
80 99 127
79 98 127
81 100 127
78 98 127
78 97 127
78 98 127
78 97 127
80 99 127
79 99 127
77 97 126
78 98 127
78 97 127
78 97 126
79 98 127
79 99 127
80 99 127
80 99 127
77 97 126
81 99 127
79 97 125
78 97 125
76 96 125
78 97 126
82 100 127
79 98 125
77 97 127
81 99 126
79 97 126
78 98 127
79 98 127
78 97 127
77 97 126
79 98 127
78 97 126
78 98 127
78 97 127
77 96 124
78 97 127
77 97 127
78 97 127
79 98 127
79 98 127
79 98 127
79 97 125
77 96 125
80 99 127
78 97 126
80 99 127
78 97 126
76 96 126
78 97 125
80 98 126
79 98 127
78 98 127
77 96 124
79 98 127
79 98 126
80 98 125
78 97 126
78 97 127
77 97 127
81 99 127
78 96 125
76 96 124
79 99 127
79 99 127
77 97 127
81 99 127
78 98 127
78 97 125
77 96 125
77 96 125
77 97 125
80 99 127
77 96 125
78 97 125
76 95 124
77 96 125
76 95 123
78 97 124
77 96 125
80 99 126
79 99 127
77 96 125
78 97 126
79 98 127
78 97 126
78 98 127
79 98 126
78 97 126
80 99 127
75 95 124
79 98 127
77 96 125
78 97 124
77 95 122
78 97 125
79 98 127
76 95 124
76 95 122
76 94 121
80 99 127
79 98 126
75 93 121
78 97 125
78 96 125
75 94 122
78 97 126
77 96 124
78 97 126
78 96 123
75 95 124
75 94 122
77 96 124
76 94 120
75 95 123
79 98 126
76 95 123
76 94 121
76 95 125
78 98 127
77 96 125
78 97 125
79 97 124
76 94 121
76 94 122
75 94 122
78 96 125
77 97 126
77 96 125
74 93 122
77 95 122
79 98 126
77 95 123
77 95 123
76 95 122
76 94 121
76 94 122
77 96 124
76 95 122
77 96 124
76 94 121
75 94 122
76 94 122
76 94 122
75 93 121
76 95 123
76 94 122
74 92 119
74 93 122
76 95 123
79 98 126
79 97 125
76 95 123
76 94 121
76 95 123
74 92 119
76 94 122
74 93 121
76 94 121
77 95 122
73 92 120
75 94 122
73 90 117
75 93 120
70 87 113
77 95 123
75 94 122
71 89 116
75 92 118
74 92 118
73 92 120
73 91 120
75 92 118
54 66 84
55 66 84
54 66 84
52 63 79
54 66 84
53 65 82
57 69 87
51 63 80
55 67 84
55 67 85
61 74 95
55 67 87
53 65 84
55 67 85
50 62 78
54 67 85
53 64 82
58 70 89
56 69 88
54 66 84
57 69 88
55 68 86
58 71 90
57 69 88
60 73 92
56 69 88
54 66 85
57 70 89
58 71 90
60 73 91
52 64 81
55 67 86
58 71 89
55 67 86
55 67 84
53 65 82
57 70 88
55 67 85
59 71 90
56 68 86
58 71 91
53 66 85
60 73 92
56 68 87
56 69 88
55 68 86
56 67 85
61 74 95
58 70 89
55 68 86
56 68 87
58 70 89
60 73 92
55 67 85
50 62 79
55 67 86
56 68 87
55 68 87
57 70 90
51 62 79
53 65 82
61 75 94
58 71 90
57 70 89
55 68 87
59 72 91
53 65 82
56 68 87
55 66 84
56 69 87
57 69 88
52 64 81
56 68 86
57 70 89
56 69 88
56 69 88
57 70 89
60 73 92
58 71 91
57 69 88
57 70 89
53 64 80
61 74 93
57 70 90
53 65 84
60 72 91
59 72 91
55 68 86
56 68 87
60 73 93
53 65 82
60 72 91
53 64 82
57 69 88
59 72 92
57 70 90
57 69 89
57 69 88
57 69 87
51 63 80
54 65 82
57 69 88
53 65 82
62 75 96
55 67 84
61 74 93
54 65 83
53 64 81
68 85 110
76 95 123
76 95 123
78 97 125
78 96 123
73 92 120
73 91 119
79 97 123
74 91 116
71 89 115
77 95 121
73 90 115
75 93 121
73 92 120
76 94 121
77 96 124
74 92 119
76 94 122
74 93 121
76 94 121
74 92 119
77 95 123
75 94 122
76 94 122
75 92 118
78 96 124
76 94 122
74 92 119
76 94 121
78 97 126
75 95 124
78 96 124
77 97 127
77 95 122
78 96 124
77 96 126
79 97 125
77 97 126
74 91 118
80 98 124
74 91 118
73 93 122
76 95 122
77 95 122
77 97 126
77 94 121
77 95 121
75 94 123
78 96 123
76 95 123
76 94 120
78 96 123
79 97 125
77 95 123
79 98 126
78 96 124
76 95 122
78 97 125
76 95 123
77 97 126
73 93 122
78 96 124
76 94 121
78 96 123
77 96 124
79 97 125
79 99 127
80 98 126
76 95 123
76 96 125
79 98 126
76 95 123
80 98 126
78 97 126
76 95 123
76 95 124
79 97 125
78 96 124
77 95 122
77 97 127
79 97 125
76 95 123
79 97 126
78 97 126
80 98 127
78 97 126
81 99 127
77 96 124
78 97 126
79 98 126
78 97 126
77 96 124
77 96 125
79 98 127
78 97 125
77 97 126
77 96 125
79 98 126
79 98 127
78 97 125
79 98 127
79 98 126
79 98 126
77 95 122
78 97 125
79 98 126
78 97 125
79 98 126
78 97 125
78 97 125
80 99 127
79 98 127
77 97 126
79 98 126
78 97 126
77 96 124
79 98 127
78 98 127
79 98 126
78 97 126
79 97 126
80 99 127
78 97 126
78 98 127
79 98 127
78 97 125
78 98 127
78 97 124
78 98 126
77 97 126
78 98 127
79 98 127
78 97 125
78 97 125
76 96 126
79 97 125
80 99 127
78 98 127
78 97 125
78 98 127
79 98 126
78 97 126
79 98 127
78 97 126
79 98 127
81 99 127
78 98 126
80 99 127
81 99 127
78 97 126
78 97 125
77 96 124
78 97 126
77 96 125
79 97 126
78 97 126
80 98 127
80 99 127
79 98 126
80 98 126
78 97 127
79 97 125
77 97 125
78 97 127
78 97 126
80 99 127
77 96 124
77 96 125
79 98 126
78 97 125
78 97 125
78 97 126
78 97 124
78 97 127
78 97 126
78 98 127
77 96 126
76 94 122
79 98 127
79 98 126
80 99 127
78 98 126
79 98 127
78 97 126
79 97 126
77 96 125
77 97 125
78 97 124
80 98 127
79 98 127
79 98 125
79 98 127
80 98 126
78 97 125
77 95 123
79 98 126
75 94 123
78 97 124
76 96 125
80 99 127
78 97 126
77 96 124
77 96 124
77 96 125
78 97 125
76 96 125
77 96 125
78 98 127
78 97 126
78 97 125
74 93 123
78 97 127
77 96 125
76 95 124
76 95 122
77 96 125
79 98 126
77 96 124
78 97 126
78 97 124
79 98 127
79 98 126
78 96 124
77 95 124
78 98 127
78 97 126
77 95 123
77 96 124
76 96 125
78 97 126
76 95 123
78 97 124
75 94 123
78 98 127
78 97 125
74 92 120
75 95 123
80 99 126
78 97 125
75 93 121
74 93 121
77 96 125
78 97 125
78 96 124
77 96 124
78 97 126
78 97 125
75 94 123
77 95 124
76 94 121
76 94 122
79 97 125
74 93 121
78 97 125
78 97 124
78 97 126
77 96 123
77 95 121
76 94 121
75 93 120
74 91 118
71 89 117
76 94 122
74 94 123
76 94 120
76 94 122
74 92 119
73 90 115
75 94 121
74 92 120
76 96 125
74 93 120
77 96 124
79 97 124
73 92 119
75 93 120
74 92 120
71 89 117
72 90 117
70 88 114
74 92 120
74 92 119
72 89 115
75 94 122
74 92 119
75 94 122
73 91 118
75 92 119
74 92 119
73 89 114
71 89 116
67 84 109
64 79 101
56 68 86
51 63 80
55 66 84
54 65 82
49 60 76
54 65 82
54 65 83
57 70 89
58 71 89
60 73 93
54 66 84
55 67 86
58 70 89
60 72 91
55 68 86
53 65 82
49 60 77
58 71 90
56 68 84
52 64 81
57 69 87
57 69 88
55 66 84
52 64 82
58 71 91
54 65 83
59 73 92
57 70 89
59 73 93
57 69 87
56 68 85
53 65 82
53 65 82
59 72 91
56 69 88
61 74 94
57 70 89
55 68 86
57 70 88
57 69 87
54 66 84
62 76 96
50 62 79
53 65 83
56 69 88
57 69 88
53 64 81
59 72 91
54 66 84
53 65 83
54 66 84
59 72 91
53 64 82
58 70 88
54 66 84
58 71 90
56 69 88
57 69 88
54 66 84
54 66 84
55 67 84
56 68 87
55 67 85
57 69 88
57 69 88
62 75 95
54 65 83
50 61 78
57 69 88
57 70 89
54 67 85
58 70 89
52 63 81
54 65 83
59 73 92
56 69 89
53 65 82
54 66 84
56 69 88
54 66 84
56 68 86
53 65 82
55 67 85
55 67 85
54 66 84
56 69 88
53 65 83
55 67 85
60 72 91
55 67 85
56 68 87
53 66 85
57 69 87
61 74 93
54 65 83
58 70 87
59 72 92
53 65 83
57 69 87
55 67 84
60 73 93
59 72 91
58 71 89
53 65 82
55 67 85
52 64 81
67 82 105
74 91 117
71 88 115
75 92 119
76 94 120
69 86 112
72 90 117
73 90 116
74 92 120
73 91 118
75 93 120
76 93 119
76 94 121
76 94 121
77 95 122
74 92 119
75 93 120
75 92 119
74 93 120
72 90 117
74 92 120
77 96 124
75 93 120
77 96 123
72 90 117
77 96 124
77 94 121
73 91 118
75 92 118
75 93 121
75 93 121
77 96 123
75 93 120
78 97 126
77 95 122
76 94 121
76 96 125
73 91 118
74 92 120
78 96 124
77 95 123
76 95 123
73 91 119
78 97 125
77 95 123
75 93 121
76 94 122
75 95 123
78 97 125
78 97 125
78 97 126
77 97 126
79 98 126
78 96 124
78 97 125
77 95 122
78 97 126
76 94 121
77 96 125
78 97 126
77 96 124
76 94 122
77 95 123
78 97 126
80 98 126
76 95 124
79 98 125
78 97 125
79 99 127
76 95 124
77 96 125
79 97 125
77 97 127
76 95 123
78 97 127
79 97 125
76 95 123
76 94 121
77 96 124
78 97 126
78 97 127
78 97 126
77 97 126
79 97 126
78 97 125
81 99 127
78 98 127
78 97 126
78 97 126
80 99 127
77 97 126
77 96 125
78 97 124
78 97 125
77 95 123
80 99 127
77 96 125
78 97 126
77 96 125
80 98 126
78 97 125
78 97 125
79 98 126
76 95 123
77 97 126
77 97 125
78 96 124
80 99 127
79 98 126
77 97 126
79 98 126
78 97 125
79 97 125
79 98 126
79 98 126
78 97 125
79 98 127
79 98 126
77 97 126
79 98 126
78 98 127
79 98 125
78 97 126
79 99 127
77 96 125
77 97 126
77 96 124
79 98 126
77 97 126
78 97 125
79 98 127
78 98 127
81 99 127
81 99 126
79 99 127
80 99 127
79 98 127
79 98 127
78 97 125
79 98 127
76 96 126
77 96 125
79 98 127
79 98 126
78 97 126
79 98 127
78 98 126
77 97 127
77 97 127
80 99 127
81 100 127
79 98 127
78 97 127
80 99 127
78 98 127
81 99 127
80 99 127
78 97 126
81 99 127
77 96 124
77 96 126
78 98 127
78 97 127
78 97 126
76 95 124
77 97 127
77 96 125
80 99 127
76 96 125
80 99 127
79 98 127
79 98 126
77 96 125
78 98 126
78 98 127
77 95 122
76 96 126
78 96 123
78 97 125
78 97 126
77 96 125
78 97 125
78 97 126
80 98 126
77 96 125
77 96 125
79 97 125
81 100 127
78 96 123
79 98 127
78 97 125
78 97 126
76 95 124
77 97 126
77 96 125
78 98 127
79 98 126
80 99 127
78 96 124
77 95 123
78 98 127
77 97 126
76 95 125
77 96 124
77 96 125
79 97 125
78 97 126
79 98 125
78 96 123
79 97 124
76 95 124
76 95 124
79 98 126
79 97 125
79 99 127
78 97 125
79 97 126
78 97 125
76 95 123
77 96 124
76 95 123
77 96 125
76 96 125
79 98 127
76 95 123
76 95 123
77 96 123
76 95 124
76 95 123
76 95 123
78 96 123
78 97 125
77 96 123
79 97 123
78 97 125
73 92 121
77 95 123
78 97 126
77 97 126
78 97 126
77 95 122
77 95 123
76 95 123
79 97 124
75 94 121
79 97 125
77 96 124
75 93 119
77 95 123
75 94 123
74 93 122
74 93 121
76 95 123
75 93 120
75 93 120
75 94 121
76 94 122
78 96 124
77 96 124
76 95 122
76 94 121
75 93 120
77 95 122
74 93 121
74 93 120
75 92 117
75 94 123
75 92 119
74 93 121
77 95 122
73 91 118
74 93 120
72 91 119
77 94 121
74 93 121
75 93 120
74 93 120
74 92 119
72 90 116
76 93 120
75 93 120
76 94 121
73 91 119
76 94 122
73 90 115
72 90 118
74 93 121
72 89 115
69 86 112
71 89 115
71 88 113
74 92 120
70 87 112
76 94 122
59 72 92
55 67 85
51 62 80
55 66 83
53 64 81
52 63 79
55 67 85
55 67 84
55 67 85
54 66 84
56 68 86
57 70 89
51 63 81
53 64 82
57 69 88
56 69 87
57 69 88
53 65 83
56 68 86
54 67 86
60 74 94
56 68 86
57 69 87
57 70 89
59 72 91
53 65 83
53 65 83
54 66 84
55 67 85
51 63 81
56 68 87
55 67 84
53 66 84
55 67 85
58 72 92
53 64 82
58 71 91
57 69 87
54 67 85
56 69 88
57 70 88
52 64 81
51 63 81
56 69 87
57 70 89
53 65 84
54 66 84
56 68 86
59 72 90
56 68 87
58 70 89
53 65 83
53 66 84
56 68 87
57 69 88
60 73 93
56 68 86
53 65 83
53 65 82
52 62 79
56 69 88
54 66 84
50 62 79
60 72 90
57 69 88
54 66 84
55 66 84
59 72 92
58 71 90
50 61 77
56 68 87
57 69 86
57 69 87
56 68 87
54 67 86
56 68 86
59 73 94
49 61 78
58 71 90
55 67 85
59 72 91
52 63 80
57 69 87
55 66 83
60 73 92
58 71 90
54 65 82
57 70 88
53 65 83
58 70 89
55 67 85
53 64 82
59 72 90
54 65 83
53 64 81
50 61 77
55 67 85
52 63 79
55 67 85
55 67 85
53 65 83
55 67 85
54 65 82
56 68 87
50 61 77
58 71 92
69 87 113
72 89 115
69 86 111
75 92 118
73 91 118
70 86 112
75 94 121
76 93 119
73 90 116
76 93 119
75 93 121
74 92 119
73 91 119
73 92 119
73 92 120
73 91 117
77 95 122
74 92 119
71 88 114
75 93 120
76 94 121
77 96 123
75 93 121
78 95 121
75 94 122
76 95 123
77 96 124
77 95 122
75 95 124
74 92 118
74 93 122
75 94 121
74 92 119
74 92 119
78 95 122
77 94 121
73 91 120
75 94 121
73 91 117
75 93 120
78 98 126
79 98 126
77 96 124
77 95 124
77 95 124
77 96 125
75 93 121
78 97 126
77 97 125
77 96 125
76 95 122
81 99 126
77 96 125
79 98 126
79 97 125
75 94 121
79 98 125
78 97 125
79 97 124
75 94 121
74 93 120
77 96 124
79 97 124
76 95 124
77 96 125
76 95 123
77 96 124
78 97 126
75 93 120
77 95 122
77 96 124
76 95 124
78 97 125
79 98 127
77 96 125
77 95 122
79 97 125
75 93 121
78 96 123
78 97 126
79 97 124
80 98 126
78 96 124
78 97 125
76 95 123
76 95 123
77 96 126
77 96 125
78 97 126
78 97 125
77 95 123
80 98 126
80 98 126
81 99 127
76 95 123
77 96 125
79 98 127
78 97 126
79 98 127
79 98 125
78 96 123
78 97 126
76 94 122
79 98 126
77 96 125
77 96 125
79 98 127
79 99 127
77 97 126
79 97 124
79 97 126
76 95 124
79 98 127
78 97 126
78 98 127
79 98 127
78 97 124
80 98 126
79 98 127
77 96 124
77 96 125
78 97 126
78 97 126
76 95 123
79 98 127
80 98 127
78 97 126
79 99 127
79 98 127
80 98 126
78 97 126
78 98 127
78 96 124
77 97 126
79 99 127
79 98 126
78 97 126
80 99 127
80 99 127
79 98 126
77 96 126
79 98 126
77 97 126
79 98 127
77 97 126
79 98 127
76 97 127
78 97 126
77 97 127
76 96 125
78 97 127
79 98 126
79 99 127
77 97 127
78 98 127
80 99 127
78 98 127
78 97 124
80 99 127
79 98 127
77 96 125
80 99 127
79 98 126
78 97 125
79 97 125
78 97 127
79 98 126
78 97 126
78 98 127
78 97 127
77 97 126
78 97 126
77 96 124
76 95 124
76 96 126
78 97 125
77 96 125
80 99 127
77 96 125
79 98 127
78 97 127
78 96 125
79 98 126
77 97 126
78 97 126
77 95 123
79 99 127
77 96 124
77 97 127
79 98 126
77 96 125
79 98 127
77 96 124
78 97 125
79 98 126
76 95 125
75 94 123
80 98 126
78 98 127
78 97 124
78 98 127
79 97 125
79 97 125
77 96 124
77 96 125
78 96 124
80 98 126
79 98 126
77 95 122
76 95 124
75 93 121
77 96 125
75 93 120
77 95 122
77 96 126
78 97 125
77 96 124
78 97 126
77 95 123
76 96 125
77 95 122
77 96 124
77 96 123
74 93 122
77 95 123
75 95 124
78 97 125
76 94 123
79 97 124
77 95 122
76 95 124
79 98 126
77 95 123
72 91 119
73 92 120
76 96 124
77 97 125
75 95 124
75 94 122
74 92 119
76 95 123
77 96 125
75 94 124
79 98 126
77 96 124
78 97 125
75 93 120
78 96 124
77 97 125
74 93 121
77 94 121
78 97 125
75 95 125
70 88 115
74 92 120
76 94 122
77 96 124
75 93 120
76 94 122
75 93 120
78 96 123
76 94 122
77 95 122
77 95 122
75 94 122
75 93 119
76 94 122
75 94 122
75 94 121
72 90 118
73 91 117
74 93 120
73 92 120
75 93 120
75 93 121
73 91 116
77 95 122
77 95 123
71 89 115
77 96 123
74 91 118
74 92 118
74 92 119
71 89 116
73 91 117
72 90 116
76 93 120
73 92 119
70 88 113
74 91 118
71 88 113
70 87 113
71 88 113
75 93 120
73 91 117
53 65 82
56 67 84
54 66 84
51 62 78
51 63 80
54 66 83
58 70 88
55 67 84
51 62 78
55 67 86
56 68 88
54 66 84
53 65 82
55 67 86
57 70 89
57 70 89
56 69 88
60 73 93
59 72 91
52 64 82
62 75 95
60 72 90
58 71 90
57 70 88
53 65 83
58 70 89
59 72 91
57 69 87
59 72 91
54 66 84
55 67 85
52 63 80
58 71 90
53 65 83
56 69 88
58 70 88
56 68 86
49 60 76
59 72 91
59 72 92
55 67 85
55 68 87
52 64 81
63 75 94
53 65 82
54 66 84
56 69 88
58 71 90
58 70 89
56 69 87
60 74 93
54 65 83
55 67 85
56 68 87
49 60 77
57 70 90
55 67 86
59 72 91
55 68 87
50 62 80
52 64 82
55 67 85
60 72 90
56 67 85
58 70 87
55 67 85
56 68 86
56 69 88
57 69 87
53 65 82
53 65 82
58 71 90
60 73 92
51 63 80
56 68 86
58 71 91
52 64 81
54 65 83
53 64 81
53 65 83
53 65 83
54 66 84
57 69 86
58 70 88
55 67 85
57 69 88
57 70 89
54 67 85
53 65 82
55 67 85
54 65 82
55 66 83
52 64 81
58 71 89
52 64 82
53 64 81
57 69 87
54 66 83
51 62 78
51 62 79
48 58 74
50 61 77
53 66 84
49 61 78
71 88 113
72 90 116
73 90 117
71 88 114
71 88 114
71 88 113
71 89 115
74 92 120
68 85 111
74 91 118
74 92 120
70 87 112
73 90 116
75 94 122
76 93 119
71 89 114
72 90 118
74 92 118
70 88 115
73 91 118
74 91 117
74 92 119
76 94 121
78 97 125
76 95 123
75 94 122
76 96 125
78 96 122
74 92 118
75 94 123
74 92 118
77 95 121
78 97 125
76 94 123
75 93 121
73 90 117
75 93 119
73 91 118
77 96 125
78 97 124
75 93 119
76 94 122
75 95 123
75 94 122
71 88 114
77 95 123
78 97 126
75 94 123
76 95 124
74 92 119
77 96 124
79 98 125
76 94 121
76 95 123
77 96 124
76 94 121
77 96 124
76 95 123
76 95 123
77 96 124
78 97 124
80 98 125
76 94 121
77 95 123
76 95 123
77 95 123
78 97 125
79 97 125
77 95 122
76 94 122
75 94 123
77 95 123
76 95 123
77 95 123
77 96 123
80 98 126
79 98 127
77 96 124
79 98 127
78 97 126
77 97 127
77 97 125
79 97 124
77 96 124
77 96 124
78 97 125
79 97 124
77 96 123
79 98 127
78 98 127
78 97 126
78 97 125
76 95 124
78 97 125
79 98 125
80 99 127
79 97 124
80 99 127
78 97 125
80 99 127
76 94 122
79 97 125
80 98 127
77 96 125
78 97 126
76 95 123
80 99 127
79 98 125
77 96 126
78 97 126
77 96 124
79 98 126
78 98 127
80 98 126
78 98 127
78 97 125
78 97 126
79 99 127
77 96 123
78 97 126
79 97 125
80 98 126
79 98 127
78 97 124
78 97 126
79 97 125
76 95 125
75 94 123
78 97 127
78 96 124
78 97 125
77 96 124
77 97 127
80 99 127
79 98 127
77 96 125
79 98 127
79 98 127
78 97 127
79 98 127
79 97 124
79 98 126
79 98 127
78 97 126
78 97 127
80 99 127
80 99 127
79 98 126
80 99 127
79 98 127
79 98 126
78 97 126
78 98 127
81 99 126
77 96 126
79 98 126
78 97 126
77 97 127
77 96 125
76 95 125
79 98 127
78 97 127
76 96 125
79 98 126
77 97 126
77 96 124
81 99 125
81 99 127
78 98 127
78 97 125
78 97 127
79 98 126
81 99 127
79 97 126
78 97 125
77 97 127
78 98 127
78 96 123
76 95 123
80 98 127
78 97 125
79 98 127
76 96 126
79 99 127
80 99 127
80 99 127
77 96 125
78 97 126
77 97 126
77 97 126
78 97 125
77 96 125
80 98 125
80 99 127
79 98 126
80 99 127
80 99 127
77 96 124
79 98 125
77 96 124
77 96 125
76 95 124
76 95 122
78 97 125
75 94 123
77 96 123
77 96 124
81 100 127
78 97 124
76 96 125
76 95 123
78 97 125
78 97 125
79 98 126
80 99 127
74 94 123
76 95 124
78 97 125
77 96 124
77 96 124
78 97 126
77 96 124
77 96 124
79 98 126
78 96 123
79 97 123
77 96 124
75 94 122
76 94 120
78 96 122
75 93 121
78 96 124
78 96 124
75 95 124
77 96 124
78 96 125
79 97 124
77 96 123
78 97 125
75 93 121
80 98 126
75 93 121
75 93 121
75 93 121
76 95 123
76 95 123
75 93 120
77 96 123
75 93 121
75 93 121
76 95 124
80 99 127
78 96 124
74 93 121
74 93 122
74 92 120
77 96 124
76 94 121
74 92 120
76 94 122
76 94 120
74 93 120
77 95 123
73 92 119
77 95 122
75 93 121
77 96 124
78 95 122
73 91 119
73 91 118
73 91 117
73 92 119
76 94 120
75 93 119
76 95 122
74 92 117
77 95 122
74 92 120
74 92 118
73 90 117
72 89 115
72 90 117
71 88 114
75 93 119
71 87 112
74 92 119
69 86 111
75 93 120
68 84 109
69 85 111
71 88 114
75 92 119
74 92 119
72 89 114
70 86 111
69 86 111
63 78 100
53 65 82
55 67 85
56 68 85
58 70 89
50 61 78
54 67 85
55 66 83
57 69 87
54 66 84
61 73 93
55 67 85
59 72 91
54 65 83
52 63 80
51 62 79
56 68 86
51 63 80
57 69 88
55 67 85
54 66 85
51 63 80
56 68 87
57 68 86
57 69 88
55 67 85
55 67 84
52 63 81
59 72 91
56 69 87
55 67 85
55 67 85
57 69 88
55 68 86
53 66 84
57 70 88
55 67 86
56 68 85
56 69 88
57 69 86
55 67 85
56 69 87
60 73 92
49 60 76
54 65 82
54 66 85
52 63 80
51 62 79
54 65 83
58 71 89
55 68 87
55 68 87
54 65 82
55 68 86
52 64 82
57 70 89
57 69 88
55 67 85
55 67 84
58 70 89
55 67 84
54 66 84
55 67 85
51 62 80
49 60 77
55 67 85
54 65 82
53 65 82
56 68 86
59 71 90
56 68 87
50 61 77
55 66 83
54 66 84
53 65 84
56 69 89
55 66 84
58 70 89
58 70 88
53 65 82
56 69 88
54 66 84
56 68 86
55 67 85
59 71 89
57 70 89
53 65 82
52 64 80
55 67 84
50 62 78
57 70 89
53 65 83
52 64 81
55 67 85
53 64 81
51 62 79
51 62 78
54 66 83
54 66 84
51 61 77
60 72 90
50 61 78
51 63 79
68 84 108
72 89 114
74 92 119
73 90 116
74 92 120
68 84 108
74 92 118
71 89 116
71 88 114
73 90 117
71 88 114
73 92 119
75 93 120
67 83 107
71 89 114
76 94 121
74 92 120
71 89 117
72 90 116
73 91 119
71 88 114
74 92 120
75 93 119
72 89 113
73 91 118
73 90 116
74 92 119
75 93 120
71 89 114
73 92 119
76 94 121
76 94 122
75 92 119
76 95 124
76 95 124
74 92 120
76 95 123
77 96 124
76 95 124
75 93 121
77 96 124
78 97 124
77 96 124
74 93 122
76 94 121
76 94 121
77 95 122
75 94 122
79 97 124
74 94 122
77 96 125
75 94 121
76 95 124
76 94 122
78 97 126
74 93 122
77 96 124
80 99 127
74 93 120
74 94 123
75 93 119
78 96 124
77 95 123
74 92 119
75 94 122
77 95 122
78 97 126
77 96 123
79 97 125
74 93 121
76 94 122
78 97 125
76 95 123
79 98 126
79 97 124
77 95 123
78 97 125
78 96 123
77 96 125
77 97 126
77 97 126
77 95 123
78 97 125
77 96 124
76 94 121
79 98 126
78 97 126
80 99 127
78 98 127
77 96 124
77 95 123
76 94 122
77 95 123
77 95 123
75 93 120
78 98 126
78 97 126
77 96 123
77 96 124
77 96 124
78 98 127
79 98 127
76 94 122
77 96 125
79 98 126
76 96 125
79 97 125
78 96 125
76 95 123
75 95 123
74 94 124
79 98 126
77 96 124
78 98 127
78 97 127
77 95 123
78 97 126
78 97 125
77 97 127
79 98 127
77 96 125
79 98 127
78 97 127
79 98 127
79 98 126
80 98 127
79 98 127
80 99 127
80 99 127
77 97 127
79 98 127
78 97 126
80 99 127
78 97 125
77 97 127
81 99 127
79 98 126
79 98 126
78 98 126
79 98 126
76 96 126
78 97 126
78 96 124
78 97 126
78 96 124
78 97 125
79 99 127
79 98 126
80 99 127
76 95 123
77 96 125
78 97 127
78 97 127
78 97 126
77 96 125
78 97 126
78 97 124
78 97 127
77 96 125
80 99 127
78 97 125
79 98 126
78 98 127
79 98 127
78 97 125
79 98 126
78 97 125
77 96 124
79 97 125
78 96 124
78 96 124
78 97 126
75 94 123
79 97 125
78 97 126
76 96 125
78 97 126
75 95 124
78 97 126
78 97 125
75 95 124
77 97 126
78 97 126
76 95 124
79 98 127
77 97 126
76 95 123
79 98 126
77 97 127
79 97 125
79 98 127
77 96 125
78 97 126
74 93 122
77 96 125
77 95 123
79 98 126
77 96 125
76 95 125
76 94 122
78 97 125
77 95 124
76 95 123
78 97 126
78 97 127
76 95 123
76 95 123
77 95 122
78 96 123
77 96 125
76 95 122
80 98 126
77 96 125
77 95 124
76 95 123
78 97 126
77 97 126
77 95 124
76 95 124
79 98 126
79 98 126
77 95 123
78 96 125
78 97 125
77 96 124
74 93 122
77 95 122
73 91 119
75 92 118
77 96 125
76 95 124
76 94 120
77 96 124
75 94 122
77 96 123
77 97 126
76 96 125
75 92 119
77 95 122
76 94 122
76 95 124
76 94 121
76 94 120
76 94 122
74 92 118
78 96 123
72 91 119
75 93 120
76 94 122
72 90 117
77 95 123
77 95 122
77 95 122
77 94 121
73 91 118
75 94 121
78 97 125
74 93 121
75 93 120
75 93 121
76 96 125
77 96 125
74 92 120
75 94 122
75 93 120
73 90 116
73 91 119
72 89 115
74 91 117
74 92 121
72 90 116
74 91 116
76 94 122
77 95 122
76 94 120
72 89 115
72 89 115
73 91 117
75 93 120
75 93 121
72 91 118
72 91 118
74 90 115
73 90 116
75 93 120
71 89 115
72 90 118
71 89 115
74 92 119
74 92 119
73 90 116
73 89 114
68 85 110
71 88 114
72 89 115
74 90 114
75 92 117
72 88 112
64 79 101
49 59 75
51 61 76
58 71 90
49 60 76
56 67 84
54 66 83
54 66 84
56 68 86
56 67 85
53 65 83
52 64 81
59 72 92
53 66 84
55 67 84
54 66 83
55 67 85
57 70 88
54 66 83
52 63 81
56 68 87
53 65 83
54 66 84
57 69 87
56 69 88
57 69 87
56 68 86
58 71 89
52 63 80
51 62 79
57 70 89
49 60 77
56 68 86
50 61 78
53 64 82
58 70 89
56 68 86
57 69 87
52 63 80
49 59 75
52 64 82
49 60 77
55 68 87
55 67 85
58 70 89
51 63 81
58 70 88
55 68 86
56 68 85
53 64 82
58 71 90
62 74 93
57 70 89
55 67 85
53 64 82
54 65 83
57 69 88
54 66 84
55 67 85
55 68 86
57 70 88
52 63 80
56 69 88
58 69 87
53 65 83
50 61 78
54 66 83
51 62 78
56 68 85
56 68 85
53 65 83
59 71 91
53 65 83
62 75 95
54 66 85
48 60 77
57 70 88
54 66 84
55 67 86
57 69 88
50 61 77
52 64 82
54 65 82
52 63 80
51 63 80
52 64 81
55 68 87
52 64 81
57 69 86
53 65 82
55 67 84
53 64 82
52 63 80
57 69 87
52 63 81
53 65 82
49 60 76
49 60 76
53 65 82
54 65 82
56 69 87
65 81 104
67 83 108
71 87 110
67 83 108
69 86 112
72 90 116
72 90 118
73 90 116
71 89 115
74 92 120
75 93 120
72 89 116
73 91 118
73 91 118
74 92 119
74 93 120
71 89 115
73 90 116
74 91 116
76 94 120
74 92 118
73 90 117
74 92 119
77 96 123
74 92 118
74 91 117
72 89 116
72 91 119
74 93 120
72 90 116
74 91 117
74 91 117
76 94 121
77 95 122
75 93 120
76 95 123
72 91 118
74 93 120
73 91 118
75 93 121
73 92 120
76 94 121
77 95 122
75 92 118
78 97 125
75 94 121
75 93 121
76 95 123
76 95 123
73 92 120
75 94 121
77 96 124
74 93 120
78 97 125
75 94 122
74 93 121
77 95 123
75 94 122
77 96 124
76 94 121
78 97 125
80 99 127
75 93 121
74 92 120
76 95 122
75 94 122
79 97 125
73 91 118
75 94 123
78 96 123
76 95 124
78 97 125
78 96 123
78 97 125
76 94 122
78 96 124
78 96 124
78 97 126
77 96 124
79 98 126
77 96 125
77 96 125
78 97 125
76 96 125
76 96 126
77 96 124
76 95 123
79 97 125
77 96 125
80 98 125
77 96 124
78 97 126
77 95 123
77 95 122
77 95 123
78 98 127
77 96 125
78 96 124
76 95 123
78 97 126
79 98 126
77 97 126
77 97 125
80 98 127
78 97 126
76 95 123
77 96 125
78 97 125
79 98 127
78 97 126
77 97 126
75 94 122
80 99 127
77 96 125
79 98 127
79 98 126
77 95 124
76 95 124
79 98 127
78 97 126
78 97 126
78 97 124
79 98 126
78 97 127
81 99 126
79 98 127
77 96 125
78 96 124
78 97 125
79 98 127
76 95 125
77 96 124
77 97 126
79 98 126
78 98 127
80 99 127
78 97 125
77 97 127
77 97 127
76 96 125
78 96 124
76 96 126
80 98 127
80 98 126
79 98 126
76 95 125
81 99 127
77 96 124
80 99 127
80 99 127
79 98 127
78 97 126
79 98 126
80 98 125
80 98 127
78 97 126
80 98 126
79 98 127
76 95 124
76 95 123
78 96 124
77 97 127
76 96 126
80 98 126
78 97 124
77 97 127
79 98 127
79 98 126
79 98 127
77 96 125
78 98 127
79 98 126
77 96 125
78 97 125
77 96 126
79 98 127
76 95 124
79 98 126
80 99 127
77 96 125
78 97 126
78 97 125
79 98 127
78 97 125
77 96 125
79 98 127
77 96 125
78 97 125
76 94 123
78 97 126
78 97 125
78 97 126
78 97 126
77 96 124
80 99 126
79 98 126
76 96 125
79 98 127
76 94 122
79 98 126
79 98 126
78 97 126
77 97 127
78 96 125
78 96 123
77 96 125
78 97 125
77 96 125
79 98 126
80 99 127
76 96 124
76 96 126
79 98 127
77 96 124
76 95 123
79 98 126
75 94 122
76 94 121
78 97 125
76 95 124
75 95 124
77 96 125
76 95 122
78 97 125
78 96 124
77 96 123
77 96 125
78 97 126
77 96 125
75 94 122
77 96 124
76 95 123
75 94 122
73 91 118
79 96 123
77 97 126
75 94 123
76 95 123
76 95 123
77 96 124
76 95 125
76 94 121
78 96 123
76 95 123
76 94 122
77 95 122
72 90 116
77 96 124
77 96 124
77 95 123
75 93 120
74 92 118
76 94 121
75 93 120
74 92 119
74 92 120
77 95 123
77 95 121
73 92 120
74 92 120
75 94 121
77 95 122
78 97 125
77 95 122
74 92 120
71 90 117
71 89 115
74 93 121
73 91 117
73 91 118
70 87 112
71 88 115
72 91 119
77 95 121
76 93 120
72 90 117
73 91 118
73 91 119
73 91 117
72 89 115
72 90 117
75 93 121
74 92 119
69 86 113
74 91 118
71 89 115
73 89 114
70 86 111
72 89 114
66 82 107
72 89 115
71 87 111
71 87 112
68 85 110
71 89 115
68 85 109
73 90 117
74 91 117
67 83 108
70 86 110
61 74 95
51 63 80
52 63 79
52 64 81
56 68 86
58 70 88
50 61 77
46 57 72
53 65 82
51 62 79
53 64 82
57 69 88
55 67 84
55 67 86
55 67 85
58 71 89
51 62 79
56 68 86
55 67 85
51 62 80
55 68 87
55 67 86
53 66 84
54 65 81
54 66 84
52 63 79
51 62 79
51 62 78
51 62 79
59 72 92
56 68 87
58 71 90
49 60 75
58 71 90
57 68 86
55 67 85
52 63 80
50 61 78
56 68 86
51 63 81
56 69 88
56 68 86
55 66 84
53 64 81
58 70 89
56 68 86
50 62 80
54 65 83
55 67 85
54 66 84
54 65 83
52 64 82
50 61 76
52 64 81
51 63 80
52 63 79
57 70 89
59 72 92
52 64 81
55 68 86
53 64 81
57 69 88
56 67 84
53 65 82
55 67 85
53 65 82
54 67 85
55 67 86
60 72 91
57 69 87
56 68 87
55 66 84
52 64 82
57 69 87
53 64 81
51 62 79
53 64 81
54 66 83
53 65 82
51 63 80
53 64 81
57 70 89
57 68 85
59 71 89
53 66 84
48 59 76
57 69 88
52 63 80
54 65 82
48 59 76
56 67 85
51 62 78
53 64 81
53 64 81
49 59 75
48 59 75
50 61 78
56 69 87
57 69 88
59 73 94
72 89 116
68 85 111
69 85 109
71 88 114
72 89 115
69 86 111
67 83 106
73 89 114
71 89 116
70 86 112
71 88 113
72 90 116
71 88 115
71 88 114
73 92 119
72 90 117
69 86 111
73 90 117
70 86 111
72 91 118
75 93 121
76 95 123
71 88 113
70 87 111
73 91 118
76 94 122
76 94 121
70 87 113
77 96 123
72 89 114
75 93 119
74 94 122
73 91 119
77 96 124
76 94 122
74 93 121
76 94 122
74 92 119
75 92 118
75 93 121
76 95 123
76 95 123
75 93 121
74 92 120
74 92 120
77 96 125
74 92 120
78 97 127
75 93 120
72 90 117
75 94 123
73 92 119
76 94 121
79 97 125
75 92 119
77 95 122
77 96 124
77 96 123
78 96 125
75 94 123
76 96 125
73 91 118
72 90 115
75 94 121
75 93 120
76 95 123
78 96 124
74 92 119
76 95 124
77 96 124
74 91 117
79 97 125
76 93 120
77 94 121
75 93 119
78 96 123
75 93 120
76 95 123
77 96 125
78 97 125
77 95 122
79 98 127
77 97 126
73 92 121
75 94 122
79 97 124
80 99 127
77 96 124
81 99 127
77 96 124
77 96 124
77 97 126
76 95 122
78 97 127
77 95 122
79 98 126
77 96 125
75 95 124
77 96 124
78 97 125
78 97 126
78 97 125
76 95 123
77 96 124
78 96 124
78 97 125
78 97 126
76 95 122
78 97 124
77 97 126
79 97 126
78 97 126
79 98 126
76 95 123
77 96 124
78 97 124
78 98 127
79 98 127
79 98 127
77 96 125
78 97 127
79 98 126
78 97 125
77 96 125
78 96 125
80 98 127
80 98 126
78 97 127
77 97 126
77 96 125
76 95 124
79 98 126
79 98 126
81 99 127
78 97 124
79 98 126
79 98 127
78 97 126
78 97 125
77 96 123
80 99 127
79 97 125
78 96 125
79 99 127
77 97 126
79 98 126
79 98 127
77 96 125
80 99 127
78 97 126
80 99 127
78 97 125
79 98 127
79 97 126
80 98 126
78 97 125
77 97 126
79 98 127
78 97 126
80 99 127
79 98 126
78 96 124
78 97 126
79 98 127
79 98 127
77 96 125
79 98 127
79 97 125
80 98 127
80 98 124
79 98 126
79 98 127
77 95 123
80 99 127
79 98 127
78 97 125
78 97 125
78 97 127
76 95 124
78 98 127
80 98 124
76 96 125
77 96 126
80 98 127
77 96 124
78 97 125
79 97 125
77 96 125
77 96 125
76 95 123
77 97 126
76 94 122
76 95 122
80 99 127
79 97 126
79 98 125
79 97 125
77 96 123
78 97 125
80 98 126
78 97 125
76 94 122
77 95 123
78 96 122
79 98 126
77 97 125
75 94 122
79 98 127
79 98 127
79 98 127
77 95 123
77 95 124
77 96 124
77 96 125
78 97 124
77 96 124
79 98 127
76 94 122
79 97 125
77 95 123
76 94 122
79 98 127
76 94 121
76 95 124
75 93 121
78 97 127
80 98 126
79 97 125
77 97 126
77 96 124
74 93 121
76 96 126
77 96 124
79 98 126
76 95 123
73 92 119
76 95 123
75 94 122
78 96 124
76 94 121
75 93 120
75 94 122
76 95 122
78 97 126
75 94 121
73 92 121
76 95 123
75 94 121
72 90 117
73 91 118
76 95 123
75 93 120
74 93 121
75 93 121
77 95 123
73 91 119
74 92 118
73 92 119
76 95 123
73 91 118
78 96 124
73 90 115
72 90 116
70 87 113
76 95 122
73 90 117
76 94 121
72 89 114
74 92 119
75 93 120
72 89 116
72 90 118
72 89 115
73 90 116
75 94 122
73 91 118
71 89 117
73 91 117
74 92 118
72 90 116
68 84 109
69 85 109
70 86 111
71 88 114
72 88 112
75 92 119
73 90 116
72 90 116
71 89 115
71 88 114
74 91 117
71 87 111
70 87 112
71 89 116
71 89 115
69 86 110
70 86 111
69 86 111
67 82 106
67 84 109
68 83 106
56 69 89
54 66 83
55 67 85
52 62 78
53 65 84
49 60 76
51 62 79
51 62 79
53 64 81
63 76 95
53 65 82
55 67 85
50 61 77
53 65 83
53 65 82
54 65 83
49 60 77
52 63 80
51 63 81
50 61 78
50 61 79
56 69 87
56 68 86
53 65 82
50 61 77
54 66 84
58 70 88
53 64 81
55 67 86
58 70 89
52 63 80
53 65 82
54 66 84
52 63 80
55 66 83
53 64 80
55 67 85
52 64 81
52 63 81
52 64 81
50 61 78
49 60 77
53 65 83
54 66 84
58 71 90
50 62 79
55 67 85
54 65 83
50 62 79
54 66 84
57 69 87
53 64 82
55 66 83
55 68 86
50 61 78
52 63 79
57 69 87
52 64 81
53 65 83
55 68 87
54 66 83
59 71 89
53 64 82
57 70 89
47 57 73
55 67 84
60 72 90
54 66 84
58 70 88
57 70 88
58 70 89
53 65 82
53 65 84
54 66 83
54 66 84
52 64 81
55 66 83
52 64 82
54 66 83
52 63 80
55 67 85
57 69 88
50 61 77
51 61 77
56 68 86
60 73 92
53 65 82
51 62 79
54 66 83
53 65 83
54 66 84
54 66 83
56 67 85
52 63 79
48 59 74
55 67 85
51 61 77
59 71 91
66 82 106
67 83 108
68 85 110
73 90 115
70 87 114
71 88 112
69 85 109
71 87 111
68 85 110
68 84 108
73 92 119
72 90 116
72 89 115
74 92 119
71 87 112
70 86 111
68 84 108
77 95 122
71 88 114
72 89 115
68 85 111
72 89 116
72 89 116
76 94 121
72 90 117
70 87 113
73 91 119
76 94 121
73 92 119
76 93 120
76 95 122
73 91 119
73 92 119
77 95 123
73 90 116
74 92 120
70 88 115
75 92 119
73 91 118
75 94 122
73 92 120
74 92 119
73 91 118
74 92 117
76 94 120
74 92 119
77 96 124
74 92 120
73 92 120
75 93 120
77 95 122
75 94 123
76 94 121
76 95 123
77 96 125
76 95 122
77 94 120
77 96 124
77 95 121
75 94 123
76 94 121
77 96 123
72 91 120
76 94 122
77 95 122
76 95 124
76 94 122
77 96 124
78 96 123
75 94 122
76 95 123
75 94 123
77 96 124
75 95 124
74 93 121
77 96 123
76 94 121
78 97 126
78 95 121
78 97 126
77 94 121
76 94 122
78 96 123
78 96 124
75 95 124
77 95 123
76 95 122
79 96 123
75 94 123
79 96 122
76 95 123
73 91 118
78 96 124
77 96 125
76 95 122
78 97 125
79 99 127
80 99 127
78 97 125
77 95 123
79 98 127
79 97 125
78 96 124
78 98 127
76 95 124
79 98 126
78 97 125
79 97 125
79 98 127
80 98 126
79 98 127
77 96 125
77 96 125
78 98 127
78 97 126
81 99 127
78 97 126
79 98 125
77 96 124
79 98 126
77 96 125
79 98 127
78 98 127
78 97 126
79 98 127
78 97 126
77 96 125
78 97 125
75 94 122
79 98 126
76 94 121
79 97 125
78 96 125
78 96 125
79 98 126
80 98 127
79 98 126
79 98 127
78 97 127
78 97 126
77 96 124
78 97 125
77 96 126
79 98 126
79 98 127
79 98 127
78 98 127
77 96 125
79 99 127
78 97 126
78 97 126
78 98 127
79 97 126
77 97 126
80 99 127
77 97 125
78 97 125
77 95 123
78 98 127
78 96 124
79 98 126
76 96 125
79 97 125
80 98 126
79 98 126
78 98 127
77 96 125
77 96 125
79 98 126
76 95 123
78 96 124
78 97 127
77 96 125
79 98 127
77 96 124
79 98 127
77 96 124
79 98 126
78 97 125
77 95 124
76 96 124
78 97 124
79 98 127
75 95 123
78 96 123
78 97 127
76 95 123
78 97 127
78 97 127
75 93 121
76 95 124
79 98 126
77 96 125
78 97 126
78 98 126
76 95 124
77 97 126
78 97 125
78 97 125
78 97 126
75 94 124
79 97 125
76 95 124
79 97 126
76 95 124
76 94 121
77 96 123
79 98 126
78 97 125
74 93 121
79 98 127
77 96 124
78 97 125
78 96 124
78 97 125
76 95 123
78 98 127
80 98 125
77 97 126
76 96 125
76 95 123
76 95 124
77 96 123
75 93 119
77 95 122
77 95 122
78 97 125
77 95 123
75 94 121
77 96 124
72 91 119
76 95 123
77 95 121
79 97 125
75 95 124
76 94 121
77 96 124
74 92 119
76 93 120
77 94 121
79 97 125
77 97 126
77 96 124
74 91 117
73 91 119
77 96 124
76 94 121
74 94 123
72 90 117
76 95 123
77 95 123
76 94 121
77 95 124
77 96 125
76 94 121
73 91 119
75 93 121
73 92 119
73 91 117
75 95 125
73 91 119
76 95 123
74 93 122
75 93 120
74 94 122
76 94 122
74 91 117
72 89 116
73 91 118
73 92 120
75 92 119
71 90 118
70 88 115
71 90 117
75 92 118
71 88 113
75 92 117
71 89 116
74 91 117
72 90 116
68 85 111
73 90 115
71 89 116
71 89 115
73 91 117
75 93 119
68 85 110
71 87 111
74 91 116
73 91 118
71 87 111
71 87 110
68 85 110
71 88 115
72 89 114
70 86 110
64 80 104
70 88 114
69 86 110
69 85 108
68 84 109
72 89 113
71 87 110
56 69 88
53 64 81
50 60 76
49 60 75
54 66 84
51 62 78
48 57 72
59 71 90
56 67 85
51 61 77
54 66 83
53 65 84
53 64 82
58 70 88
50 61 79
55 66 83
58 71 89
48 59 74
58 70 89
56 67 85
54 66 82
51 62 79
49 60 77
50 61 78
53 65 82
52 64 81
49 61 78
54 66 85
53 65 84
56 69 87
52 64 81
58 70 88
50 61 78
55 67 85
60 73 92
54 65 83
51 63 81
56 68 85
52 64 81
49 60 78
53 65 84
51 62 79
55 67 86
53 64 80
55 67 86
52 63 80
59 72 91
49 61 78
57 68 86
54 67 85
58 70 88
55 68 86
53 65 82
55 68 87
56 68 86
55 67 85
53 65 82
51 63 81
55 66 84
56 67 84
52 63 79
55 67 84
56 68 87
56 68 86
50 61 77
53 65 84
52 63 80
54 67 85
54 66 85
58 71 90
52 63 79
65 79 100
56 68 86
52 63 80
49 60 77
52 63 80
52 63 79
55 66 84
55 67 85
55 67 85
51 62 80
54 67 85
49 60 78
49 60 76
54 66 83
56 68 86
49 60 76
54 66 84
52 63 80
55 67 85
50 60 76
53 64 81
57 69 87
56 67 85
50 61 78
57 70 89
69 85 110
68 83 107
72 89 114
71 87 111
69 86 110
71 88 113
73 90 115
73 90 116
76 93 119
72 89 115
67 84 108
72 89 115
69 85 110
72 90 117
72 91 118
69 86 112
75 94 121
71 88 113
69 87 114
75 93 119
72 91 119
75 93 121
73 90 115
73 90 116
75 94 123
71 88 114
73 91 119
74 92 119
72 89 115
74 92 119
73 91 117
74 93 120
74 92 119
76 95 123
71 89 116
74 91 117
73 92 119
73 91 118
75 93 120
72 90 117
77 96 125
76 94 122
77 96 124
71 89 116
75 94 121
75 94 122
74 92 118
75 93 121
75 94 123
75 93 121
76 95 123
75 93 120
70 88 114
78 97 125
75 94 123
71 90 117
76 94 120
75 95 124
72 90 117
77 94 121
75 92 119
75 93 119
78 96 123
76 95 123
78 97 125
79 97 124
76 95 122
75 94 122
79 97 124
77 95 123
75 94 121
76 95 124
74 93 120
77 95 122
76 94 121
76 95 124
76 94 121
77 96 124
70 87 113
78 97 124
77 96 125
76 95 123
78 97 125
78 97 126
79 98 127
79 97 123
78 97 126
79 98 127
75 94 123
76 95 123
77 96 124
78 97 126
78 98 127
77 95 124
78 97 126
77 95 123
76 94 121
78 97 126
75 94 122
76 95 124
79 97 126
78 97 126
77 96 124
78 97 125
79 98 127
75 93 121
78 97 125
76 95 124
78 97 125
76 95 125
80 98 126
78 97 126
77 96 125
76 96 125
80 99 126
74 93 122
79 97 125
76 95 124
79 98 127
75 93 120
77 97 126
78 97 126
77 96 124
77 97 126
77 95 123
77 95 123
78 97 125
78 97 125
79 98 127
76 95 125
77 96 125
80 99 127
78 97 125
79 98 126
77 97 127
78 97 127
79 97 125
77 97 127
77 96 125
80 99 127
77 96 125
78 96 125
78 97 124
77 96 125
79 97 126
79 98 127
79 98 127
78 97 125
80 99 127
78 97 126
79 98 127
79 98 127
80 98 127
79 98 126
81 99 126
81 99 127
77 96 123
77 97 126
79 98 127
78 97 124
79 98 127
79 98 127
78 97 126
77 96 125
77 97 126
76 95 122
77 96 124
79 98 127
79 98 127
78 97 126
76 95 123
77 96 125
78 97 125
76 96 125
79 97 126
76 95 123
78 97 126
77 96 124
80 99 127
78 96 123
78 97 127
78 98 127
78 98 126
79 98 126
77 96 126
80 98 126
77 96 126
80 99 127
78 97 125
79 97 124
78 97 126
78 97 125
74 93 121
77 96 125
78 97 125
76 95 123
76 95 123
74 93 121
79 98 127
77 95 123
77 97 126
77 96 125
78 98 127
77 96 124
74 93 122
78 96 123
78 97 125
77 95 124
77 97 125
78 97 126
78 96 124
77 96 124
75 94 122
79 97 126
78 96 123
78 97 126
79 97 125
80 98 126
78 97 124
75 93 121
76 94 121
76 95 122
78 97 126
79 97 125
76 94 122
74 93 120
77 96 123
79 97 124
77 96 126
75 94 121
78 97 125
77 96 124
75 94 122
76 94 121
77 96 124
76 95 124
81 98 125
77 96 124
75 93 121
77 96 125
77 96 124
77 96 125
78 96 123
76 95 122
77 96 124
78 96 124
76 93 120
72 91 118
77 96 124
73 92 120
75 94 121
73 91 118
77 96 126
75 93 120
75 92 119
74 93 120
75 92 119
75 92 119
74 92 119
78 96 122
73 91 118
74 91 118
75 92 119
79 96 123
75 93 120
72 91 118
74 92 118
75 93 120
73 91 117
70 87 113
74 93 120
71 89 115
73 92 119
74 91 116
70 87 114
72 90 117
71 87 111
70 87 113
68 85 111
69 87 113
71 89 115
73 91 119
71 88 112
72 89 113
65 80 104
73 91 119
69 86 111
77 94 120
72 89 115
69 87 113
71 88 113
70 87 112
74 91 117
67 83 107
69 86 112
69 86 112
72 87 111
68 85 111
69 85 109
73 90 114
65 80 103
66 81 103
67 81 104
67 83 107
68 84 108
57 70 88
53 64 82
51 63 80
56 68 85
53 64 80
51 62 79
58 70 88
49 60 77
53 64 81
51 62 78
49 59 75
51 62 79
52 63 78
52 64 81
50 60 76
50 61 78
53 65 83
55 67 84
53 65 82
57 69 87
55 67 84
57 69 87
52 64 83
54 65 83
55 68 86
50 61 78
53 65 82
54 66 83
53 65 83
53 64 81
59 72 91
58 70 89
55 67 84
55 66 84
50 62 78
55 66 84
56 69 88
57 70 90
56 68 86
53 64 81
56 68 86
52 63 80
52 63 80
53 65 82
53 64 81
55 67 85
54 66 85
50 61 78
53 65 82
51 62 78
56 68 86
50 61 78
54 65 82
52 63 80
52 63 80
51 63 80
49 60 76
54 66 84
53 65 82
51 62 79
54 66 84
51 63 80
52 63 81
54 66 83
57 69 88
57 68 85
52 64 81
55 66 82
59 73 92
56 68 85
53 65 82
53 65 84
54 65 82
57 70 88
55 67 85
57 69 87
55 67 85
54 65 83
59 71 89
55 67 86
54 65 81
50 61 77
50 61 77
53 65 82
53 66 84
50 61 78
54 66 84
53 64 81
53 64 81
48 58 74
54 65 82
51 62 79
49 59 74
54 66 84
66 82 106
68 84 109
69 85 109
73 90 116
66 81 105
66 82 106
71 87 111
66 83 107
67 83 108
73 90 116
73 90 116
71 87 112
74 91 116
65 81 105
69 86 111
74 91 117
69 85 110
69 85 109
74 92 119
71 89 115
71 89 115
71 88 114
73 91 117
73 90 117
70 87 112
73 90 115
76 94 121
75 92 117
76 93 120
68 85 110
73 91 117
73 91 118
76 94 122
74 92 120
72 89 116
70 87 113
73 91 116
77 95 122
74 92 120
73 91 116
80 98 125
74 91 117
75 93 121
75 93 118
76 93 120
75 93 120
76 96 125
75 92 118
75 94 122
76 94 122
74 93 120
74 90 116
77 95 123
77 95 122
72 91 118
76 93 118
78 96 123
73 91 119
75 94 122
74 91 118
74 92 119
77 96 124
76 95 123
75 94 122
76 94 121
75 93 121
76 95 123
76 95 123
75 93 121
76 95 123
77 96 125
75 94 122
78 97 124
76 94 121
74 92 120
76 94 122
76 95 123
74 94 123
76 95 123
74 92 119
74 93 121
78 97 126
76 95 123
74 93 121
74 93 122
77 96 124
76 95 123
76 95 123
75 93 120
77 95 123
78 97 125
75 94 122
77 95 123
79 97 124
76 94 122
79 98 126
77 96 124
76 95 123
78 96 123
77 96 125
77 95 123
76 96 124
78 98 127
77 96 125
75 95 123
77 95 122
76 95 124
76 94 122
76 95 123
78 97 126
79 97 126
75 94 122
79 98 125
78 97 125
77 96 124
78 97 124
78 97 126
76 96 125
78 98 126
79 98 127
77 96 126
78 97 126
81 100 127
77 96 125
78 96 124
78 97 126
79 98 127
78 97 126
78 97 125
77 96 124
78 97 125
80 99 127
79 97 125
78 97 126
77 96 125
77 96 125
78 98 127
80 98 126
80 99 127
78 97 126
77 97 126
78 97 125
78 97 125
78 97 127
78 97 126
78 97 126
78 96 124
78 97 125
79 98 127
77 96 124
77 95 124
77 96 125
76 95 124
77 96 124
79 98 127
80 99 127
77 97 127
78 97 125
78 96 124
78 97 124
79 98 127
78 96 124
81 99 126
78 97 126
77 96 124
76 96 125
80 99 127
78 97 125
77 95 124
78 97 126
76 96 126
77 95 121
80 99 127
78 97 126
79 98 126
80 98 126
76 94 122
77 96 124
80 98 126
75 94 122
77 97 126
79 97 125
78 96 123
76 96 125
76 95 124
78 97 127
78 97 125
77 97 127
76 94 121
75 94 123
78 96 123
77 95 123
76 94 122
76 94 122
75 93 121
76 95 124
76 95 123
77 96 124
78 97 126
79 98 127
78 97 126
78 97 125
76 95 123
77 95 122
76 96 126
76 95 123
78 97 125
77 96 124
76 95 125
77 95 122
78 97 125
78 97 125
78 96 124
76 94 122
81 100 127
77 96 124
78 96 122
76 95 124
77 97 126
76 96 125
75 94 122
77 95 123
75 94 123
73 92 120
76 95 122
77 96 124
76 96 126
78 96 122
78 97 125
76 95 123
78 97 125
78 97 125
78 96 123
74 92 120
74 92 119
73 91 119
74 92 120
76 94 122
75 93 121
75 93 120
75 93 120
76 95 122
75 93 121
76 94 120
75 94 121
77 95 123
74 92 119
74 91 118
75 93 121
75 93 121
76 94 120
77 95 123
75 92 119
73 92 120
76 94 122
75 93 121
71 89 117
74 92 118
74 91 118
72 90 118
74 91 117
74 92 119
77 95 122
74 93 121
74 92 119
76 93 120
74 93 120
72 90 117
72 90 118
73 91 117
76 93 120
72 90 117
72 90 117
73 90 116
72 90 117
68 85 111
73 90 116
74 91 117
75 92 118
69 86 111
73 90 117
74 91 117
72 89 116
71 87 113
69 86 111
71 88 114
68 84 109
70 87 113
71 89 116
67 82 105
72 90 116
67 84 108
67 83 106
64 79 103
65 81 103
66 81 105
67 83 107
71 87 110
69 85 110
68 84 108
67 84 109
66 80 103
71 87 110
68 84 107
65 80 102
64 79 101
69 85 109
51 63 80
57 69 86
52 64 81
47 57 72
49 60 76
54 66 83
51 62 78
53 64 81
48 59 76
50 61 76
48 59 74
47 57 73
52 63 80
54 65 82
50 61 77
53 64 81
51 62 79
47 58 74
49 60 76
52 63 79
53 64 80
57 69 87
54 66 83
48 59 75
53 64 81
52 63 80
54 65 82
53 65 82
57 69 87
52 63 80
55 67 85
54 65 82
52 64 82
55 67 85
53 64 82
53 65 83
53 64 81
53 65 82
51 62 78
56 67 85
53 65 82
49 60 76
53 64 80
50 61 78
54 67 85
54 67 85
54 65 82
56 68 86
53 65 82
58 70 89
51 62 79
54 66 84
53 65 83
57 69 88
53 64 81
59 71 89
58 70 88
53 64 80
60 72 90
53 64 81
52 64 82
55 67 85
49 60 76
50 61 78
53 64 80
50 61 77
55 67 85
52 63 80
56 68 86
52 64 81
57 69 87
55 68 86
54 65 83
50 61 78
56 67 84
50 62 78
54 65 82
54 65 82
52 63 81
53 65 83
51 62 79
52 64 80
49 60 76
48 59 76
51 62 79
53 65 82
54 66 83
53 63 80
56 68 86
49 59 74
52 63 79
52 62 79
66 82 106
68 84 108
67 83 106
65 80 103
65 80 103
65 79 101
72 89 115
65 82 106
66 82 106
70 86 110
70 86 109
70 87 112
69 86 110
65 82 106
67 82 106
68 85 110
71 88 114
69 85 109
68 84 108
68 83 106
72 88 112
68 85 111
72 89 115
72 87 111
73 92 119
73 90 115
69 86 111
72 89 115
73 90 115
73 90 115
74 92 119
75 92 117
75 93 119
72 90 117
72 90 116
73 91 118
76 94 119
75 92 117
71 89 115
69 86 112
72 91 119
75 93 120
73 91 118
74 91 118
75 93 120
75 93 120
73 90 115
76 93 119
76 94 120
71 89 116
75 94 122
76 95 122
76 94 121
73 92 120
75 92 119
74 92 118
76 94 122
76 94 122
75 92 118
76 95 123
71 88 114
76 95 123
77 95 122
74 92 118
75 93 121
76 94 121
79 98 126
74 93 121
75 95 124
77 96 125
75 93 121
75 94 121
73 92 120
78 97 125
75 94 122
77 95 123
77 96 124
77 95 123
76 95 122
78 97 124
76 94 121
79 98 126
76 95 124
73 92 122
73 92 119
76 95 123
72 91 118
78 97 125
78 97 125
76 94 122
75 94 123
75 94 122
77 95 123
77 95 123
76 94 122
75 93 121
77 95 123
76 96 124
76 96 124
76 96 126
77 96 124
77 96 126
78 97 127
75 94 122
79 98 125
75 94 122
78 97 126
73 92 120
79 97 125
77 96 124
78 97 125
78 96 124
77 96 126
77 96 125
76 95 123
77 95 122
76 95 123
76 95 124
76 96 125
77 97 126
79 98 125
79 98 126
77 96 125
77 96 124
78 97 125
78 96 124
79 98 126
79 98 127
78 97 125
77 97 126
79 98 127
80 99 127
81 99 127
78 96 123
78 97 126
78 98 127
79 98 127
78 97 126
76 95 124
77 96 124
76 95 124
81 99 127
76 95 123
78 98 127
79 98 126
76 95 123
77 96 125
77 96 124
80 99 127
78 97 126
76 95 124
79 98 126
78 97 125
81 99 127
80 99 127
78 98 127
80 99 127
78 97 126
81 99 127
79 98 127
76 95 122
76 95 123
78 97 126
78 97 125
77 96 124
79 98 127
78 97 126
77 96 125
75 93 119
79 98 126
79 98 127
78 97 125
78 98 127
79 99 127
78 96 125
80 98 126
79 98 126
78 96 124
77 96 125
76 95 123
79 99 127
77 96 124
79 98 127
76 94 123
79 98 126
78 97 124
77 96 124
77 96 124
81 99 127
79 98 127
78 97 125
76 95 124
79 99 127
78 97 126
78 97 126
76 95 123
78 96 123
76 95 123
77 95 122
76 95 123
79 97 126
77 96 126
74 93 121
73 91 119
78 97 125
78 97 126
78 97 126
79 98 126
75 95 124
74 92 120
76 95 124
75 95 124
78 97 126
75 94 123
76 94 122
75 94 121
77 96 124
76 95 123
80 99 127
76 95 122
77 97 127
78 97 126
75 93 120
78 96 124
78 96 123
73 92 119
77 96 124
80 98 125
74 93 121
79 98 127
74 91 118
76 93 120
73 92 119
75 94 121
74 93 120
77 95 122
75 93 120
77 95 121
74 92 120
74 92 119
75 93 121
76 95 122
73 91 117
75 93 120
78 96 124
75 93 120
75 94 121
76 94 121
74 92 119
75 93 120
73 91 118
76 94 121
74 93 120
74 92 120
77 96 124
74 92 120
75 92 118
77 96 124
71 88 113
72 90 117
74 93 120
73 92 119
73 92 119
71 89 115
73 90 117
72 90 116
72 89 115
75 93 119
75 92 118
74 92 118
74 92 119
75 93 120
69 86 111
73 89 114
73 90 117
70 87 113
71 90 118
73 90 115
71 88 114
72 90 116
76 94 120
75 93 121
67 83 108
72 90 116
72 89 114
69 86 111
67 83 108
70 87 111
72 89 114
65 82 108
72 90 116
70 86 111
71 87 112
70 86 110
68 85 109
71 88 112
71 88 113
71 87 112
68 84 108
70 87 111
67 82 104
66 81 103
64 78 100
66 80 103
68 83 106
67 83 108
67 83 107
66 80 103
68 84 107
51 62 79
47 57 72
49 59 75
53 64 82
54 66 83
48 58 74
54 66 84
50 61 78
51 62 79
53 64 82
49 59 75
55 67 85
57 69 88
54 65 82
53 64 80
52 63 79
53 65 83
55 67 85
52 63 79
52 62 79
52 63 80
53 65 83
51 62 78
53 65 81
52 63 80
54 66 85
50 61 78
60 71 88
48 59 75
50 61 77
52 63 81
54 66 84
56 68 85
55 67 85
52 63 80
51 62 79
56 69 87
58 70 88
59 72 91
54 66 83
55 67 85
53 64 81
52 63 79
55 66 83
54 66 83
57 69 87
50 60 76
48 58 73
54 66 85
55 67 84
56 67 85
56 68 87
55 67 85
54 65 83
55 66 84
47 57 73
52 63 80
52 63 80
49 60 76
51 62 79
56 68 86
54 66 84
49 59 75
52 64 81
51 62 79
50 61 77
49 61 77
55 67 85
51 63 80
55 66 83
52 63 80
49 60 76
50 61 76
53 64 81
55 67 85
52 63 79
53 64 80
48 58 75
55 66 84
48 59 74
50 61 78
46 56 71
50 61 77
53 64 81
48 58 73
52 63 80
49 59 74
49 59 74
53 65 82
56 68 87
65 79 101
66 81 103
60 75 97
61 75 95
65 81 105
58 72 94
71 87 111
67 83 106
70 86 110
65 80 103
61 76 97
63 79 102
70 86 111
67 83 106
68 84 108
69 84 107
69 84 108
71 88 113
67 82 105
68 84 109
76 93 118
71 89 115
69 87 113
70 88 114
72 90 116
70 86 111
67 82 105
71 87 113
71 89 115
71 89 116
69 85 110
69 86 111
69 85 110
73 90 117
71 88 114
78 97 125
71 88 113
75 92 118
74 92 118
71 90 118
73 90 116
74 92 119
75 93 120
71 89 115
73 91 117
74 92 118
73 91 119
75 93 120
77 95 123
77 95 123
71 88 113
74 93 120
73 91 118
75 93 121
71 89 115
75 93 119
74 92 119
75 94 123
72 89 114
74 91 117
75 94 122
75 93 121
75 92 118
78 96 124
75 94 121
77 95 121
76 94 122
75 93 120
76 94 122
76 94 122
77 95 122
76 95 123
75 93 121
75 94 121
74 92 120
76 95 124
77 96 125
76 96 125
76 94 122
78 96 124
75 93 121
74 92 119
77 96 125
81 99 126
76 95 123
76 95 124
76 94 121
73 92 121
75 94 123
79 98 127
75 94 122
80 99 127
77 96 124
79 98 127
76 94 123
78 96 124
76 95 123
77 96 125
75 95 124
78 97 125
77 95 123
76 94 121
78 97 125
77 96 123
80 98 126
78 97 126
76 94 122
79 97 126
77 96 123
78 96 124
79 98 126
77 96 126
77 96 124
79 98 126
78 97 126
77 96 124
79 98 126
76 95 123
77 96 125
79 98 126
76 95 124
77 96 124
76 95 124
79 97 126
78 96 124
79 98 127
77 96 123
76 94 121
79 97 125
78 96 124
76 95 124
79 98 127
77 95 123
77 96 124
76 95 123
78 98 127
79 98 127
77 96 125
79 98 127
78 97 125
78 96 124
78 97 126
77 95 122
78 97 125
77 97 127
80 99 127
77 96 124
78 96 124
77 96 124
75 95 123
77 97 127
77 97 125
78 96 125
78 97 127
77 96 124
80 98 126
77 97 127
77 96 124
78 97 125
78 97 125
79 98 127
79 98 126
77 96 124
79 97 125
79 97 126
79 98 127
77 96 124
78 97 127
78 97 125
77 97 126
76 95 124
78 98 127
80 99 127
75 95 125
80 99 127
77 95 123
80 99 127
77 96 124
78 96 125
77 97 126
79 98 126
76 95 123
80 98 126
76 94 122
78 97 126
78 98 127
79 97 126
77 96 125
76 96 126
78 97 124
78 96 124
76 94 122
77 95 124
79 98 127
76 95 124
77 96 124
76 95 124
78 96 124
76 95 124
77 96 125
76 95 123
76 95 123
76 95 124
77 97 125
77 96 126
79 97 124
75 94 122
76 96 125
77 95 123
75 93 120
78 96 124
74 93 122
79 98 126
76 95 124
76 94 120
77 95 123
74 93 121
74 91 118
78 97 125
76 95 124
77 96 124
78 97 124
76 95 122
78 97 125
76 94 121
76 95 124
79 97 125
78 97 126
76 95 123
76 95 122
74 92 118
77 96 123
76 94 120
75 92 119
76 95 124
77 96 124
77 95 123
75 93 120
76 94 121
74 93 122
75 94 122
75 94 122
75 93 120
72 91 119
74 93 120
75 94 122
73 91 117
77 96 124
77 95 123
73 91 118
73 90 117
72 90 118
75 93 120
75 94 122
76 93 118
71 89 116
74 92 120
79 97 123
74 92 120
73 91 118
77 95 123
76 94 121
76 94 121
74 92 119
74 92 119
74 92 118
72 90 117
73 91 118
74 92 118
74 92 119
71 89 115
73 91 118
73 91 119
71 88 114
70 87 113
75 93 120
74 92 119
72 90 117
72 88 113
70 87 113
71 89 115
69 87 113
71 88 114
67 84 109
72 90 117
72 89 114
71 88 113
71 88 113
73 90 116
72 89 113
69 84 108
68 85 111
72 90 116
68 84 109
70 86 110
69 86 111
70 86 110
66 80 103
69 85 108
68 84 107
72 88 112
65 81 104
68 83 106
64 79 101
66 81 103
70 86 110
67 82 106
59 73 94
61 75 96
58 71 92
63 76 97
57 69 87
45 55 70
48 59 74
51 62 78
53 64 81
51 62 78
55 66 83
55 67 84
53 65 82
52 63 79
56 68 86
54 65 82
53 65 82
54 66 84
53 65 83
55 68 86
50 61 77
50 61 77
56 69 87
49 60 76
47 57 73
46 57 73
50 61 79
55 66 83
56 69 87
53 64 80
52 64 81
55 67 85
58 69 87
53 64 80
51 62 79
57 69 87
56 68 86
51 62 79
54 66 83
56 67 85
55 66 83
58 70 88
50 61 79
51 63 80
51 62 79
58 70 89
48 59 76
51 63 80
52 63 80
56 69 87
56 69 88
55 67 84
55 67 86
55 67 84
52 63 79
56 68 86
53 65 82
58 70 87
52 62 79
56 68 85
54 65 81
51 62 78
58 71 90
49 60 77
57 69 88
51 63 80
52 63 80
56 67 85
51 62 79
54 66 84
54 65 82
53 64 80
53 64 82
55 67 85
51 62 79
47 57 72
53 65 83
47 58 74
52 63 79
53 64 81
52 63 79
53 64 80
50 61 78
46 56 71
50 61 76
51 62 79
50 61 78
46 56 72
46 56 71
54 65 81
48 58 73
52 63 81
62 76 97
66 81 103
66 81 105
71 87 111
66 81 104
68 84 107
69 85 110
63 78 100
69 84 108
67 82 105
67 83 107
69 85 110
66 83 107
68 84 108
69 85 110
71 87 111
66 81 104
67 83 107
67 83 108
60 75 97
71 88 115
70 87 113
70 87 113
69 85 108
73 90 115
72 90 117
71 89 115
69 86 112
70 86 110
73 89 114
69 86 111
74 91 117
72 90 116
73 91 118
69 86 112
73 90 116
68 83 107
75 92 118
73 91 118
74 91 118
68 84 109
72 90 116
69 86 111
74 93 120
72 89 116
72 90 116
75 93 120
71 88 114
71 88 114
74 91 118
73 90 115
75 93 120
72 90 117
74 92 119
76 94 121
74 93 120
74 92 119
75 92 119
74 93 122
77 96 124
77 95 122
73 91 119
73 92 119
76 94 122
75 94 123
75 93 120
76 94 123
76 94 122
75 93 119
73 91 119
76 95 123
77 95 123
79 98 126
72 91 118
77 96 124
75 94 122
75 94 122
75 94 122
74 91 118
74 91 118
75 94 122
74 92 120
79 98 126
76 94 121
78 96 124
75 93 121
77 95 122
75 95 124
73 91 119
73 91 119
77 96 126
76 94 121
75 94 122
78 97 125
76 94 122
78 97 125
77 96 124
78 96 124
76 95 124
77 95 123
76 95 124
79 97 125
79 97 125
80 98 125
77 96 124
79 97 125
76 96 124
77 96 125
78 97 125
77 96 124
78 98 127
78 97 125
79 98 126
76 96 125
77 95 123
76 95 123
77 96 126
78 96 123
77 96 123
78 97 126
75 93 119
76 95 124
79 98 126
78 97 126
77 96 123
77 96 123
76 94 122
77 95 123
78 97 127
78 98 127
80 99 127
77 95 123
78 95 122
78 96 124
78 98 127
77 95 123
80 99 127
80 99 127
78 97 126
76 95 123
76 95 123
79 97 126
76 96 125
78 97 126
78 97 126
78 96 125
79 98 126
76 95 124
79 98 126
78 97 125
78 96 125
79 98 126
79 98 126
81 100 127
78 97 126
79 98 127
77 97 127
79 98 126
78 97 126
79 98 127
79 97 124
77 96 125
79 99 127
77 96 126
79 98 126
78 97 125
75 93 121
78 97 126
78 97 125
80 98 126
77 95 122
79 98 126
79 97 125
74 92 120
78 97 125
79 98 127
77 97 127
78 97 126
77 96 125
78 97 126
76 94 122
76 95 123
75 93 120
77 97 126
76 95 124
77 96 123
79 98 126
78 96 124
78 96 124
77 96 125
78 97 124
77 96 124
77 96 123
78 96 124
77 97 125
79 97 123
78 97 125
77 96 123
77 96 124
78 96 125
78 97 125
77 95 123
79 97 125
77 96 125
77 96 124
78 97 125
77 97 125
75 93 122
76 94 122
76 94 122
77 95 122
75 94 123
78 97 127
78 96 124
76 94 122
78 97 126
77 95 123
76 94 122
73 91 119
74 93 120
77 95 122
77 96 124
75 94 122
75 95 125
75 94 122
76 95 122
78 96 124
77 96 124
75 92 118
76 95 123
75 93 121
73 92 119
76 95 123
75 93 121
76 94 120
75 94 122
74 92 119
75 94 121
76 95 123
75 93 120
74 92 119
71 90 118
76 94 123
77 94 120
75 93 120
75 93 121
76 94 122
74 93 122
76 95 123
76 94 121
75 93 120
76 94 121
72 90 116
75 94 121
74 92 118
71 89 115
70 88 114
72 89 115
73 91 117
76 95 123
73 91 117
73 91 118
72 90 117
74 92 118
76 94 121
76 94 121
73 92 119
72 90 116
70 87 113
73 91 119
77 95 122
70 88 114
74 92 119
74 93 121
74 92 119
73 90 116
73 90 117
69 86 111
69 85 109
72 89 114
69 86 110
73 90 115
69 86 111
69 86 111
68 86 113
69 85 111
69 86 111
70 87 111
69 85 110
73 91 118
69 85 109
65 80 103
70 87 112
70 85 108
72 89 114
68 83 107
68 85 109
68 84 109
67 83 107
64 78 100
73 89 114
66 83 107
67 82 105
66 81 104
66 81 103
61 75 96
68 84 109
66 80 102
64 79 101
60 75 96
60 74 95
65 80 102
68 83 106
55 67 86
46 56 70
48 59 74
50 61 76
47 58 74
50 61 77
50 61 77
53 63 79
51 62 77
54 64 81
51 62 78
51 62 77
53 65 81
56 68 85
53 64 81
53 64 80
48 58 74
53 64 81
48 58 74
46 56 71
50 62 79
53 65 83
49 60 75
52 64 81
57 69 88
53 64 81
49 61 78
53 64 82
52 64 81
51 62 79
54 65 82
50 61 78
51 63 81
58 69 87
50 62 78
56 68 86
50 61 77
49 60 78
52 64 80
53 64 82
55 67 85
51 63 79
52 63 80
52 64 82
52 63 80
54 66 83
57 68 85
55 66 83
52 64 81
53 64 81
50 62 78
52 63 79
48 58 73
54 65 82
50 61 77
49 59 75
49 59 75
52 64 80
55 66 83
58 70 89
53 63 78
53 65 81
56 69 88
49 60 77
51 63 79
51 62 79
50 61 78
54 65 82
58 70 87
52 63 80
50 61 78
54 66 83
51 62 79
51 62 79
49 60 76
53 65 81
49 60 76
50 61 78
50 61 78
52 62 78
52 62 79
50 61 78
43 52 66
47 58 74
50 60 75
53 65 82
63 78 100
66 80 102
63 77 98
61 76 98
58 72 92
64 78 100
67 84 108
67 81 102
66 82 104
66 83 107
66 81 104
68 84 108
69 85 108
70 87 111
68 84 109
65 80 103
71 87 110
70 87 111
69 85 108
68 84 108
68 84 109
70 86 112
66 83 107
70 86 110
75 93 120
69 84 108
71 87 112
68 85 110
72 90 115
70 87 112
68 84 109
70 87 113
73 91 116
76 93 118
71 89 116
75 92 118
71 89 115
76 93 120
74 93 121
75 93 121
72 90 116
74 91 118
73 90 115
71 89 116
75 92 118
73 91 117
75 93 119
77 95 123
73 90 115
75 92 118
71 90 117
75 93 120
72 89 116
73 91 118
74 92 120
76 95 122
77 94 121
75 93 120
72 89 113
74 91 117
74 91 118
77 96 124
76 94 122
75 94 121
74 92 119
72 90 116
75 93 120
74 92 119
75 93 121
73 91 118
74 92 118
74 93 121
78 97 125
77 95 123
73 91 118
75 94 121
76 95 123
74 93 121
74 93 121
74 92 119
78 97 127
76 94 121
77 96 124
76 95 123
76 94 120
74 92 119
77 95 122
78 96 124
78 97 125
78 97 125
76 94 121
77 96 124
76 95 122
75 93 120
77 96 125
76 95 123
80 98 126
76 95 124
76 95 122
76 94 121
78 97 126
79 97 124
80 98 126
80 98 126
77 94 121
77 97 126
78 97 125
77 97 127
74 94 122
74 93 121
74 93 120
75 94 121
77 95 123
77 96 124
80 98 125
78 96 123
76 94 122
78 97 126
77 96 124
76 95 124
75 93 121
78 97 126
77 96 125
76 96 125
78 97 125
78 97 126
77 96 125
78 96 124
79 98 126
78 97 125
77 97 125
79 97 125
76 94 122
81 100 127
78 97 126
78 97 126
72 91 119
77 96 125
77 95 123
80 99 127
78 98 126
78 97 126
80 99 127
81 99 127
77 96 126
76 94 121
79 97 125
78 97 125
80 98 127
79 97 123
80 99 127
77 96 124
76 94 123
78 97 125
77 96 125
77 97 126
79 98 126
78 97 126
78 96 123
79 98 126
79 97 125
77 96 125
77 96 124
79 98 126
78 97 125
77 96 125
78 96 123
78 97 126
77 95 123
80 98 127
79 99 127
79 97 126
79 97 125
78 98 127
78 97 125
78 96 124
78 98 127
77 96 123
74 94 123
79 98 127
77 96 124
78 97 126
78 98 127
77 96 123
77 96 124
77 97 126
79 97 126
77 96 124
79 98 126
79 98 126
78 97 125
76 96 125
77 96 125
76 95 122
78 97 127
78 97 125
77 96 124
78 97 124
76 96 125
77 95 123
77 96 124
75 94 122
79 97 126
78 97 126
75 94 122
77 95 122
77 96 124
78 96 123
76 94 121
77 96 124
75 94 122
77 96 124
76 94 121
77 96 123
76 95 124
77 95 122
76 94 122
74 93 121
76 95 123
75 94 122
75 94 121
78 97 124
76 95 122
74 93 120
76 95 122
76 95 122
77 95 124
80 98 125
76 95 124
75 94 122
78 96 123
73 92 119
76 95 122
76 95 123
73 90 117
77 95 123
75 94 123
75 94 123
74 92 119
75 93 121
76 95 124
76 94 122
78 97 126
77 95 122
73 91 117
75 94 121
77 95 121
75 93 120
76 94 120
74 93 120
75 94 123
76 94 122
75 93 120
76 93 120
76 94 121
77 95 123
72 91 119
74 91 116
74 92 118
73 91 117
71 89 115
72 91 119
74 92 119
73 91 118
71 89 115
73 91 118
72 89 116
71 89 116
70 87 113
74 92 120
71 89 117
71 89 116
72 91 118
70 86 111
70 87 113
72 89 114
73 91 117
71 88 113
71 88 112
68 85 111
73 90 117
71 88 113
68 85 110
73 90 116
70 87 112
68 84 110
72 89 115
71 88 113
71 88 113
70 86 110
72 89 114
69 86 111
71 87 112
68 84 108
72 88 112
66 81 104
67 83 105
68 85 109
68 84 109
66 82 105
65 79 102
72 89 113
66 82 106
69 84 108
65 80 103
67 82 105
66 81 104
66 81 104
63 77 97
61 75 96
63 77 98
60 75 97
57 69 88
63 77 98
63 78 99
55 67 84
53 64 80
49 59 75
50 61 77
55 67 84
50 60 76
49 59 75
53 64 81
52 63 80
52 63 79
50 61 78
46 56 71
53 65 83
54 66 83
55 67 85
52 62 78
53 64 81
52 63 79
55 67 84
49 60 76
47 57 73
55 67 84
55 67 86
52 64 80
49 60 76
45 55 69
58 71 89
54 65 82
51 62 78
58 70 89
47 57 72
45 55 70
57 69 87
51 62 78
51 62 79
54 66 84
54 65 82
54 65 82
53 63 80
56 67 84
55 67 86
55 66 83
48 59 75
52 63 79
54 65 82
55 66 82
51 62 80
50 61 78
51 62 78
60 72 92
52 63 80
51 62 78
53 64 81
53 64 81
52 64 81
49 60 76
48 59 74
54 67 85
56 67 84
52 64 80
57 69 88
54 66 84
52 63 79
50 61 77
50 61 77
53 63 80
55 66 83
49 60 78
52 63 80
55 67 84
56 68 87
47 57 72
53 63 79
52 64 81
51 61 77
47 57 72
56 67 85
54 65 83
49 60 75
48 58 74
49 59 74
50 61 76
49 59 73
57 70 89
60 74 94
62 76 97
61 75 96
64 78 98
68 83 106
65 80 103
69 85 108
63 77 99
69 84 107
64 79 100
67 83 106
65 80 102
68 84 108
59 74 95
67 83 106
68 84 108
62 77 99
68 84 107
68 84 107
70 85 108
71 87 112
69 85 109
67 83 106
71 89 115
71 88 113
72 90 116
69 85 109
74 92 120
69 86 111
72 89 115
73 90 117
70 86 111
68 85 110
72 90 117
72 90 115
70 87 111
74 91 116
69 86 111
69 87 114
73 91 116
70 88 114
75 92 118
73 91 119
69 85 109
74 92 118
74 91 116
73 91 117
72 90 117
78 96 122
74 92 120
75 93 119
72 90 116
69 85 111
73 91 119
71 88 114
71 88 114
76 94 121
76 93 119
72 91 119
73 92 120
75 92 119
74 91 118
74 92 118
70 88 114
75 92 119
76 94 122
71 89 116
74 91 117
76 95 123
76 94 123
78 96 123
74 92 120
76 94 121
73 92 119
74 91 117
78 96 123
76 95 122
78 97 125
76 94 122
74 92 119
74 92 120
74 92 120
76 94 120
76 94 122
75 93 120
78 96 123
74 93 121
73 91 118
77 96 124
77 97 125
75 94 123
78 96 124
76 94 122
76 94 123
77 96 125
77 95 122
77 95 122
74 92 120
75 94 123
75 94 122
77 96 125
77 94 121
76 95 123
75 94 121
78 96 123
77 96 123
79 98 126
75 94 122
76 93 119
76 94 121
77 96 125
77 97 126
75 93 120
79 98 127
75 93 120
75 94 122
74 92 121
78 96 124
76 94 121
78 97 126
78 96 123
78 97 127
78 96 123
77 96 124
76 95 123
78 97 126
76 95 125
76 95 123
77 95 122
78 96 124
75 94 123
76 95 124
79 97 126
78 97 126
77 95 122
75 94 122
79 98 126
77 95 123
76 94 122
76 95 123
78 97 125
76 94 122
79 97 126
77 95 122
77 95 124
78 96 124
79 97 125
77 96 123
79 97 125
77 97 127
78 96 123
76 95 123
76 95 123
79 97 125
79 97 125
79 98 126
77 96 125
79 98 127
79 97 125
79 98 126
78 98 127
77 95 123
79 98 126
76 95 123
74 93 121
77 95 123
77 96 124
78 97 127
77 96 124
78 97 126
78 97 125
76 95 124
77 95 122
78 97 126
77 96 126
79 97 125
78 97 125
78 97 126
79 97 124
77 97 127
79 98 126
77 97 127
75 94 123
79 98 126
75 94 123
73 92 121
79 98 127
78 96 125
77 95 122
76 95 124
77 96 126
76 95 123
77 97 126
77 96 125
77 95 122
77 97 127
78 96 124
76 95 124
76 93 120
78 96 124
77 96 123
77 95 124
80 99 127
76 95 123
74 92 120
77 96 123
77 96 125
77 95 123
74 93 121
77 96 123
77 96 124
75 94 122
77 96 124
76 94 121
78 96 124
76 95 123
76 94 123
77 96 124
76 95 122
77 96 124
79 98 125
76 95 124
77 96 124
78 97 126
76 94 121
79 98 126
78 96 124
71 89 115
77 96 123
75 94 122
75 93 121
75 92 118
72 90 117
75 94 122
78 96 124
77 94 120
79 97 124
72 91 118
76 94 122
72 91 118
76 95 122
76 94 121
76 94 122
75 93 121
74 93 120
75 95 124
75 93 120
75 92 119
70 88 116
77 95 121
77 96 124
77 95 123
75 93 120
77 96 123
72 88 112
73 91 118
76 94 121
74 93 121
74 91 118
75 93 122
74 93 120
72 89 114
72 91 118
72 89 113
71 89 115
69 87 114
74 91 117
73 91 118
69 86 111
72 89 116
72 90 117
69 86 112
73 91 117
71 88 113
73 90 117
72 89 116
67 83 106
73 91 117
70 87 113
78 96 124
65 81 104
73 89 115
68 84 108
73 90 116
72 88 113
70 87 113
69 85 109
67 84 108
67 83 108
71 88 114
63 78 101
66 82 106
71 88 113
67 82 104
68 84 107
66 82 106
67 84 108
65 80 103
63 78 100
68 84 107
66 82 105
64 78 100
62 76 98
66 82 106
59 74 95
65 81 104
68 85 109
64 79 101
66 81 103
61 75 95
62 76 97
63 77 99
67 82 105
63 77 98
60 73 94
63 77 98
63 77 99
50 61 78
50 61 77
50 60 75
50 61 76
49 60 77
49 59 74
53 64 80
54 65 81
50 60 75
51 62 78
49 60 77
52 62 78
52 63 80
54 64 80
56 68 85
55 66 83
51 62 78
47 57 72
54 66 83
52 63 80
52 63 80
56 68 86
52 63 80
53 65 83
48 58 73
56 67 85
53 64 80
52 63 79
50 61 77
50 61 77
53 65 81
45 55 71
53 64 81
54 66 83
57 69 87
47 57 73
54 65 82
51 62 79
55 66 83
55 66 84
54 65 82
53 65 82
55 66 84
57 69 88
57 69 86
51 62 78
51 62 78
53 66 84
53 64 81
50 60 75
55 67 84
54 66 83
51 62 78
50 62 78
58 70 88
53 64 81
55 67 85
51 63 79
54 66 83
51 61 77
49 59 74
52 63 79
49 59 75
54 65 82
55 66 83
50 60 76
51 63 80
52 63 80
54 66 84
53 64 81
51 62 79
51 62 79
50 61 77
51 63 79
51 62 79
50 60 76
51 62 78
52 63 79
56 67 84
52 63 80
49 59 75
55 68 86
60 73 93
63 78 99
54 66 84
66 81 103
62 76 96
64 78 101
63 76 96
62 78 101
66 81 103
60 75 97
67 83 107
57 72 93
61 76 97
66 81 103
66 81 105
68 83 105
67 82 105
67 83 107
67 82 104
67 83 107
68 84 107
69 84 106
67 83 107
71 87 111
65 81 105
70 86 111
66 81 105
69 85 109
69 85 109
70 87 112
63 80 105
71 88 113
70 86 112
73 90 116
67 85 111
75 92 118
71 88 114
74 93 120
74 90 116
73 91 117
70 88 115
72 89 114
70 88 114
68 85 109
69 87 114
75 92 118
71 88 114
72 90 118
76 93 118
73 91 117
73 90 116
75 93 120
74 92 118
73 92 121
71 89 115
75 92 119
75 93 120
72 90 117
75 93 119
73 92 119
75 95 123
73 91 117
77 95 123
75 93 120
73 90 116
75 94 122
75 93 119
76 94 122
77 95 123
75 93 120
76 95 123
73 91 118
79 98 126
76 95 122
75 93 120
74 93 121
78 97 125
75 94 122
73 91 118
77 94 121
73 92 120
74 93 120
73 91 118
75 93 121
72 89 115
76 95 123
76 94 121
77 95 123
74 93 121
77 97 127
74 93 121
74 92 119
76 95 123
76 95 123
74 91 118
74 93 120
76 94 121
77 96 125
76 95 122
76 94 120
78 96 122
75 94 122
76 94 122
76 95 123
78 97 124
79 98 127
76 95 123
76 95 123
78 97 126
78 97 126
76 94 122
75 94 121
76 94 121
76 95 123
77 95 123
78 96 124
78 96 124
76 95 123
75 94 123
78 96 124
75 94 122
79 98 126
77 96 124
77 95 122
77 96 125
76 94 121
75 94 122
78 95 122
77 95 122
75 95 124
78 97 124
78 96 124
76 94 122
76 94 121
79 98 126
76 96 126
77 95 124
77 95 122
79 98 127
78 97 126
77 96 124
77 96 124
77 95 123
79 98 126
77 97 127
77 96 125
76 96 125
80 98 126
77 96 125
78 97 125
77 95 123
76 95 124
80 99 127
77 96 125
76 95 124
79 98 127
78 98 127
76 94 122
77 95 123
78 97 126
79 97 126
77 96 124
77 96 124
79 98 127
79 97 126
79 98 127
76 94 121
79 98 127
77 96 124
77 95 123
75 94 122
78 97 126
77 97 126
77 96 124
78 96 125
79 97 125
78 96 124
76 95 123
79 98 126
77 95 122
77 96 124
78 97 125
77 96 123
76 94 121
77 95 122
76 94 122
79 98 127
75 94 122
77 94 121
80 99 127
79 97 124
79 98 126
76 95 124
76 95 122
76 94 122
76 95 123
76 95 123
78 96 125
77 95 124
79 97 126
76 95 123
75 94 123
76 95 123
78 96 123
77 95 122
78 97 126
75 93 120
76 94 122
77 96 125
74 93 122
76 94 121
78 96 124
72 90 118
76 95 122
75 93 120
79 98 126
77 96 124
75 94 122
76 95 124
75 94 122
76 95 123
74 92 119
73 90 117
73 91 119
77 96 124
74 94 125
73 91 119
78 96 124
78 96 123
78 96 123
75 94 122
75 93 121
70 88 114
77 96 125
76 95 124
74 92 120
73 91 118
78 97 126
74 92 118
73 92 121
76 95 124
73 91 117
75 94 122
75 93 121
70 88 114
78 96 123
72 90 117
76 94 120
74 93 121
73 91 120
76 94 122
75 92 118
77 95 122
74 91 118
72 90 116
75 93 119
74 93 121
73 92 119
76 94 122
77 96 124
74 92 119
75 93 120
74 92 119
73 90 115
73 92 119
76 94 121
74 92 118
74 92 119
73 91 119
72 89 114
74 91 116
72 91 119
72 90 116
68 85 111
74 91 117
69 86 112
74 91 117
70 87 114
68 84 108
73 90 115
68 85 110
69 85 110
70 87 112
68 84 109
67 83 107
65 81 106
71 87 112
71 88 113
72 88 113
69 85 110
71 89 115
62 76 97
66 82 104
64 80 103
70 86 109
66 82 106
68 84 107
63 79 101
67 82 106
68 83 107
70 86 110
65 81 104
64 79 101
68 83 106
67 82 105
64 78 99
63 78 100
64 78 100
64 78 100
69 84 107
64 79 102
64 79 102
63 77 97
61 74 95
61 76 97
56 68 87
67 82 105
65 79 100
65 80 101
56 67 85
48 58 73
55 66 83
51 61 76
48 57 72
48 58 74
51 62 78
50 60 75
53 65 82
51 61 77
49 59 74
49 60 76
46 56 71
51 62 78
50 62 79
51 61 77
51 61 77
50 60 76
47 57 72
55 66 83
49 60 76
53 65 83
54 65 82
55 67 84
53 64 81
49 60 76
52 63 80
55 66 84
50 60 76
54 64 81
50 60 75
47 57 72
50 62 78
52 63 79
55 66 84
50 61 78
52 63 80
57 69 87
53 64 81
54 65 82
53 63 79
55 67 84
53 65 82
50 61 77
54 66 84
51 62 79
51 62 78
54 65 82
53 64 81
49 60 76
54 65 82
55 67 84
56 67 84
51 62 78
54 65 81
44 55 70
48 59 74
53 64 81
55 66 83
50 61 76
53 64 80
52 64 81
51 62 78
50 60 76
52 63 80
54 65 82
50 61 77
51 62 78
49 60 75
49 59 75
50 60 76
53 64 81
49 59 75
46 56 72
51 61 77
53 64 80
51 61 77
49 59 74
43 52 66
61 74 93
62 75 95
64 79 100
60 73 94
57 69 86
63 77 97
59 72 92
62 76 96
66 80 102
59 73 94
67 82 105
64 79 100
67 82 105
60 74 94
65 80 104
69 85 110
66 81 105
63 77 98
67 83 107
64 79 101
69 85 110
64 79 101
68 84 108
65 81 104
67 83 108
70 85 109
71 89 115
67 83 107
71 88 114
68 84 108
69 86 111
70 87 112
73 90 115
66 83 107
71 89 114
74 92 119
72 89 113
74 92 118
71 90 117
73 89 114
72 89 115
69 87 113
71 88 113
73 91 119
67 84 109
72 89 114
71 89 115
70 87 112
72 90 117
73 90 116
72 90 117
75 94 121
72 88 114
74 92 119
70 86 110
74 92 119
73 90 116
76 95 124
75 94 122
75 93 120
75 93 121
72 90 117
72 89 114
72 89 116
75 93 121
72 89 115
73 90 116
72 91 118
74 93 121
74 91 118
73 92 119
74 92 119
77 95 121
76 93 120
75 94 121
71 88 115
74 93 120
78 96 123
75 93 121
74 91 118
74 92 119
76 95 123
76 94 121
75 92 118
75 94 123
75 93 120
78 96 125
76 95 123
76 94 121
74 92 119
75 94 121
75 94 122
73 91 118
75 94 122
78 96 124
76 95 124
77 95 122
77 95 122
78 97 125
78 97 125
75 94 121
78 96 123
74 93 121
76 94 122
75 94 121
76 94 120
77 95 122
78 98 127
75 94 123
75 94 123
77 96 123
78 96 123
77 96 125
75 93 119
74 93 121
76 95 123
75 94 122
75 93 121
76 94 121
76 95 123
78 97 125
76 95 123
77 96 124
78 96 124
79 98 126
75 93 120
78 96 124
76 95 123
78 97 125
77 96 125
76 96 125
78 97 125
78 97 125
78 97 125
77 97 126
79 97 124
78 97 126
76 95 124
77 95 123
78 97 125
77 95 122
77 95 122
76 95 123
76 95 123
77 96 123
78 96 125
75 94 122
78 96 124
78 97 125
77 96 125
76 95 122
77 96 125
77 97 126
75 94 122
76 96 125
78 97 127
78 96 124
79 97 126
78 97 125
77 95 123
78 97 126
78 97 126
77 96 124
79 97 125
78 97 126
77 95 122
77 96 123
75 95 124
78 96 125
78 96 124
78 96 125
75 94 123
76 96 126
76 95 124
79 98 127
79 97 125
78 97 125
79 98 126
77 96 124
77 96 125
75 95 124
78 97 125
77 96 125
74 92 120
77 96 125
75 94 121
79 97 125
78 97 125
78 97 124
78 97 126
76 94 121
77 96 125
78 96 125
75 95 124
78 97 125
78 96 123
79 97 125
75 94 122
79 98 126
79 98 125
77 95 122
75 94 122
80 99 127
76 94 122
76 95 123
79 97 125
77 95 123
75 94 122
77 96 124
75 93 121
76 94 121
78 98 127
80 98 126
76 95 124
77 95 123
75 93 120
78 96 123
76 95 124
74 92 120
75 94 123
77 96 123
75 94 123
77 96 124
76 96 126
75 93 121
78 97 125
74 92 119
72 90 116
77 96 125
77 95 122
74 92 119
76 94 122
75 93 119
76 95 122
77 95 123
76 94 122
75 93 120
75 94 122
75 94 122
74 92 119
72 91 119
77 96 124
75 93 120
72 90 117
76 95 123
73 91 118
77 95 123
73 91 118
74 93 121
74 93 120
72 89 116
73 90 116
75 94 121
75 92 118
75 93 119
75 93 119
74 92 119
75 92 117
73 92 119
77 95 122
70 87 112
74 92 119
72 89 115
76 94 120
75 93 119
73 90 117
72 88 113
73 90 116
71 90 117
71 88 113
68 85 111
73 91 117
73 91 118
71 88 114
72 89 114
74 92 119
74 91 117
70 88 113
75 93 120
70 88 116
70 87 113
73 90 115
70 88 114
74 91 117
70 86 111
70 86 111
72 89 115
68 85 109
69 86 110
70 87 111
66 83 107
71 88 112
65 81 103
71 87 111
69 86 111
66 81 103
71 88 112
69 84 108
70 86 110
65 80 103
62 76 97
63 79 102
68 83 106
65 80 102
67 82 105
61 75 97
60 75 97
68 83 106
64 79 102
69 84 107
63 77 97
66 80 102
62 76 97
65 79 102
66 80 101
62 76 97
60 73 93
62 76 96
60 73 92
60 72 91
57 69 87
58 71 90
50 62 80
53 64 81
48 58 72
49 60 75
55 66 83
54 65 81
46 55 70
45 55 69
50 61 78
52 64 81
52 63 79
52 63 79
53 64 81
51 61 77
52 64 81
48 58 73
53 64 81
52 63 79
57 68 86
49 59 74
56 68 87
53 64 81
51 62 78
51 62 78
49 59 75
46 55 69
51 62 78
53 64 80
48 58 74
49 59 75
54 66 84
54 65 81
49 60 76
51 62 77
50 61 77
49 60 75
52 63 80
54 65 83
45 54 69
55 66 84
49 60 77
53 65 82
51 62 78
53 65 82
51 61 77
50 60 76
49 60 76
52 63 79
54 65 82
52 62 78
52 63 79
52 64 81
49 60 76
51 62 79
50 61 76
54 65 82
48 58 73
52 63 80
48 58 73
47 57 73
46 56 71
48 58 74
51 61 78
55 65 82
52 63 79
47 57 72
51 62 78
56 67 84
53 65 81
48 58 74
51 62 79
47 57 73
46 55 70
50 61 76
47 57 70
48 58 73
59 70 88
62 75 95
55 66 84
62 75 95
59 72 91
61 74 95
62 75 95
61 75 96
58 72 91
61 75 96
61 75 96
68 83 106
69 84 107
62 76 97
61 75 95
69 84 106
67 81 103
67 82 106
66 82 105
69 86 111
65 80 102
63 78 101
67 83 107
70 86 111
69 85 110
67 83 107
67 84 109
71 88 113
69 85 110
70 87 111
71 88 113
70 86 111
73 90 115
65 81 104
70 87 113
68 85 111
69 86 111
70 87 113
73 90 115
71 88 113
71 89 117
75 93 120
71 87 112
72 90 116
68 84 109
72 88 113
71 87 112
74 91 117
69 86 111
70 87 113
68 85 109
71 87 112
70 86 111
72 89 115
71 88 115
70 87 114
76 94 120
72 90 116
72 89 114
73 90 117
75 93 121
73 90 115
74 92 119
73 91 118
74 92 118
74 92 119
75 93 121
72 90 118
73 91 118
73 92 120
73 91 116
74 92 118
75 92 118
76 94 121
75 93 120
75 94 121
74 91 117
73 92 119
76 94 121
75 92 119
75 93 121
78 97 125
75 93 120
75 92 118
73 91 119
73 91 117
74 94 122
74 92 120
77 95 123
72 90 117
71 90 118
78 97 125
78 96 123
72 90 116
74 92 119
76 93 120
73 92 119
75 93 120
74 93 120
76 94 122
76 95 124
78 97 126
78 97 126
73 92 120
77 95 122
74 92 118
77 96 124
77 96 125
73 91 118
73 91 117
76 95 124
78 96 124
77 96 124
79 98 125
77 95 121
74 92 119
72 90 116
75 94 123
75 94 122
77 96 123
79 98 127
76 95 124
76 95 124
77 96 124
73 92 119
76 94 123
77 96 123
77 96 124
79 97 125
76 95 123
74 93 122
77 95 123
77 96 125
78 97 127
78 96 124
78 96 124
77 95 123
77 96 125
78 96 122
76 95 123
77 96 124
77 96 124
74 93 121
79 98 127
77 97 126
77 96 125
78 96 124
76 95 122
78 97 125
78 97 126
77 97 126
78 97 125
77 97 125
77 96 125
80 98 127
80 98 125
77 95 122
74 93 121
78 97 126
79 98 125
80 99 127
78 97 126
78 97 126
81 100 127
78 97 125
75 95 123
78 97 126
79 98 126
76 95 122
76 95 124
77 96 123
78 98 127
79 97 125
78 97 126
78 96 124
76 95 123
78 97 124
79 97 124
77 96 125
77 95 122
76 95 124
74 92 120
78 97 125
75 93 122
78 96 124
77 96 125
77 95 122
76 94 121
77 96 125
79 98 126
76 94 122
77 97 126
77 96 124
76 95 124
78 97 125
76 95 123
78 96 125
79 98 126
77 95 123
75 94 123
76 95 124
77 96 125
79 97 124
79 97 125
79 97 125
75 94 122
77 95 122
76 93 119
76 95 123
76 95 123
78 98 127
77 96 124
76 94 121
77 95 123
75 93 121
78 96 123
75 93 120
74 92 119
75 94 121
76 95 123
76 95 123
78 96 124
77 95 124
75 94 121
77 96 124
73 90 115
77 95 122
74 92 120
76 94 121
76 94 122
78 97 125
75 92 119
73 92 120
77 96 123
75 93 119
74 92 119
75 94 121
72 90 115
76 94 121
75 94 122
75 94 121
77 95 122
76 94 121
75 92 119
75 93 120
76 95 123
74 92 119
74 91 117
77 95 124
73 91 117
77 94 121
74 93 121
72 91 119
75 94 121
73 92 120
74 93 121
71 89 116
75 94 122
76 94 121
76 94 121
73 92 119
74 91 117
74 91 118
73 92 119
73 91 117
71 88 114
69 86 112
71 88 114
75 91 116
73 90 115
72 89 115
72 89 115
72 89 115
71 88 114
72 89 115
69 87 114
72 90 117
74 91 117
66 82 106
73 90 116
70 87 113
70 88 114
67 85 111
73 90 115
69 84 108
74 90 115
67 84 108
70 86 110
70 86 109
69 86 112
69 85 109
70 86 110
71 88 112
68 84 108
70 87 111
69 85 110
71 87 111
68 83 107
65 81 104
66 81 103
68 83 107
65 80 102
65 79 101
68 83 105
64 79 101
63 77 98
64 79 101
66 81 104
63 79 103
64 78 100
67 82 105
67 82 104
64 79 102
59 73 93
61 74 94
64 78 100
62 76 96
61 74 94
63 77 99
55 67 85
61 73 93
50 61 77
61 74 94
58 71 89
57 69 87
58 70 88
58 70 88
50 60 76
45 55 69
48 57 72
45 54 69
47 57 72
45 55 70
53 63 79
44 54 69
53 64 81
50 61 77
52 63 79
49 60 76
52 63 80
52 62 77
45 54 68
48 58 73
51 61 77
48 59 74
50 61 78
51 61 78
49 60 75
48 59 74
51 63 80
51 62 79
49 59 73
48 59 74
52 63 80
52 62 78
49 59 75
50 60 76
53 65 82
49 59 75
51 62 77
48 59 76
51 62 79
53 64 81
51 61 76
53 65 83
54 66 83
51 62 79
52 63 81
54 65 82
51 61 77
55 67 84
50 61 77
50 60 76
51 62 79
52 63 79
52 64 81
49 59 74
53 63 80
48 59 75
50 61 76
54 65 81
49 60 75
48 58 73
49 60 77
53 64 81
43 53 68
49 58 73
49 59 73
51 61 77
48 59 74
51 62 78
50 61 76
47 57 72
51 61 76
49 60 76
51 61 77
52 62 78
53 63 79
49 59 75
51 62 77
57 69 87
60 73 93
49 60 76
52 63 80
58 71 90
62 76 97
63 77 97
62 76 96
63 77 98
59 72 92
61 75 96
61 74 95
64 78 100
62 76 96
66 82 105
62 76 98
64 78 100
67 83 106
67 81 102
64 79 101
64 80 103
66 81 105
66 82 105
66 81 105
66 81 105
62 77 100
65 81 105
69 85 110
66 82 106
66 82 106
63 77 99
65 81 106
65 81 105
62 77 100
67 83 107
73 91 118
73 90 115
72 89 114
71 87 111
69 84 108
67 83 107
71 88 114
70 86 111
70 89 117
66 82 105
70 87 111
68 84 109
72 89 115
69 87 113
73 91 118
71 88 113
73 90 115
70 87 112
74 91 117
71 89 115
74 93 120
69 86 110
71 89 114
73 91 118
76 94 120
73 90 117
76 93 118
71 87 111
76 94 122
75 92 119
73 90 116
74 92 119
78 97 126
76 94 121
76 94 121
74 91 118
77 96 123
73 91 117
74 92 119
71 88 114
72 90 116
75 93 121
77 95 121
77 95 123
74 92 118
77 96 124
74 92 120
71 89 116
74 91 117
77 95 123
75 94 122
73 92 120
72 90 116
74 93 120
74 93 121
73 91 118
72 90 116
74 91 117
77 95 121
76 96 125
76 95 122
79 98 127
77 95 122
75 93 120
76 94 121
76 94 122
77 95 121
74 92 120
78 96 124
75 94 123
75 93 121
72 90 117
78 97 124
80 98 126
74 93 122
76 95 123
76 94 122
77 95 123
76 95 122
79 98 127
76 95 123
78 98 127
75 93 120
77 96 125
77 96 124
76 94 121
77 95 124
79 97 125
74 93 121
77 96 125
76 95 124
77 95 122
78 97 126
79 98 125
80 98 126
74 92 119
75 93 120
77 95 123
76 95 124
76 94 122
75 94 123
78 97 126
77 96 126
78 97 125
74 93 122
76 94 121
79 98 126
78 97 127
76 96 125
76 95 124
79 98 126
77 97 126
77 97 126
78 97 125
78 96 124
76 96 125
75 94 122
76 94 121
77 95 122
75 93 120
77 97 125
78 96 124
79 97 125
78 97 125
77 96 125
77 96 125
80 98 126
78 97 126
77 96 124
78 97 126
78 98 127
77 97 127
77 96 125
76 95 124
77 96 125
77 95 122
76 95 124
78 97 126
77 96 124
77 95 122
78 97 125
79 97 125
78 97 125
76 94 122
77 96 125
76 94 121
76 95 123
79 97 125
76 95 124
77 96 123
76 95 123
74 92 118
78 97 125
76 95 123
76 94 121
76 94 121
77 96 123
80 98 126
78 97 125
77 96 124
78 97 125
79 97 125
74 93 122
78 97 125
78 96 124
76 94 121
76 93 120
75 94 122
76 94 121
77 96 125
76 94 122
76 94 122
77 96 125
74 93 121
78 96 123
73 91 119
74 93 120
78 96 124
75 93 120
78 96 123
78 97 126
76 94 122
73 91 118
76 95 123
75 94 122
75 93 120
76 95 123
76 94 122
77 95 122
78 96 125
76 95 123
74 93 120
76 94 121
77 94 121
75 94 121
73 91 118
72 91 120
75 94 122
73 90 117
76 95 123
77 96 124
75 94 122
77 95 122
75 93 120
77 95 123
73 91 118
75 93 119
75 94 122
78 96 123
75 94 122
74 91 117
76 93 120
72 90 116
75 92 119
76 94 121
77 96 124
71 89 115
76 93 119
76 94 120
73 91 118
74 93 121
73 91 117
74 92 120
73 90 117
73 92 119
77 95 121
71 88 113
75 93 121
74 92 119
75 93 120
70 87 113
73 90 117
73 91 119
74 91 116
71 88 115
69 85 110
68 85 110
71 88 115
72 89 114
72 89 115
70 87 113
71 90 117
69 85 110
69 86 112
73 89 115
75 93 120
69 85 109
67 83 108
71 87 111
73 91 118
68 85 109
67 82 104
69 86 111
71 89 115
67 83 108
68 84 107
72 88 112
64 80 105
68 83 106
70 86 110
66 82 106
66 82 106
64 79 102
68 84 108
70 87 112
65 80 102
62 76 97
68 83 106
66 81 104
64 79 101
67 83 105
68 83 105
65 80 103
66 82 105
66 81 103
64 77 98
65 79 101
56 68 87
63 77 98
63 77 98
56 68 86
58 71 91
65 79 99
59 72 91
55 68 87
58 69 87
51 62 79
64 77 98
61 73 92
61 73 92
62 74 93
53 63 79
49 60 76
49 60 76
50 60 75
45 55 69
55 66 82
47 57 72
46 56 71
52 63 79
50 60 76
47 56 70
51 61 78
47 58 73
52 64 81
50 60 75
47 57 72
47 57 72
52 62 77
47 57 72
55 66 83
49 60 75
54 65 82
50 60 75
50 60 76
46 56 72
47 57 73
46 56 71
53 63 79
53 64 80
50 61 76
54 66 83
45 55 69
50 61 77
55 65 82
46 56 72
50 61 78
47 57 73
51 62 79
52 62 78
54 65 82
51 61 77
49 60 76
49 60 75
51 62 78
53 64 80
51 62 78
48 58 74
55 67 83
52 62 79
50 61 77
54 65 81
53 64 80
56 67 84
48 58 73
50 61 77
50 61 77
52 63 80
48 59 75
49 59 74
47 56 71
51 63 80
49 60 75
55 67 84
48 59 75
50 61 77
49 60 75
56 67 83
48 57 72
47 57 71
46 56 71
48 57 72
46 56 70
54 65 82
50 61 77
57 69 87
56 67 85
61 73 92
58 69 87
58 70 89
61 75 95
66 80 101
57 70 89
63 77 97
60 74 95
61 74 94
63 77 99
65 79 100
65 79 101
58 71 91
63 77 98
66 81 103
66 80 101
62 77 99
65 79 102
69 84 107
68 84 107
63 78 101
62 78 100
66 82 105
66 81 104
69 85 109
66 82 106
67 83 106
63 78 100
69 85 108
68 84 109
69 86 111
70 87 114
69 85 110
68 83 106
70 87 113
66 81 104
68 84 108
71 88 114
69 85 110
68 83 107
71 89 116
69 85 109
68 85 110
73 90 116
71 87 112
71 88 114
68 85 110
78 97 125
69 86 112
70 88 113
72 90 117
75 93 119
70 87 114
72 90 117
71 88 113
70 87 112
73 90 116
72 89 115
71 89 115
73 90 116
74 92 119
74 93 120
77 95 123
73 90 116
74 92 120
72 90 116
74 92 119
76 93 119
77 95 122
74 93 120
75 93 120
74 92 119
74 91 117
78 96 123
75 93 120
73 92 121
76 95 122
73 91 118
74 93 121
74 93 120
73 91 118
76 94 121
76 94 121
76 95 122
74 92 120
75 91 116
76 95 123
77 95 123
77 96 125
73 92 120
74 92 120
73 91 119
76 94 121
75 94 121
77 96 124
75 94 122
76 95 123
78 96 124
77 95 123
76 95 122
73 91 118
75 94 123
79 97 125
78 97 125
75 93 121
75 93 121
76 94 122
79 98 125
74 91 116
78 96 124
78 96 124
79 97 126
77 96 123
74 93 121
73 91 117
78 97 126
72 90 117
75 94 122
74 93 121
75 94 122
76 94 122
76 94 121
74 93 120
75 93 119
78 96 124
75 94 122
74 93 120
77 96 124
76 94 121
79 98 126
75 94 121
74 93 122
75 92 119
77 96 123
79 97 125
79 98 127
77 95 122
76 95 123
78 98 127
76 95 124
78 97 126
76 95 124
75 94 122
76 96 125
80 97 123
76 95 123
76 95 123
76 94 123
79 98 126
76 93 120
76 95 122
78 96 124
79 97 124
78 97 127
78 97 125
77 96 123
78 97 125
77 96 124
80 99 127
77 97 127
77 95 123
76 95 124
77 95 123
79 98 125
78 97 125
72 92 121
76 95 123
78 97 125
79 98 127
76 95 123
77 96 123
77 95 123
78 97 126
78 97 124
79 98 126
78 96 123
79 98 126
78 97 125
75 93 121
75 94 122
78 97 126
74 91 117
76 95 123
78 97 125
78 97 125
78 97 126
77 95 122
78 97 125
78 97 126
77 95 122
74 93 122
75 94 122
77 97 126
78 96 124
78 97 126
75 93 121
77 96 123
76 95 123
75 94 123
76 95 123
76 94 122
77 96 124
75 93 119
74 92 119
74 92 119
75 94 122
78 97 125
81 99 126
78 96 124
78 96 124
76 94 120
77 95 122
73 91 119
75 93 121
77 96 123
77 96 123
75 95 125
75 94 123
78 96 124
74 92 118
77 95 123
74 92 120
79 97 125
72 90 117
74 92 120
75 94 121
75 94 121
76 95 123
75 94 122
77 95 123
75 93 120
77 96 124
74 93 121
74 92 119
72 90 118
76 95 123
75 94 122
74 92 120
77 95 122
73 91 118
73 92 119
73 92 120
76 95 124
78 96 123
73 91 119
77 95 122
73 91 117
73 90 116
76 95 123
72 89 115
71 90 117
77 95 121
77 94 121
76 94 121
72 89 114
74 92 119
70 87 113
75 92 118
74 93 121
75 93 119
75 94 121
75 92 118
71 88 114
71 88 113
73 90 116
76 94 121
77 96 123
73 90 115
72 89 114
75 92 118
70 87 113
72 89 115
71 90 117
70 88 114
68 85 109
71 88 113
73 90 116
72 89 114
68 85 111
72 90 115
71 87 112
68 86 112
68 84 108
70 86 111
70 87 113
67 83 108
72 89 113
70 86 109
68 85 109
64 79 101
68 84 106
64 79 102
66 82 106
69 86 111
71 88 114
68 84 107
70 86 110
68 84 108
71 87 111
64 78 99
66 81 104
61 77 100
69 85 109
67 82 106
68 84 108
62 77 99
60 74 94
64 78 100
62 77 98
63 77 98
61 75 96
63 77 98
64 78 99
60 74 94
60 74 95
55 67 86
60 73 93
59 72 91
63 76 96
57 69 88
55 66 83
57 68 86
56 68 86
55 66 83
52 63 79
56 68 85
51 61 77
52 61 76
48 58 72
45 55 70
49 59 74
44 54 68
47 57 71
49 59 75
49 59 74
53 64 79
48 57 71
47 57 73
48 58 73
51 61 77
47 57 72
56 68 86
52 63 80
47 57 72
52 62 78
48 58 73
51 62 78
49 60 76
51 63 80
45 54 69
54 65 81
50 60 77
56 67 85
51 61 78
50 60 76
51 62 78
49 59 74
52 62 78
55 66 83
52 63 79
50 61 77
49 59 75
53 63 80
51 62 79
46 56 71
47 56 71
51 61 77
48 59 74
50 60 75
49 59 75
47 56 71
46 56 70
50 60 75
48 59 74
50 61 76
47 57 71
54 66 83
49 59 75
52 62 78
50 61 77
52 62 78
49 60 75
48 58 74
54 65 81
47 56 71
51 62 79
48 58 74
49 59 74
50 60 76
48 58 73
43 52 66
44 53 67
45 54 68
50 60 75
50 61 77
50 60 76
49 59 74
63 75 95
51 61 77
55 67 84
56 68 86
59 71 89
50 60 77
63 76 96
58 70 90
58 72 92
59 72 91
60 72 90
58 71 90
59 73 92
58 71 89
61 75 96
61 75 96
65 79 101
64 79 101
58 71 90
61 75 96
64 79 102
65 80 103
63 77 97
63 78 100
59 72 93
60 74 95
62 77 98
62 77 100
69 85 109
67 83 106
66 81 105
66 82 106
67 83 108
69 85 109
66 82 105
67 84 110
69 86 111
69 85 109
71 88 113
68 84 110
69 86 112
73 89 115
65 82 106
66 83 107
72 90 115
67 82 104
73 91 117
70 87 113
72 89 115
65 81 104
69 86 110
70 87 114
69 87 113
73 90 117
72 90 117
72 88 113
73 91 118
73 91 119
71 88 115
71 89 116
74 91 118
74 92 118
75 93 120
70 88 114
73 91 119
70 87 113
73 91 119
73 90 115
71 89 115
69 87 114
75 93 119
76 94 121
72 90 116
71 87 112
77 95 123
70 88 113
75 93 120
73 91 116
72 90 117
79 96 122
74 93 120
74 92 119
73 91 119
76 94 122
73 91 118
76 95 123
73 92 121
74 92 120
75 93 120
78 96 123
75 93 120
74 92 120
76 95 123
73 91 118
75 93 120
73 92 119
78 96 123
77 95 123
72 90 116
73 91 117
76 94 122
73 91 118
72 90 117
76 94 121
78 95 121
77 96 124
72 89 115
77 96 124
74 93 121
74 92 120
79 98 127
76 94 121
75 94 122
75 94 122
75 92 119
75 93 121
76 95 124
77 95 124
79 98 126
77 96 125
77 97 126
77 96 125
75 93 121
76 95 123
75 93 121
77 96 124
77 95 123
78 97 125
75 94 121
76 94 121
76 96 126
74 92 120
77 96 123
76 94 121
75 93 120
79 96 123
80 98 126
76 95 123
79 97 125
75 93 121
77 96 125
75 94 123
79 98 126
79 98 125
77 96 124
77 96 124
77 96 124
78 97 126
78 98 126
77 96 124
78 97 125
78 97 127
74 93 122
78 96 124
79 98 127
79 97 125
79 98 126
76 95 123
77 96 125
77 96 124
77 95 123
78 97 126
80 99 127
78 97 126
78 96 124
78 97 126
78 97 127
79 98 126
76 95 123
77 96 125
77 96 124
79 98 125
78 97 126
78 98 127
74 92 119
77 95 123
78 97 126
76 94 120
77 96 124
76 95 123
74 94 123
79 97 124
76 95 123
79 97 125
75 94 122
77 96 126
78 97 125
76 96 125
77 96 126
77 96 125
79 98 126
73 91 118
78 96 124
76 94 122
77 96 124
77 96 124
78 96 124
77 95 122
78 97 126
75 94 123
76 94 121
73 91 118
74 92 120
79 98 126
76 95 124
73 92 121
77 96 123
76 94 121
75 93 120
73 91 119
74 93 121
75 93 120
76 95 124
74 92 120
75 95 124
75 95 123
78 97 126
77 95 121
78 97 125
78 96 124
77 97 125
77 96 125
76 95 123
77 96 123
75 93 121
75 94 122
76 95 124
77 96 123
73 91 118
74 92 119
78 96 124
77 96 125
76 95 122
73 92 120
74 92 119
73 92 121
73 90 116
76 94 122
76 94 121
73 91 118
73 92 119
76 94 122
72 90 116
73 92 119
76 94 122
71 88 114
77 95 123
71 89 116
71 89 116
74 92 118
75 93 120
73 91 117
77 95 122
75 93 121
77 94 121
74 92 119
75 92 118
74 91 117
75 93 119
75 94 121
73 90 116
73 91 117
71 89 116
75 93 120
74 91 117
72 90 118
69 86 112
73 91 117
71 89 115
73 90 117
73 90 117
72 90 115
71 88 112
69 86 112
72 89 115
73 89 114
69 85 110
72 89 115
67 84 110
70 86 111
72 90 116
72 90 116
71 88 114
71 88 113
73 90 116
67 83 106
67 83 108
68 84 107
66 81 105
68 85 109
72 89 115
70 86 111
66 82 105
69 85 109
66 81 104
62 77 98
68 84 108
65 81 104
68 84 109
66 82 107
65 80 102
64 79 100
63 77 98
65 81 105
69 85 109
62 77 99
62 76 97
58 72 93
56 69 88
60 74 96
63 77 99
57 71 92
62 75 95
59 73 94
56 68 86
58 72 92
59 71 90
63 76 97
63 76 96
61 75 97
50 62 79
48 59 76
57 70 89
52 63 79
54 65 82
53 64 80
52 63 79
53 63 79
57 68 86
53 63 78
48 58 72
51 62 77
44 53 67
46 55 69
47 56 70
49 58 73
45 54 68
47 57 72
44 53 67
51 61 76
46 56 70
49 60 75
50 61 76
51 61 76
53 64 80
54 64 80
52 63 79
49 59 73
50 61 76
49 59 75
49 59 75
53 64 79
47 57 71
45 55 69
49 60 76
53 63 79
47 57 72
53 64 81
51 62 78
44 54 69
47 57 72
49 59 75
47 57 72
55 65 82
47 57 71
52 62 78
51 61 77
52 63 79
51 62 79
45 54 69
49 59 75
51 61 77
46 56 70
51 61 77
48 57 72
50 60 75
51 61 77
46 56 71
47 57 72
47 56 71
51 62 77
44 54 68
51 61 76
45 55 69
51 61 78
49 60 76
49 60 75
48 58 73
45 55 69
44 53 67
50 60 75
49 59 74
47 56 71
52 62 78
50 59 73
52 63 78
54 65 82
54 64 80
45 55 69
54 64 81
57 68 85
51 62 78
58 70 89
55 66 84
59 72 92
54 65 83
55 67 85
58 71 90
55 67 85
59 72 92
65 79 100
63 77 98
62 76 96
63 77 98
62 75 94
60 73 94
63 77 99
59 72 92
68 83 105
65 81 104
59 73 95
61 74 94
64 79 100
65 80 102
67 82 106
63 77 99
63 78 101
66 82 105
68 83 107
67 83 107
62 76 98
66 82 106
66 82 106
67 83 108
70 87 112
66 82 106
72 89 114
71 87 112
70 86 111
70 86 109
68 84 108
71 87 111
67 83 107
68 83 107
71 88 112
67 83 109
72 88 111
72 90 116
72 88 113
71 88 113
72 90 116
70 87 113
73 91 117
75 92 118
72 89 115
70 87 113
70 87 113
69 85 109
73 90 115
72 89 115
74 91 118
68 84 109
69 86 110
74 92 119
75 93 119
74 92 119
74 92 120
74 92 119
75 93 121
75 93 119
73 92 120
73 90 116
72 91 118
73 91 117
75 94 122
76 94 120
74 92 118
74 91 117
73 92 119
75 93 120
75 93 120
71 89 116
76 95 123
75 94 123
72 90 116
72 88 113
75 92 119
76 94 122
77 96 124
71 89 116
73 91 118
76 94 122
75 93 119
77 94 121
75 94 122
76 94 121
76 94 120
76 95 122
75 93 119
75 93 120
75 93 120
78 96 123
76 94 121
73 92 119
77 96 124
76 95 123
75 94 123
77 96 125
73 92 121
77 96 124
76 95 123
77 95 122
73 92 119
75 94 122
76 94 122
78 96 123
77 95 123
77 97 126
76 94 122
76 93 120
79 98 127
74 93 122
75 93 121
75 94 123
77 96 124
78 96 122
77 96 125
78 96 124
79 97 124
77 96 123
77 96 124
77 96 124
80 98 125
78 97 126
77 95 123
77 96 123
77 95 124
75 94 121
77 95 122
77 95 122
77 96 125
80 98 126
77 95 123
77 95 122
75 93 121
77 96 125
76 95 123
77 96 124
75 94 124
78 97 126
77 96 125
76 94 122
79 98 126
76 95 124
75 94 122
74 93 121
77 95 124
78 97 126
79 98 127
78 97 126
77 96 124
78 96 123
76 95 123
76 96 125
75 94 122
77 96 124
77 96 124
78 97 125
77 95 123
77 97 126
76 95 125
76 95 124
76 95 124
75 94 122
77 95 123
76 95 123
77 96 126
74 93 121
76 95 124
76 96 125
75 94 122
78 97 125
78 97 124
77 94 121
76 94 122
76 95 123
77 95 123
77 95 123
76 96 125
74 92 119
78 97 125
80 99 127
76 95 124
77 96 124
76 95 123
74 92 119
77 96 124
76 94 123
76 95 123
73 91 120
78 97 125
77 95 123
73 92 120
76 93 120
76 95 124
75 93 121
72 91 119
75 93 119
76 95 122
76 94 122
77 95 121
76 95 123
76 95 122
77 96 125
73 90 116
80 99 127
76 94 122
77 95 122
77 96 124
76 94 121
78 97 124
77 96 123
76 95 123
77 95 122
75 93 119
77 95 123
78 97 126
77 95 122
76 94 121
77 95 123
73 91 118
75 93 119
74 92 119
70 88 114
74 92 118
76 95 124
75 93 119
77 95 123
76 94 121
75 93 120
75 94 122
75 93 120
74 91 116
76 94 121
74 92 118
72 90 116
74 92 119
75 92 118
74 92 120
76 94 121
75 93 120
74 91 116
73 91 119
76 94 120
72 91 119
74 91 117
74 93 121
71 89 115
74 92 120
72 90 116
75 93 121
73 90 117
72 89 113
74 92 118
70 87 112
73 90 115
72 89 114
77 95 123
69 85 109
69 86 111
70 88 115
71 88 113
74 92 120
71 88 114
73 91 117
68 84 109
71 89 116
71 88 114
71 88 114
66 82 106
71 88 114
70 86 110
69 85 110
71 89 115
67 83 108
68 83 107
69 85 110
69 85 109
68 84 107
72 90 116
69 85 111
61 76 98
69 85 109
67 82 106
66 83 107
70 86 110
69 85 109
65 81 103
67 82 105
68 84 109
73 89 114
66 82 106
67 83 107
63 77 98
64 79 101
61 75 96
66 81 104
67 83 106
63 77 97
65 79 100
66 80 102
64 78 100
60 73 92
62 75 96
60 73 93
56 69 87
61 74 95
64 77 97
60 74 95
64 77 98
63 77 97
57 70 88
57 70 88
55 67 85
59 71 90
62 75 95
55 66 83
51 62 78
51 62 78
47 58 73
60 71 88
52 62 78
56 67 84
54 64 80
49 59 73
51 61 76
43 51 65
49 58 73
49 58 73
49 59 73
50 60 75
48 58 72
49 59 74
45 55 69
49 59 74
45 55 69
46 56 69
47 57 73
50 60 76
45 55 69
47 57 72
49 59 74
50 60 76
47 57 71
45 55 70
51 62 78
50 60 75
50 60 76
53 63 79
51 61 77
50 61 78
50 60 75
54 65 81
53 63 79
52 63 79
51 61 77
47 56 71
47 56 70
48 59 74
47 57 71
45 55 70
51 61 77
50 60 76
54 65 81
48 58 73
49 60 75
46 56 70
49 59 74
45 55 70
49 58 73
52 63 78
50 60 75
49 60 76
47 57 72
49 59 76
48 58 73
50 60 75
52 63 80
48 58 74
49 59 73
45 55 68
42 51 64
46 55 69
52 62 78
44 53 66
46 55 69
53 63 79
51 62 79
61 74 92
57 69 86
55 67 84
53 64 80
55 66 83
60 73 92
56 67 85
59 71 90
56 68 86
58 70 88
56 67 85
59 72 91
60 73 92
57 70 89
63 76 96
62 76 97
66 80 101
64 79 100
61 75 95
62 76 97
61 75 96
66 81 103
64 80 103
62 77 99
64 78 99
69 84 108
68 84 108
62 77 99
63 77 98
68 83 105
72 88 113
61 76 98
64 79 103
69 84 107
67 82 105
69 85 108
68 83 106
71 86 110
70 87 112
68 84 108
69 85 110
68 85 110
67 83 108
68 84 108
68 85 109
71 87 111
70 87 112
66 82 105
71 88 113
70 87 112
70 86 111
71 88 113
70 87 113
69 87 113
74 92 118
71 88 113
70 88 113
72 89 115
71 88 113
69 85 110
72 90 115
72 89 115
71 88 114
71 88 114
70 86 111
74 92 118
74 92 118
74 91 117
73 90 117
72 89 115
73 91 119
71 88 113
73 91 118
73 91 117
76 94 120
76 93 118
75 93 119
74 92 119
72 90 117
75 92 119
75 93 121
74 92 118
73 91 117
74 92 119
74 92 120
75 93 120
72 90 117
76 94 120
74 92 119
72 91 119
73 92 120
72 90 116
74 91 117
75 92 119
73 91 119
73 90 117
74 93 121
71 89 116
74 93 121
75 94 123
75 94 121
72 89 116
76 95 124
78 96 122
78 96 124
77 97 125
73 92 120
78 97 126
78 96 124
74 93 120
74 92 119
78 97 125
74 93 122
77 95 123
75 93 119
72 91 119
77 96 125
75 94 122
75 93 120
77 96 124
75 93 120
74 93 121
75 94 122
77 95 123
75 94 122
78 97 126
76 95 123
79 97 124
75 93 121
74 92 119
76 94 122
76 93 120
78 96 124
77 94 121
77 95 123
77 96 124
77 95 122
79 98 127
78 97 126
78 97 125
77 96 126
78 97 126
77 96 125
76 95 124
78 96 125
76 95 122
80 98 126
75 93 120
76 95 123
75 93 120
76 95 124
75 94 121
75 94 123
78 97 125
78 97 125
78 97 126
79 98 126
76 95 123
76 95 124
75 93 121
77 96 124
75 93 121
75 94 123
80 98 125
76 95 123
78 97 125
78 97 124
78 96 122
77 96 124
78 97 125
77 96 124
79 98 127
76 94 122
77 96 126
78 96 124
77 95 123
78 96 124
75 94 122
74 92 119
78 98 127
77 96 123
78 97 125
76 95 122
80 98 126
78 97 126
78 96 122
78 97 126
76 95 123
78 97 127
79 98 127
78 96 124
75 95 125
75 93 120
75 94 121
75 93 120
76 94 121
76 95 123
77 95 123
75 95 124
75 94 122
78 97 124
76 94 120
77 96 123
79 98 126
78 97 125
76 95 122
75 94 121
76 95 123
76 94 121
76 95 122
74 93 122
78 97 125
75 93 122
76 94 121
78 96 123
73 91 119
75 93 120
78 96 124
77 95 123
73 91 118
78 96 122
77 95 122
76 94 120
73 91 117
76 94 122
76 94 120
75 93 120
76 95 123
76 94 121
75 94 122
74 93 120
79 97 125
75 94 122
75 93 121
75 93 120
76 93 120
75 94 122
73 92 119
73 92 120
73 91 117
71 89 117
76 94 122
75 94 123
72 90 116
75 95 123
72 90 117
71 90 117
75 93 121
75 94 121
73 90 117
75 93 120
75 92 117
73 91 119
74 92 118
73 89 114
78 96 123
73 91 119
71 89 116
70 86 111
71 89 115
75 93 119
72 89 115
74 92 118
73 90 117
73 90 116
73 91 117
75 92 118
70 88 114
71 88 114
71 89 115
67 85 110
70 87 112
73 90 115
72 88 114
71 89 116
70 87 112
67 84 109
67 85 110
72 90 116
70 86 110
68 85 111
69 87 113
68 85 110
71 88 112
70 87 113
73 90 115
69 86 111
72 89 115
72 88 113
68 84 108
65 81 106
68 85 110
68 84 108
70 85 109
68 85 110
64 79 102
70 87 112
67 83 107
68 83 106
64 79 102
73 90 115
71 87 112
62 77 99
67 81 102
67 82 105
64 79 101
65 79 101
68 83 107
67 82 105
63 77 99
62 76 96
67 82 104
61 74 94
68 83 107
67 82 105
65 78 99
61 74 93
62 76 96
62 75 95
60 73 92
54 65 83
54 66 84
54 66 83
64 78 99
52 64 81
59 71 90
59 72 90
59 71 89
55 66 83
47 57 72
61 74 93
52 63 78
51 62 77
53 64 80
54 65 82
46 55 69
44 53 66
48 58 73
42 50 63
50 60 75
46 56 70
47 56 71
45 55 69
49 59 74
47 57 71
48 58 73
43 52 65
47 57 72
50 60 75
54 65 81
46 55 69
49 59 74
46 56 70
50 61 77
48 58 73
47 57 72
47 57 72
49 59 74
47 56 71
46 56 70
50 61 77
52 62 78
50 60 76
51 62 79
53 63 78
55 66 83
49 58 73
49 59 75
46 55 68
46 56 71
45 54 68
52 63 80
55 67 83
45 54 68
47 57 72
52 63 79
55 66 83
45 55 70
44 53 68
54 64 80
50 60 75
49 59 73
44 53 68
44 54 67
46 56 71
45 55 69
46 55 68
48 57 72
48 58 73
44 53 66
42 51 65
44 53 66
47 57 71
49 59 74
48 58 72
44 53 67
48 58 72
50 60 75
45 54 68
51 62 78
52 62 78
52 63 79
54 66 84
52 63 79
60 72 91
55 66 84
56 68 86
62 74 94
56 69 87
53 65 82
55 67 85
60 72 92
60 73 92
60 72 92
56 68 86
63 76 97
58 71 92
61 74 94
62 76 97
59 73 94
67 82 104
63 77 97
60 74 95
66 80 101
62 76 97
62 76 97
64 78 100
66 82 106
65 79 101
64 79 101
66 80 102
67 82 105
67 83 107
65 80 104
67 83 106
73 89 113
66 81 105
73 89 114
68 84 109
67 83 107
70 87 113
67 83 108
67 82 105
72 89 113
68 83 106
71 88 114
71 89 114
67 84 108
64 80 104
69 85 111
70 87 111
69 86 111
69 86 110
71 88 113
70 87 112
73 90 117
72 90 117
66 83 108
74 91 116
73 91 117
71 89 115
73 91 117
68 85 111
72 89 115
70 87 113
72 89 114
71 88 113
75 93 120
71 89 116
74 92 118
71 88 114
72 89 116
69 85 111
74 92 119
73 90 115
76 94 121
73 91 118
73 91 118
71 88 113
77 96 124
75 93 119
72 90 115
74 92 119
74 92 118
74 92 119
78 96 123
74 92 120
75 93 120
71 88 114
73 92 120
74 92 119
75 93 120
72 90 117
74 92 119
76 94 121
75 94 121
76 94 120
75 94 122
70 88 115
76 93 119
76 94 121
75 94 122
76 95 123
77 95 122
74 93 120
74 92 120
73 91 117
76 95 122
77 95 123
77 94 121
75 94 122
75 94 122
74 91 118
75 93 120
76 95 124
77 96 124
78 96 124
77 95 123
73 91 118
75 94 123
76 94 122
77 95 121
76 94 122
71 89 117
77 95 123
73 91 118
77 96 125
76 95 122
78 96 123
74 93 120
76 95 122
75 95 124
76 96 124
75 92 119
78 97 125
76 95 124
77 95 123
76 95 123
74 93 122
76 94 122
77 96 125
78 96 124
78 96 124
78 97 125
76 96 125
75 94 123
78 97 127
77 96 125
76 95 123
77 95 122
76 95 123
77 95 122
75 93 121
76 95 124
77 96 124
79 98 125
75 94 122
78 96 124
77 96 125
75 94 122
79 98 126
73 92 120
75 95 124
78 97 126
76 95 123
77 97 126
78 97 125
76 95 122
77 96 126
78 97 125
78 97 125
78 97 125
78 97 125
77 97 126
78 97 124
79 97 124
76 95 124
73 92 120
78 96 123
78 97 124
79 98 126
75 94 122
79 97 126
74 93 122
79 97 125
76 95 122
76 96 126
76 95 123
80 98 125
77 96 124
79 97 125
76 94 122
77 95 123
78 97 126
78 97 125
76 95 122
79 97 125
77 94 120
79 97 125
75 93 121
76 95 123
76 94 122
77 96 124
75 93 120
77 95 123
73 91 118
74 93 121
77 95 121
78 97 124
77 96 124
77 96 123
74 92 119
77 96 124
77 96 126
74 93 121
78 96 124
73 91 118
76 95 122
73 91 118
78 98 127
77 96 124
72 90 117
76 94 122
75 94 122
74 92 118
74 92 119
73 91 119
75 94 122
74 91 118
76 94 121
75 93 120
71 90 118
75 92 119
74 93 120
76 94 121
77 94 121
76 95 122
71 89 116
72 88 113
72 90 117
75 93 119
73 91 118
69 87 114
74 92 119
70 88 114
76 95 122
73 91 117
73 90 117
76 94 121
74 92 120
70 88 115
68 85 110
73 91 118
72 89 115
75 93 121
73 90 115
72 89 115
75 93 119
75 94 122
73 91 118
71 89 114
76 93 120
72 89 115
72 89 115
73 91 118
72 90 118
69 85 109
74 91 116
69 87 112
71 88 114
71 88 113
71 88 113
74 91 117
73 89 115
70 86 111
71 88 112
70 87 111
73 91 118
68 85 110
65 81 103
71 90 117
69 85 110
71 87 112
68 84 108
70 87 113
72 89 114
66 81 105
68 84 107
68 84 107
67 83 108
70 87 112
71 88 113
72 88 112
69 85 109
65 81 104
66 82 105
68 84 109
70 85 108
63 77 99
66 81 105
63 78 100
64 78 99
62 77 100
68 84 109
70 86 110
60 74 95
63 77 99
62 76 97
70 85 109
64 79 101
63 78 100
63 78 101
63 78 99
58 70 89
60 73 92
65 79 101
59 73 93
62 76 98
58 71 90
61 74 93
55 67 86
58 71 90
57 69 88
55 66 84
58 72 92
56 68 86
59 72 91
61 73 91
51 62 78
50 61 77
51 62 79
53 64 81
50 60 75
56 66 81
48 58 73
54 64 80
48 58 72
47 57 71
44 52 65
41 49 61
45 54 67
44 52 65
43 51 65
44 52 65
43 52 65
46 55 69
48 58 73
45 54 68
43 52 66
46 55 69
47 57 72
49 59 74
40 48 61
50 60 76
43 53 67
45 54 69
46 56 71
51 61 77
49 60 75
49 59 73
43 52 66
50 60 76
44 53 66
50 60 76
45 54 68
50 61 76
43 52 65
47 57 72
51 61 76
48 58 73
50 60 75
45 55 70
50 60 75
46 55 70
45 55 69
47 57 71
43 52 65
43 52 66
46 56 71
47 57 72
48 58 73
50 60 75
46 55 69
43 53 66
43 51 64
46 56 70
46 56 70
45 53 67
40 48 61
49 58 71
50 59 73
43 52 65
47 56 70
50 59 73
48 57 71
54 65 80
51 61 76
55 67 84
52 62 77
58 69 86
52 62 78
56 68 85
57 69 86
49 60 75
56 68 86
52 64 81
61 73 92
50 61 77
63 77 98
60 72 91
56 69 87
55 67 85
58 70 89
55 67 86
64 77 97
59 73 93
63 77 99
62 76 97
66 80 101
63 76 97
65 79 101
60 74 96
60 74 95
69 85 108
60 74 94
64 79 101
61 75 96
66 81 104
67 81 103
64 79 101
63 78 100
67 81 104
66 82 106
72 89 114
65 80 102
67 83 106
65 80 103
65 80 102
64 80 103
65 81 105
70 86 110
72 89 115
66 82 106
68 84 108
70 86 111
70 86 112
71 89 114
70 86 109
69 87 113
72 89 114
74 92 118
68 85 110
75 93 120
69 86 111
68 85 110
72 89 113
72 90 116
72 88 112
71 87 111
71 88 113
70 88 115
73 91 118
71 88 113
72 89 114
73 90 115
75 93 121
73 90 117
71 89 116
70 87 113
74 91 116
72 89 116
74 92 118
75 93 120
70 87 112
72 89 115
72 90 118
73 90 116
74 91 118
74 92 119
73 91 117
76 94 121
74 92 119
74 93 120
74 92 119
75 92 119
73 90 115
71 89 116
72 90 116
75 94 122
77 95 122
74 93 122
71 90 118
74 92 119
74 93 120
74 92 120
71 90 118
77 95 123
72 90 118
74 92 119
76 95 123
76 95 123
74 91 118
73 92 119
77 95 122
74 93 120
72 89 115
75 93 120
77 95 123
72 89 116
76 94 121
75 92 119
75 93 120
78 97 125
76 94 121
75 93 119
77 96 124
75 93 119
73 92 120
76 95 123
76 95 122
73 91 118
78 98 126
75 94 122
75 93 121
75 94 121
75 95 124
77 96 123
76 94 121
74 93 121
75 93 121
74 92 121
75 93 121
75 94 122
73 92 120
73 91 119
77 95 123
73 93 121
76 94 122
76 95 124
77 96 124
78 96 125
77 96 124
78 96 124
75 93 119
76 95 122
75 94 122
78 96 125
77 95 122
78 98 127
78 96 124
78 98 127
75 94 121
77 96 125
76 95 123
78 97 126
75 94 122
79 97 124
77 95 123
77 96 124
77 96 125
78 97 126
79 97 124
75 95 124
76 95 124
79 98 126
76 94 122
76 95 124
81 99 127
77 96 125
77 95 123
77 96 123
78 97 125
74 94 123
77 96 124
78 96 124
77 96 126
76 95 124
79 98 126
74 93 121
75 93 120
76 96 126
77 95 123
78 97 124
76 93 120
78 96 124
77 96 124
77 96 124
78 97 125
78 96 124
77 96 124
74 92 119
75 94 122
75 94 122
76 94 121
77 97 126
76 95 123
74 92 119
75 94 122
76 95 123
77 96 125
76 95 123
77 96 124
73 92 120
78 97 125
76 94 121
74 93 122
77 96 124
77 95 123
74 92 118
75 94 121
76 94 122
76 94 120
73 91 118
75 93 120
75 93 120
77 95 123
77 96 124
76 94 122
75 94 122
76 95 123
76 93 120
77 95 123
76 93 119
76 94 121
75 94 122
77 96 124
74 93 120
72 90 117
73 90 117
76 94 121
75 93 120
74 93 122
76 93 119
74 91 117
74 92 120
75 92 119
74 92 119
76 95 122
72 89 115
71 88 115
73 92 121
73 91 118
73 91 119
75 94 122
73 91 118
72 91 118
75 93 120
72 89 115
70 87 111
75 93 119
74 92 118
75 93 120
77 94 121
71 89 116
73 90 117
73 90 116
74 91 118
72 91 118
76 94 122
73 91 118
75 93 120
72 89 114
74 92 119
73 91 118
70 88 114
72 89 115
74 91 116
73 90 116
74 92 118
73 90 115
69 86 111
70 87 112
70 87 112
71 88 113
66 82 104
71 88 113
73 90 115
72 89 115
72 90 117
68 84 108
71 87 111
73 90 115
71 88 114
74 91 118
67 83 107
65 80 103
67 83 107
71 88 114
66 81 105
68 85 109
71 89 114
67 83 107
75 92 117
64 79 102
69 86 110
69 86 112
67 82 104
69 86 110
65 80 103
63 77 100
67 83 108
71 87 111
58 72 92
65 81 104
66 81 103
64 78 100
67 82 106
63 78 100
64 78 99
55 68 88
60 74 95
66 81 103
60 74 96
64 78 100
63 77 98
60 74 94
55 67 85
57 70 90
62 75 95
60 73 93
59 72 92
56 69 87
58 70 89
58 71 89
54 65 82
59 71 89
57 70 90
51 62 79
56 68 86
52 63 79
51 62 77
47 57 72
51 62 78
47 56 70
51 61 77
51 62 77
46 55 68
46 54 67
53 63 79
45 53 66
44 52 64
42 50 62
39 46 57
42 50 62
48 57 71
45 54 68
48 58 73
46 56 70
49 58 73
44 53 67
50 59 74
49 59 73
48 59 74
47 57 72
53 63 78
46 55 70
41 50 63
50 60 75
44 53 67
48 59 74
44 54 69
50 60 75
47 57 72
51 61 76
49 59 74
45 54 69
45 55 69
42 51 65
49 59 74
44 52 65
48 58 72
45 54 67
51 61 77
46 55 70
47 57 71
46 55 69
45 55 69
46 55 69
49 59 74
43 52 65
50 59 74
43 52 66
46 55 69
43 52 65
39 47 59
47 55 68
44 54 68
48 57 72
45 53 66
37 44 54
47 57 71
42 50 62
43 51 64
48 58 72
48 57 70
44 52 65
53 64 80
50 60 75
52 62 78
48 58 72
51 62 79
48 58 73
49 59 74
55 65 82
60 72 91
55 66 84
57 70 88
57 69 87
57 69 87
59 71 90
64 76 95
58 71 90
60 73 93
57 70 88
57 69 87
55 67 85
57 70 89
65 79 100
62 76 97
63 78 100
64 79 101
63 79 101
62 77 99
58 72 91
63 76 96
66 81 104
65 80 101
62 76 98
64 79 102
62 77 100
72 88 114
65 81 105
69 85 109
64 78 100
66 81 105
65 80 102
64 80 103
67 82 105
62 77 99
66 82 106
67 83 108
68 85 109
64 79 101
68 84 109
69 86 111
67 83 107
72 89 116
68 84 109
70 87 112
66 81 104
73 90 116
68 85 110
73 90 116
68 85 111
68 85 112
70 86 111
70 87 111
68 85 110
73 91 118
71 90 117
68 84 108
74 91 117
73 90 115
71 88 113
68 85 110
72 89 115
69 86 112
73 92 120
73 90 116
71 88 114
75 93 119
72 91 120
73 92 119
71 88 114
71 89 115
70 88 115
74 92 119
76 93 120
72 90 116
72 90 116
70 87 113
76 94 120
75 95 125
74 92 119
74 92 118
75 93 120
73 90 117
76 95 123
72 89 115
74 92 120
75 94 122
73 92 120
75 92 119
76 94 121
74 92 119
75 92 119
75 93 119
74 91 118
77 96 124
77 95 122
78 96 123
75 93 120
76 95 124
76 94 121
76 95 123
79 98 126
72 91 119
75 93 122
77 96 124
72 90 117
72 90 117
77 96 124
75 94 123
76 95 123
77 95 122
72 90 115
76 95 122
75 93 121
75 93 120
77 95 122
76 94 121
72 91 120
78 96 123
75 93 120
75 95 125
76 94 120
76 94 120
76 94 121
77 95 123
72 89 116
77 95 123
74 92 119
77 95 122
77 95 123
80 98 125
76 96 125
74 92 119
76 94 121
75 93 121
75 94 121
75 94 123
78 98 127
75 94 122
74 92 119
77 96 124
77 96 124
77 96 125
76 96 125
77 96 124
75 94 122
77 96 125
77 96 124
77 96 123
77 97 126
78 97 125
76 96 125
76 95 122
78 97 126
76 95 123
77 95 123
75 94 122
76 95 123
77 96 125
78 96 124
78 97 126
76 95 123
77 96 125
76 95 123
78 97 126
77 95 123
77 95 122
76 95 124
77 95 123
76 94 121
79 98 126
76 95 123
75 95 124
75 94 122
78 97 127
77 95 123
76 95 124
78 96 124
78 97 125
73 91 118
77 96 125
74 92 119
74 92 120
75 95 123
79 97 123
78 95 122
78 96 125
78 97 125
78 97 126
76 94 121
75 94 122
73 92 120
77 95 124
75 94 121
76 96 126
75 94 122
75 93 119
77 96 124
76 94 122
72 90 116
74 92 119
75 95 123
75 93 121
76 94 123
75 93 119
77 96 123
76 95 123
75 93 120
74 92 119
77 94 121
77 96 124
76 94 121
75 94 122
76 94 122
73 91 119
73 91 119
74 92 119
75 93 121
75 93 120
75 94 123
78 96 123
77 94 121
72 90 116
73 90 117
73 91 118
75 93 121
73 91 119
72 90 116
73 90 116
71 89 115
75 93 120
76 95 123
76 95 123
75 92 119
72 91 119
75 93 121
73 91 117
69 87 113
74 92 119
73 92 119
75 93 121
74 92 119
73 90 116
72 90 117
71 88 114
74 92 119
73 91 118
71 89 115
73 90 116
68 86 112
75 93 121
74 92 119
75 93 120
72 89 115
74 93 121
74 92 118
72 90 116
69 86 112
69 86 111
71 89 117
75 93 120
72 89 115
69 86 110
70 87 112
70 86 111
71 87 112
72 89 115
71 89 115
68 85 110
68 84 107
71 88 115
76 93 119
69 86 112
71 89 115
69 86 111
72 88 112
72 88 113
71 87 112
66 82 106
75 92 117
66 82 105
71 87 111
68 85 111
67 82 104
66 81 105
67 82 105
71 87 111
65 80 103
68 84 108
72 89 114
64 79 100
65 80 103
65 80 103
67 82 104
65 81 103
64 79 100
63 78 102
67 83 107
65 79 101
66 82 106
59 74 95
65 79 100
67 82 104
65 79 101
61 75 96
66 80 102
58 71 91
64 79 100
60 73 93
62 76 96
62 76 97
58 71 90
59 71 90
56 67 84
55 67 86
61 74 93
55 67 85
61 75 96
54 66 84
57 70 89
54 66 84
57 69 87
51 62 78
56 67 84
55 66 83
53 64 80
56 68 86
52 61 76
54 66 83
53 64 80
47 56 69
52 63 79
43 51 64
49 59 73
51 61 75
44 53 66
48 57 70
41 49 61
48 57 70
49 58 71
45 53 64
46 54 67
35 42 53
43 52 64
40 48 60
44 53 65
43 52 65
46 55 69
42 51 65
45 55 69
47 57 71
46 55 68
46 55 69
47 57 71
47 57 71
45 54 68
45 54 67
42 51 64
46 56 71
47 56 70
46 55 69
48 57 71
49 59 74
51 61 77
48 58 73
45 54 67
46 55 69
43 51 64
49 59 74
43 52 65
50 60 75
44 53 67
46 55 69
48 58 72
46 56 70
42 51 64
47 57 72
40 47 59
44 53 67
45 53 66
43 52 65
50 60 74
43 51 63
39 47 58
45 54 67
47 56 69
38 46 57
45 54 67
48 57 72
45 53 65
52 62 77
48 57 71
53 64 81
50 60 75
51 60 75
60 72 90
51 62 77
54 65 82
55 66 83
54 64 80
57 69 86
46 56 70
54 66 83
61 74 93
59 71 89
55 66 83
57 69 87
59 73 93
62 76 96
60 73 93
63 77 97
60 72 90
63 77 98
60 74 95
62 76 97
63 77 98
59 72 91
62 75 95
64 78 100
68 82 104
63 77 99
69 85 108
62 76 96
61 74 94
64 78 99
68 84 109
65 79 101
63 78 99
66 81 104
65 81 105
64 80 103
65 80 103
65 80 104
64 78 100
69 86 110
69 85 109
65 82 107
69 85 109
67 82 106
64 79 101
65 80 102
67 82 106
69 84 107
68 84 109
71 88 113
68 85 110
66 81 103
70 86 109
72 90 116
72 88 113
73 90 115
67 84 110
68 85 110
70 87 113
71 89 117
69 85 110
70 87 113
66 82 105
71 89 115
71 88 114
72 89 115
73 91 117
71 89 115
72 89 114
71 88 113
74 92 119
72 90 116
73 91 118
71 87 113
68 85 110
72 89 115
75 93 120
73 90 116
68 84 109
73 90 116
74 91 117
72 89 116
72 90 117
74 92 118
75 92 118
73 91 118
75 93 120
76 94 121
74 92 117
73 90 117
75 95 124
71 89 115
73 91 118
76 94 120
72 89 116
77 96 124
74 91 118
75 93 120
74 92 118
77 95 122
74 93 120
75 93 120
73 91 117
76 95 123
74 91 117
75 94 122
76 95 123
75 94 123
75 93 119
74 94 123
76 94 121
77 95 122
73 90 117
76 95 122
74 92 120
77 95 123
77 95 122
78 96 124
74 91 118
74 92 120
73 91 118
75 93 119
76 95 123
75 94 122
76 94 122
71 90 117
77 95 121
75 94 122
73 92 120
79 97 124
75 95 125
78 97 125
76 95 123
76 95 124
76 93 120
76 95 123
74 93 120
73 91 119
76 93 119
77 94 121
76 93 120
79 97 124
75 93 121
75 94 123
77 96 125
77 96 125
75 95 125
78 96 124
77 96 124
77 96 124
79 98 127
77 96 124
76 94 121
77 97 126
74 93 121
76 94 122
76 95 123
78 98 127
78 97 125
77 97 126
76 96 124
78 97 125
77 96 124
76 96 125
74 93 122
77 96 125
76 96 125
76 95 123
74 92 118
76 94 121
76 95 123
79 98 126
78 97 127
78 97 125
75 94 123
78 97 126
75 94 122
76 95 123
76 94 122
78 97 125
76 94 123
79 97 125
74 94 123
76 95 124
76 95 124
77 96 124
76 96 125
76 95 122
72 91 119
75 94 122
78 97 125
77 95 123
76 95 122
74 94 122
74 92 119
75 93 120
74 93 121
77 95 122
76 95 123
76 95 122
76 94 122
76 94 122
75 93 121
76 96 125
78 96 123
79 98 127
75 93 120
77 96 123
78 96 122
75 93 120
75 93 121
76 94 121
76 95 124
73 92 120
71 89 115
75 95 124
74 91 117
75 93 120
74 92 118
80 98 126
75 93 121
77 93 119
72 90 117
76 95 123
75 93 120
75 94 122
75 94 122
77 95 120
74 91 118
74 93 120
75 93 120
72 90 116
76 95 123
73 92 120
73 91 118
76 95 124
76 95 123
75 93 120
76 95 123
74 92 119
74 91 117
72 91 120
73 93 122
74 93 120
74 93 120
73 91 119
74 92 119
77 95 121
76 94 121
73 92 119
77 95 122
74 92 118
74 92 119
72 89 115
71 89 116
70 87 113
68 86 111
73 90 116
69 87 113
75 93 119
74 91 117
74 91 117
68 85 109
73 91 117
73 91 118
74 92 119
71 88 114
72 89 114
70 86 111
69 86 111
72 90 116
71 88 113
71 88 114
65 80 103
71 87 112
71 88 114
70 87 112
74 91 116
71 88 114
68 85 110
72 88 113
69 87 113
69 86 110
69 86 110
68 85 109
68 84 107
68 85 110
70 86 109
69 85 109
69 85 109
66 80 101
69 85 109
70 87 113
70 87 112
64 80 105
71 87 111
60 74 94
65 80 103
67 83 106
65 80 102
66 81 104
60 73 93
63 78 100
70 86 110
59 73 93
67 82 104
68 84 109
67 82 104
63 76 97
65 80 102
65 79 100
62 76 97
63 77 98
59 72 92
57 70 90
65 79 100
67 82 104
62 75 94
59 72 92
60 73 92
63 77 98
64 78 99
58 71 90
61 74 94
54 66 84
57 69 86
61 74 93
57 70 88
54 65 82
50 60 76
53 64 79
47 58 73
43 52 66
57 67 84
54 64 80
53 63 79
52 63 78
45 54 67
51 61 75
44 54 68
47 56 69
49 58 72
48 58 72
46 55 68
45 53 66
39 47 58
38 45 56
38 45 56
41 49 60
38 46 56
40 47 58
43 52 65
40 47 59
40 48 60
44 53 67
45 53 66
40 48 60
42 51 64
45 54 67
42 51 64
51 61 76
45 54 68
48 59 74
49 59 74
47 56 70
44 53 66
40 49 62
45 54 69
45 55 69
49 59 73
45 54 67
46 56 70
37 44 56
39 46 58
42 50 63
40 48 60
40 48 60
41 49 61
45 54 67
43 51 64
43 52 64
39 46 58
44 52 64
43 51 62
42 50 61
38 45 56
37 44 55
39 46 57
44 52 64
38 45 56
44 52 65
49 59 73
45 53 66
48 58 72
43 51 64
53 64 80
45 54 68
50 60 75
50 59 74
52 62 78
48 57 71
54 65 80
51 62 78
55 66 83
51 61 77
56 68 86
56 67 85
52 64 81
51 63 80
51 62 77
56 68 86
56 68 86
57 69 87
56 67 84
60 73 92
58 70 89
59 72 92
61 74 94
60 74 95
64 79 101
60 73 94
58 71 89
59 71 90
59 74 95
64 79 102
69 84 107
66 82 106
61 74 94
67 82 105
64 78 99
61 75 96
65 80 102
64 80 103
65 80 103
68 84 107
63 76 97
65 79 100
70 87 111
65 80 103
67 83 106
65 81 106
64 78 100
71 88 113
67 82 106
63 78 100
67 84 108
73 90 115
69 85 110
65 80 103
70 86 111
67 84 111
69 85 109
66 81 104
75 93 119
73 90 116
68 84 108
72 88 112
71 88 112
70 87 111
75 91 116
73 91 118
68 83 107
71 87 112
72 89 115
68 84 107
73 90 116
71 88 114
69 86 111
71 89 115
76 93 120
72 89 114
73 91 119
74 92 119
69 86 111
74 92 119
73 90 116
71 88 113
73 90 116
73 91 118
69 85 110
71 89 115
72 90 117
74 92 119
75 93 120
72 89 114
71 88 113
75 94 122
71 89 116
74 92 120
73 90 116
75 92 118
72 90 116
77 94 121
75 93 120
73 92 121
74 92 118
74 92 119
76 94 121
76 94 121
72 89 115
72 91 118
73 91 118
73 91 119
72 90 116
75 94 121
76 95 124
75 94 124
76 94 121
77 95 123
76 96 125
71 89 115
71 88 115
74 92 119
78 95 122
75 93 120
73 91 117
74 91 117
76 95 123
71 89 116
76 95 123
78 97 125
73 91 119
76 94 122
73 91 120
78 97 127
77 95 123
76 94 121
76 94 122
78 97 125
76 95 122
77 95 122
74 93 120
76 94 122
75 92 118
76 94 119
78 96 123
78 97 125
78 96 124
76 94 123
75 94 122
75 94 123
74 92 120
76 95 123
75 95 124
78 96 123
77 96 124
73 92 120
76 95 123
76 95 125
79 98 126
78 96 124
76 95 123
76 95 123
74 93 121
76 95 124
79 98 126
79 98 126
75 94 122
77 96 124
78 96 124
76 96 125
78 97 125
76 94 120
78 97 125
78 97 124
79 97 124
78 97 124
77 97 126
76 95 123
76 95 122
76 95 123
78 97 125
77 95 121
76 94 122
76 95 124
75 94 123
77 96 124
76 95 124
77 96 125
75 93 121
79 97 124
78 98 126
75 93 120
75 95 125
73 91 119
76 95 122
77 95 123
74 93 120
76 95 124
76 95 122
78 96 123
76 95 123
74 93 122
76 95 123
76 95 122
77 95 122
78 97 126
75 94 122
75 94 123
73 91 119
77 96 126
75 94 122
76 94 120
75 94 123
75 93 120
75 95 125
75 94 122
77 94 121
74 93 121
73 91 118
73 91 117
75 94 122
77 94 121
76 94 122
76 95 123
76 95 122
76 94 121
76 94 122
75 93 120
73 91 119
75 94 121
77 95 122
73 92 120
74 92 119
77 95 122
74 92 120
75 94 122
77 96 123
74 92 119
73 91 117
75 93 121
71 89 116
73 92 119
72 90 117
73 90 117
73 91 117
77 96 124
75 93 120
75 92 118
74 92 119
71 88 114
74 93 120
73 91 116
71 89 116
76 94 121
76 94 121
75 94 122
73 91 118
71 89 115
74 93 120
75 93 119
71 89 115
73 90 117
72 90 117
74 92 119
72 89 116
72 89 114
69 87 112
72 89 115
72 89 115
72 89 113
75 93 121
72 89 114
72 90 117
75 92 119
70 86 110
70 87 113
73 89 113
72 88 113
72 88 113
70 86 111
73 89 114
73 89 114
67 84 108
71 88 112
68 85 111
72 89 114
70 88 116
68 84 108
73 91 117
68 85 111
69 87 113
73 90 115
71 89 115
68 83 107
68 84 107
70 87 112
71 89 115
67 82 105
69 86 112
65 81 105
67 82 104
70 86 109
63 78 101
62 77 99
66 81 104
65 81 104
71 88 113
64 79 100
66 81 104
68 83 106
66 81 104
64 79 102
56 69 89
69 85 108
67 83 107
65 79 100
68 83 106
64 78 99
60 73 93
65 80 103
61 74 94
60 74 95
66 81 104
56 68 87
62 75 94
58 71 91
63 77 97
56 68 85
57 70 89
62 75 96
54 65 82
59 72 91
58 71 89
62 75 95
58 70 89
56 69 87
57 69 87
57 68 85
56 68 86
53 64 81
57 69 86
48 57 71
58 69 86
45 54 68
51 61 76
49 59 74
50 60 76
48 57 71
41 49 61
46 55 68
46 56 69
49 58 72
38 45 55
40 47 59
45 53 66
44 52 63
37 43 54
36 42 52
47 56 68
41 48 60
35 42 52
34 40 49
44 52 64
36 43 54
36 42 52
39 47 58
39 47 59
39 46 57
44 53 66
44 53 66
42 50 63
45 54 67
41 49 62
41 48 60
46 55 68
45 53 67
41 48 60
46 55 69
44 52 65
35 42 53
42 50 63
43 52 65
41 49 61
47 56 69
46 54 67
39 47 58
31 37 46
38 44 55
42 50 62
36 42 52
32 38 47
38 45 55
44 52 64
39 47 57
39 46 57
50 59 73
38 45 55
44 52 63
44 52 65
40 48 59
49 59 73
39 46 58
46 55 68
50 61 76
50 60 74
53 64 80
51 62 77
55 66 82
57 68 85
53 63 79
51 62 77
59 72 90
49 59 74
58 70 88
54 65 81
54 66 84
51 62 78
56 68 85
58 72 91
56 68 87
57 69 88
54 65 83
60 73 94
53 64 81
59 72 91
52 64 81
61 74 93
57 69 88
60 74 94
62 76 97
57 69 87
61 74 95
62 76 96
62 77 98
61 74 94
61 76 97
65 79 100
62 77 99
63 77 97
65 79 101
61 75 96
66 81 104
68 83 106
59 72 92
68 82 104
69 86 111
69 85 110
68 83 106
68 84 108
64 80 105
66 81 104
64 79 101
70 87 112
72 89 114
69 87 113
67 84 108
63 77 97
65 81 104
68 85 111
73 90 116
71 89 115
68 84 109
70 86 111
69 86 111
70 86 111
72 89 114
70 86 111
73 90 115
69 86 111
71 87 112
62 78 101
70 87 113
73 90 117
74 92 119
69 86 111
71 88 112
74 92 118
68 85 111
70 87 112
72 90 117
71 88 114
71 90 118
73 90 115
74 91 117
69 86 112
74 92 118
72 89 115
74 91 117
69 87 113
74 92 120
74 91 117
71 90 118
73 89 114
69 86 111
72 90 117
76 93 120
74 93 121
72 89 114
69 86 113
74 91 117
73 90 116
72 90 116
77 95 121
70 87 114
74 93 122
73 90 117
73 91 119
75 93 121
76 94 120
75 92 119
76 95 122
74 93 120
73 91 119
75 93 120
74 91 118
76 94 120
75 94 122
79 97 125
76 94 121
74 93 121
76 95 123
76 94 120
77 95 123
77 96 123
75 93 121
70 88 115
76 95 122
73 91 117
74 93 121
75 94 121
78 97 125
75 94 122
75 94 121
74 94 123
78 97 125
74 93 120
77 95 122
77 94 121
77 95 122
74 92 119
74 93 120
75 94 122
72 89 116
76 95 124
78 97 125
73 92 119
76 94 121
77 95 123
78 96 125
75 94 121
79 98 126
74 93 121
77 96 123
77 95 122
77 96 126
77 96 123
79 97 124
78 96 124
74 93 120
76 95 123
74 93 122
76 95 124
76 95 123
78 98 127
76 95 124
79 98 127
79 98 127
77 96 124
75 93 120
75 93 121
75 95 123
76 95 122
78 97 125
78 97 126
75 93 120
79 98 127
76 94 122
74 93 120
79 97 125
78 96 123
77 96 125
75 94 122
79 98 127
77 95 123
76 95 123
75 93 121
78 96 123
77 95 123
77 96 123
75 93 121
76 96 125
77 96 124
77 95 122
75 94 123
75 93 120
72 90 118
75 94 123
76 94 121
76 95 122
76 95 122
76 95 122
78 96 123
75 94 122
75 94 122
77 96 125
77 96 125
75 93 120
79 97 125
73 92 121
76 94 120
76 94 121
74 93 121
77 95 123
76 95 122
73 92 121
77 95 123
77 95 122
76 94 121
75 93 121
75 94 121
76 95 124
77 95 123
75 95 124
75 93 120
73 91 118
75 93 121
74 93 121
75 94 122
72 90 117
74 92 119
75 93 121
74 93 121
74 92 121
76 95 124
71 89 116
78 96 122
76 93 120
72 89 116
75 92 119
76 95 123
72 90 116
73 91 119
75 93 120
73 90 117
73 90 116
78 96 124
75 94 123
75 94 122
73 92 122
75 94 123
76 94 120
74 91 118
75 94 122
75 92 118
72 90 116
75 92 119
75 93 121
73 91 118
73 90 116
74 91 117
73 91 118
72 89 116
71 89 116
74 92 118
74 91 118
75 93 120
74 91 116
69 86 112
73 90 117
72 90 118
72 91 120
71 89 115
72 89 114
73 90 116
67 82 106
71 89 115
70 87 113
66 82 108
72 89 115
71 87 112
69 85 111
74 92 118
71 89 115
68 83 106
71 87 112
74 92 118
72 88 113
70 87 112
69 86 111
70 86 110
68 85 110
67 83 108
71 87 111
73 90 116
70 86 110
70 87 113
66 82 106
65 81 105
66 82 106
65 81 105
67 83 106
66 81 104
70 87 113
65 81 104
66 81 104
64 79 102
64 79 101
66 82 105
70 85 109
66 83 107
65 80 102
61 75 96
68 83 105
60 75 96
63 77 97
62 75 95
58 71 91
63 78 99
67 81 103
59 72 92
64 77 98
59 71 91
62 75 95
65 79 101
62 76 97
61 74 94
61 74 93
55 67 85
61 74 93
61 76 97
52 64 80
58 71 89
55 67 85
56 67 85
61 73 92
58 70 88
55 66 82
54 65 82
53 65 82
55 67 85
51 61 77
56 67 84
50 61 76
55 67 84
46 56 70
47 56 70
47 57 71
48 58 72
47 56 70
51 61 75
44 52 65
46 55 68
42 50 62
48 57 71
40 48 59
41 49 61
44 52 65
45 53 65
43 50 62
46 55 68
46 54 66
34 40 49
41 48 58
40 47 58
35 41 50
44 52 63
28 32 40
30 35 42
40 47 57
37 43 52
34 40 49
37 44 54
34 40 50
36 42 53
41 48 58
32 38 46
36 42 52
39 46 57
32 38 48
39 46 57
31 37 45
33 39 48
36 43 53
36 42 51
34 40 48
37 43 53
39 46 56
35 41 51
38 45 55
38 45 55
42 49 61
36 43 53
39 45 55
40 47 58
47 56 69
45 53 66
39 47 58
46 55 68
44 52 64
45 54 66
43 52 65
44 53 66
47 56 69
51 60 74
52 62 77
52 63 79
50 60 76
56 67 83
48 58 73
44 53 67
53 64 81
56 67 84
54 66 83
57 68 84
57 69 87
54 65 81
55 66 83
57 69 86
54 66 83
61 74 94
63 77 98
56 68 86
56 68 87
61 75 96
62 75 95
59 72 91
61 76 97
58 71 92
61 74 93
63 77 98
61 74 94
65 79 100
61 74 94
68 83 105
61 76 97
59 74 95
68 83 107
63 78 100
66 81 103
68 83 106
65 80 101
65 80 103
68 84 109
62 76 96
65 80 103
69 84 108
62 77 99
70 87 113
63 79 101
64 79 103
68 84 108
62 76 98
70 86 109
69 86 111
67 83 106
70 86 111
65 80 104
66 81 104
71 88 114
69 86 112
69 85 109
68 85 111
73 91 117
70 86 110
70 88 115
72 89 114
70 86 110
73 91 117
69 86 112
73 90 117
72 88 113
66 81 105
64 80 104
75 92 119
70 87 113
71 88 112
72 90 116
71 88 112
71 87 110
72 90 116
66 82 106
71 88 114
71 88 113
74 92 120
69 87 113
76 93 120
71 89 116
71 89 116
74 91 117
72 90 117
75 92 118
76 94 120
73 90 115
74 91 117
74 92 119
73 91 118
76 94 120
74 92 119
69 87 113
73 91 118
75 93 120
71 89 115
74 91 117
78 96 124
74 92 119
76 93 119
75 92 119
74 92 119
75 93 120
76 95 122
72 90 118
74 92 120
74 91 116
76 94 121
71 88 113
78 97 125
71 88 114
78 98 127
73 91 118
73 91 117
78 96 123
73 91 118
76 95 124
71 88 114
75 93 120
77 95 122
77 96 124
79 97 124
76 93 120
74 92 119
73 93 121
76 94 121
75 94 121
76 94 121
77 95 123
75 93 121
76 94 120
77 95 123
75 94 122
78 97 125
74 91 118
77 97 127
77 96 124
76 94 123
77 96 123
77 96 126
77 96 125
78 96 123
74 93 120
76 95 123
75 94 122
75 93 121
77 95 123
75 94 121
75 93 120
76 95 123
77 96 125
78 96 123
76 95 123
76 95 124
78 96 123
79 97 125
76 95 123
77 96 124
75 93 120
78 96 124
78 97 125
75 93 120
77 97 126
77 96 125
76 94 122
79 97 124
76 95 123
77 96 125
78 97 124
73 91 119
76 95 124
77 96 124
79 98 127
76 96 125
78 96 123
77 96 125
77 95 123
79 98 127
77 96 123
77 95 123
73 91 118
75 94 122
70 88 114
74 92 119
76 95 123
74 93 121
73 92 120
76 95 122
77 95 124
80 98 126
76 95 123
76 95 123
74 94 122
74 92 120
75 94 122
75 94 121
71 89 116
77 95 122
74 92 119
75 93 120
74 92 119
74 93 120
73 90 117
75 93 121
76 95 122
73 91 119
74 93 122
75 93 120
74 93 121
75 93 120
75 94 121
74 91 117
73 91 119
76 94 122
75 94 123
74 92 120
73 91 118
79 97 126
73 91 119
75 93 120
71 88 113
73 91 117
73 91 116
75 93 120
74 92 120
76 95 124
73 92 120
77 95 123
75 94 123
70 88 114
73 90 117
76 93 119
74 92 120
73 91 117
71 88 114
72 90 117
70 89 116
72 89 116
73 91 118
74 92 120
72 89 114
74 92 119
76 94 121
72 91 119
72 90 117
72 90 117
74 91 117
71 89 115
73 91 117
74 92 120
74 93 120
71 89 115
73 91 118
71 89 116
72 89 116
72 90 116
71 89 114
73 91 118
74 91 118
74 92 118
74 91 118
73 91 117
72 90 116
72 90 115
70 87 113
70 87 113
74 92 119
71 88 113
70 86 111
70 88 114
71 89 116
72 89 114
71 87 112
74 91 117
66 82 106
67 83 108
70 86 110
71 87 112
70 87 112
73 90 115
66 82 105
67 83 107
71 87 112
71 88 113
68 84 109
72 89 115
69 84 108
65 81 105
71 87 112
66 82 106
66 82 106
61 76 99
71 88 113
68 83 106
69 86 110
67 84 108
65 80 103
66 81 105
65 80 103
68 83 107
66 81 104
67 82 104
62 78 102
67 82 106
61 74 95
65 80 103
70 85 107
68 84 108
57 70 90
65 80 103
67 82 105
63 77 98
60 75 97
64 79 102
64 79 102
66 80 102
64 77 97
62 77 99
62 76 96
58 70 89
61 74 93
62 76 97
52 63 79
60 73 92
64 77 96
54 66 85
60 73 92
61 74 94
60 72 91
53 64 81
60 73 92
55 66 84
60 73 92
55 65 81
51 61 77
47 57 71
56 67 85
47 57 71
52 62 77
50 59 73
51 62 77
45 54 68
52 62 78
48 57 71
52 63 78
42 50 62
41 48 60
43 51 63
44 52 65
43 51 64
47 56 68
48 57 70
41 49 60
44 53 65
41 49 60
44 52 65
41 49 61
39 46 56
37 43 53
35 41 51
42 49 60
31 37 45
37 43 53
33 38 47
38 45 56
38 45 55
30 35 43
27 32 38
33 39 47
38 45 55
38 45 54
37 43 53
27 32 40
34 40 49
35 42 51
30 36 44
37 43 53
36 42 52
32 38 47
37 43 53
36 42 52
45 53 66
27 32 39
33 39 48
39 46 57
36 43 53
44 52 63
43 51 63
50 59 73
31 37 45
53 63 78
45 54 66
51 60 75
47 56 70
52 62 77
46 55 68
47 57 71
53 63 78
58 69 85
56 66 82
54 65 81
51 60 75
50 61 77
48 58 73
57 69 86
57 69 86
50 61 76
60 72 90
52 63 80
58 69 87
61 74 94
57 70 89
59 71 90
62 75 95
58 71 90
61 74 93
57 69 87
55 66 84
55 67 85
59 72 92
56 68 86
58 70 89
55 67 86
57 70 89
60 73 93
57 70 89
65 80 103
65 80 103
58 71 90
62 76 96
61 76 97
67 82 104
66 81 103
65 79 101
70 86 109
64 79 101
65 79 100
67 82 105
65 80 103
63 77 100
70 85 108
66 82 107
68 83 105
67 83 107
69 85 109
67 82 106
67 83 106
67 82 105
66 82 106
68 83 106
73 90 115
71 87 112
69 85 109
68 84 107
68 84 107
72 89 114
69 85 111
66 82 106
70 86 109
71 87 111
71 88 114
70 86 110
67 83 106
72 91 118
68 84 109
76 93 119
73 90 116
68 84 108
74 91 118
66 83 108
69 86 112
72 90 116
78 96 123
72 88 114
73 90 117
72 90 116
73 91 119
73 91 118
67 84 109
70 87 112
74 92 119
73 90 117
71 89 116
72 89 115
75 92 118
71 89 115
72 90 118
75 94 122
69 86 111
71 89 115
77 95 121
75 92 119
74 91 118
75 93 121
73 91 117
72 89 115
73 90 115
77 96 124
73 91 118
72 90 116
74 92 118
72 91 118
72 91 119
77 96 123
76 94 122
72 91 118
73 91 117
74 93 121
75 94 121
71 88 114
73 91 119
74 91 117
71 89 116
73 92 119
76 95 122
74 92 120
75 93 119
78 97 125
74 93 120
75 93 119
75 94 123
75 95 124
76 94 121
75 94 122
75 94 122
77 95 121
75 93 121
76 95 122
76 95 123
77 95 122
74 92 120
71 89 116
78 97 125
76 95 124
78 97 124
77 96 124
76 94 120
74 92 120
76 95 123
73 92 119
72 91 118
78 95 121
73 92 119
75 94 122
79 97 125
77 95 123
76 94 121
78 96 125
74 92 119
75 94 122
75 93 121
78 96 124
78 97 126
77 95 124
76 94 122
79 97 126
75 94 123
76 93 119
76 95 123
77 96 124
74 92 118
77 96 124
76 95 122
77 97 126
75 93 121
77 96 125
77 96 124
75 93 120
76 95 123
78 96 124
76 94 121
78 97 126
76 95 124
76 95 124
78 97 125
78 97 126
80 98 127
78 97 125
74 92 118
77 96 124
77 95 123
76 95 124
77 97 126
77 95 123
73 91 118
74 93 120
77 95 123
73 92 121
76 94 122
75 93 120
76 95 122
75 93 121
76 94 122
78 96 124
74 92 120
77 96 125
74 94 123
74 92 120
75 94 121
78 96 123
75 94 123
75 93 121
75 93 120
77 95 122
76 94 122
76 95 123
76 95 122
76 95 123
76 95 123
76 94 122
77 95 122
77 95 121
74 93 121
72 90 117
77 95 123
73 92 119
78 96 124
76 94 123
75 94 121
77 95 122
76 94 120
76 95 122
73 91 119
77 95 123
76 94 121
76 94 122
68 85 111
76 95 123
78 95 121
77 94 121
74 92 120
77 95 122
74 93 121
74 93 121
73 92 120
76 93 120
75 94 121
77 95 121
71 89 116
73 92 119
74 92 119
72 91 119
77 95 121
72 90 116
75 93 121
72 89 115
73 89 114
77 95 121
68 85 111
72 89 115
72 89 114
76 94 122
74 92 119
75 93 121
72 89 115
71 88 114
74 90 116
75 92 119
71 88 115
75 92 117
71 88 115
73 90 115
66 81 104
73 90 114
73 90 117
71 89 116
74 92 119
71 89 116
72 89 115
69 87 113
71 86 109
67 83 107
69 86 111
69 86 111
69 86 111
68 85 111
72 89 114
69 86 110
74 91 117
67 83 107
69 85 110
67 83 107
71 87 111
68 84 108
69 86 111
60 75 97
71 88 113
67 82 105
66 83 107
66 82 105
70 86 111
66 81 104
69 85 109
67 84 109
67 82 106
68 84 107
67 83 107
62 76 96
66 81 103
66 82 106
66 80 102
66 82 106
65 80 102
64 79 101
63 78 99
61 75 95
61 76 98
66 81 104
61 76 97
60 74 95
60 74 94
58 71 91
65 79 101
61 75 95
65 79 101
51 64 82
65 80 102
67 82 104
60 73 93
52 64 82
60 73 93
59 72 91
63 76 96
62 75 96
60 72 91
59 72 91
62 75 95
56 68 87
58 70 87
59 72 92
58 70 88
50 60 75
51 63 80
51 62 79
53 64 81
52 64 81
55 66 82
53 64 80
54 66 83
42 51 65
48 58 72
52 62 77
42 50 63
48 57 72
49 58 72
50 60 75
52 61 76
46 55 68
43 52 64
42 50 62
48 57 71
43 51 63
40 48 59
40 48 59
37 45 56
37 44 55
40 48 59
43 51 62
43 50 62
38 45 56
37 43 53
42 50 61
39 47 58
38 45 55
32 38 46
41 49 59
40 48 59
40 48 59
34 40 49
34 40 48
45 53 65
35 41 50
33 39 49
36 42 52
31 37 45
39 46 56
37 43 53
40 48 58
34 41 50
34 40 49
40 47 57
41 49 60
39 47 57
44 51 63
43 51 63
45 53 65
40 47 58
43 51 63
46 54 68
40 48 59
48 57 71
42 51 63
49 58 72
44 52 66
44 53 66
49 59 74
48 58 72
45 55 69
46 55 69
53 64 81
41 49 62
58 69 87
53 63 80
49 59 74
52 62 77
56 68 85
52 62 79
56 68 85
55 67 84
57 69 87
59 71 90
56 68 86
53 65 82
51 63 81
59 71 90
62 75 95
64 78 98
58 72 91
60 71 89
56 69 87
63 78 100
64 78 99
64 77 98
56 69 89
57 70 89
62 76 98
60 74 93
66 81 103
65 79 100
62 76 97
64 78 100
66 81 103
60 74 96
64 78 99
67 82 105
66 83 108
62 76 95
62 76 97
65 81 105
68 84 108
66 83 108
66 82 105
66 81 104
65 81 104
67 83 106
64 79 102
61 76 99
64 79 102
66 81 105
68 84 108
72 90 115
64 79 101
69 84 107
65 81 104
68 84 109
70 86 110
62 77 100
68 85 111
67 83 107
67 83 107
69 85 109
70 87 113
70 86 111
68 85 110
73 91 117
71 89 115
72 90 117
68 85 110
72 89 115
72 89 114
71 89 115
72 90 116
75 92 118
70 88 114
71 90 117
73 90 115
76 94 121
71 88 114
73 91 117
74 91 118
71 88 114
69 87 113
73 91 118
67 83 107
68 84 108
71 88 112
70 88 115
69 85 110
74 93 121
77 95 121
73 91 118
74 92 119
72 89 115
74 92 120
74 91 117
70 86 111
74 92 118
72 90 118
75 92 119
75 94 122
76 95 122
72 91 118
70 87 114
74 92 120
74 92 120
75 93 120
74 92 119
74 91 117
76 95 123
73 91 119
75 93 120
75 93 120
76 94 121
76 95 123
77 95 122
72 90 116
71 89 117
77 94 120
74 93 121
73 91 118
76 95 122
72 89 115
76 94 120
76 94 121
75 94 121
73 92 120
74 92 120
77 96 124
73 91 118
75 94 122
77 95 123
78 97 125
72 91 119
75 93 120
76 94 122
76 94 122
74 91 118
76 95 123
75 95 124
77 96 125
75 94 122
76 95 123
75 94 122
74 92 119
74 92 118
76 95 123
75 94 123
76 95 123
76 94 122
74 93 121
77 96 124
74 93 120
76 95 123
74 93 121
75 94 122
78 98 127
77 95 121
77 95 123
78 96 124
76 95 123
74 92 119
78 97 125
77 95 122
75 93 119
76 95 122
76 94 121
79 97 125
77 96 124
74 92 119
76 95 122
75 94 122
78 97 124
77 97 126
78 97 125
76 94 120
77 96 124
78 97 125
78 97 126
77 96 124
76 94 123
77 95 122
74 93 122
80 98 126
76 95 123
77 96 125
79 98 126
76 95 123
78 96 124
77 97 126
75 94 122
75 93 121
78 97 125
77 96 124
75 94 122
72 90 118
79 98 125
76 94 121
76 95 124
75 94 121
75 92 119
75 93 120
75 93 121
78 96 123
74 93 121
73 91 119
74 93 120
74 93 120
78 97 125
76 95 123
72 91 118
76 94 121
77 96 124
74 93 121
73 90 117
76 94 121
77 95 122
76 94 122
74 92 119
75 93 119
75 93 119
76 94 122
77 95 123
77 96 123
75 94 123
73 91 118
78 96 122
77 95 123
74 92 118
69 88 115
75 93 119
72 90 116
74 93 121
72 90 117
74 93 123
72 88 113
75 93 120
77 95 123
73 90 117
74 92 119
74 93 121
71 89 116
72 90 117
73 91 118
75 94 122
77 94 120
71 88 114
71 88 115
70 87 111
70 86 112
73 91 117
75 93 121
71 88 113
69 86 110
76 94 121
71 89 116
76 93 120
71 88 113
73 91 117
68 85 111
72 90 117
72 90 117
68 85 111
70 87 113
75 93 120
71 88 114
67 82 105
68 85 109
66 82 106
71 88 113
72 90 117
76 93 120
73 91 118
74 91 117
73 91 116
65 81 104
72 89 114
67 84 109
71 88 113
70 87 112
65 80 102
62 76 98
70 86 111
67 83 107
69 85 109
71 86 110
72 89 114
69 85 109
69 85 110
68 83 107
69 84 107
66 83 107
72 89 115
63 77 100
70 86 111
66 81 103
62 77 99
67 83 106
67 83 107
66 81 104
70 86 110
67 82 105
63 77 98
64 79 102
63 78 99
61 75 96
65 80 103
66 81 103
65 80 102
64 78 99
61 74 95
60 73 93
62 76 97
65 78 99
63 77 98
66 80 101
56 68 85
58 71 90
55 67 86
65 79 99
57 70 89
57 69 87
59 71 90
62 75 94
54 66 83
63 76 97
55 67 85
57 69 88
60 73 92
53 66 84
56 68 85
54 65 82
57 68 86
52 63 80
50 61 76
55 67 84
53 64 80
47 57 72
54 65 81
50 60 74
46 55 69
46 56 70
52 63 79
49 58 72
55 65 81
44 52 65
48 57 71
50 60 74
50 59 74
49 58 72
53 63 78
46 55 69
39 46 58
46 54 67
48 57 70
40 48 60
40 47 59
38 46 57
39 47 57
42 50 61
35 41 51
35 41 50
41 49 60
43 50 62
44 51 63
38 45 56
40 48 58
35 41 51
37 43 53
40 47 58
46 55 67
38 45 55
38 45 55
38 45 55
40 48 59
38 46 56
38 44 54
42 50 61
44 52 65
37 44 55
32 39 49
42 50 62
41 49 61
38 45 55
42 49 60
47 55 68
45 53 66
44 52 65
55 65 80
48 58 72
44 52 64
49 59 73
50 60 75
50 60 74
51 61 77
48 57 72
42 50 63
47 57 70
49 58 72
47 56 70
50 61 76
51 61 77
47 57 71
52 62 78
53 64 80
54 65 82
52 62 78
52 63 79
61 73 92
60 73 93
53 64 82
63 77 96
51 63 80
59 72 91
58 69 87
59 71 89
58 70 89
58 70 88
54 67 86
59 71 89
63 77 98
59 72 90
57 69 87
62 75 94
68 83 106
66 80 102
60 74 94
59 71 89
63 77 98
61 75 96
59 72 92
61 76 98
61 75 97
63 78 99
60 73 93
64 78 100
59 73 94
63 78 101
67 82 105
68 83 106
66 82 106
65 79 100
65 81 104
66 81 104
66 82 106
67 81 103
67 83 108
66 81 104
67 82 105
70 86 111
63 78 101
70 86 111
67 82 105
69 86 112
72 89 114
66 82 106
69 86 111
66 82 106
65 81 104
68 85 110
72 90 116
66 83 108
74 91 118
73 91 117
71 88 112
67 83 107
67 81 103
72 89 114
72 89 115
71 88 113
69 85 109
74 91 117
71 88 114
71 87 112
74 92 119
74 92 120
73 91 118
73 90 116
69 86 110
74 92 119
71 89 115
69 87 113
72 89 114
69 85 110
74 92 119
73 91 117
72 90 116
74 91 116
72 91 118
71 88 114
74 92 118
72 90 116
74 91 117
72 90 117
68 85 110
70 87 112
73 91 117
73 92 119
75 93 119
74 91 118
75 93 121
75 93 119
74 93 120
74 91 118
76 94 122
76 93 118
75 92 119
71 88 113
73 92 119
74 91 118
75 92 119
77 95 122
71 87 112
75 92 118
77 95 122
74 93 121
74 92 119
78 97 124
73 92 120
78 96 124
76 94 123
74 93 121
72 91 119
72 91 119
76 95 123
76 94 122
73 91 118
74 92 119
74 92 119
75 93 121
71 89 116
77 96 124
75 94 121
77 95 122
76 94 122
75 93 121
76 94 122
74 92 120
77 95 121
77 96 124
75 94 121
75 94 122
77 96 125
76 94 121
76 95 124
75 92 119
74 93 122
74 92 119
78 97 125
77 96 125
75 93 121
75 93 120
78 96 124
75 92 118
75 94 121
79 98 126
75 94 121
74 92 120
76 95 123
75 94 122
75 94 122
75 94 124
76 95 124
76 95 123
75 94 121
72 89 114
77 96 124
78 96 124
77 95 123
78 96 123
76 94 122
73 91 118
74 92 120
76 95 122
81 99 127
77 95 123
73 92 119
76 95 122
75 93 120
76 95 123
77 96 125
79 98 126
76 94 120
74 92 119
76 96 126
76 94 121
77 96 124
75 93 121
75 94 122
76 94 121
74 91 118
75 93 121
74 93 121
76 95 124
77 96 125
74 92 120
76 95 124
75 94 122
76 94 122
75 93 121
76 95 123
75 94 123
79 97 125
76 95 123
75 94 121
75 93 120
77 96 123
78 95 122
74 92 118
73 90 117
78 97 126
74 93 121
77 96 124
75 94 121
75 93 120
74 92 120
78 96 123
74 92 119
74 93 120
73 92 120
74 92 119
76 93 119
74 92 120
78 97 125
73 91 118
75 93 119
71 88 115
77 96 124
77 95 122
70 88 113
74 92 120
75 93 120
75 94 121
76 94 121
76 94 121
74 92 120
75 93 121
75 92 119
76 94 121
74 92 119
74 92 118
74 92 119
78 96 122
72 91 118
73 91 117
75 94 121
75 93 120
75 93 121
75 93 121
72 89 115
72 89 115
74 91 117
74 91 116
73 91 117
71 89 116
69 86 113
74 92 118
74 91 117
72 90 117
76 94 122
70 87 113
72 89 115
73 91 118
65 81 106
73 90 116
74 90 115
71 88 114
71 87 111
73 91 118
73 90 117
70 88 114
69 86 111
70 88 114
68 85 110
71 88 112
70 87 112
69 86 111
68 85 111
71 88 114
72 89 115
71 88 114
71 88 114
68 85 109
68 85 110
67 84 109
70 87 112
67 82 105
60 75 97
69 85 110
70 85 108
72 89 116
71 87 110
67 82 104
69 85 108
68 83 106
65 80 102
68 83 106
70 85 108
69 85 109
62 76 98
64 79 101
64 79 101
67 82 105
62 77 99
66 82 107
66 80 101
62 76 97
66 81 102
61 74 94
60 74 96
62 75 95
60 73 93
65 80 102
64 78 100
62 75 95
64 79 103
66 80 101
54 65 83
61 74 94
57 71 90
58 71 90
54 66 83
56 69 87
64 78 100
58 72 92
57 69 87
61 74 93
57 70 88
56 68 85
54 66 84
59 72 91
57 69 88
54 65 83
49 58 73
53 65 82
53 64 80
52 62 77
58 70 88
55 67 85
49 60 75
47 56 71
49 59 74
52 63 79
52 62 77
59 70 88
46 55 68
41 48 59
43 52 64
47 57 71
46 55 68
47 57 71
51 60 75
43 51 64
46 55 67
47 56 69
49 58 72
41 48 59
45 53 65
45 54 67
42 49 61
43 51 63
39 47 57
39 46 57
40 47 59
40 47 58
40 47 58
38 44 55
38 44 54
37 44 54
43 50 62
36 43 53
45 53 66
42 50 61
34 40 49
37 45 55
37 44 54
40 48 59
46 54 67
44 52 64
45 53 65
37 44 55
46 54 67
45 54 67
44 53 65
43 50 62
42 50 62
43 51 64
44 52 64
43 51 63
43 52 65
42 50 62
50 60 75
46 55 69
53 64 79
50 60 75
46 55 68
45 53 66
50 61 77
50 61 76
56 68 85
54 65 82
52 64 80
52 63 79
51 61 76
53 64 80
50 60 76
59 71 88
49 60 76
55 66 82
54 65 83
56 68 86
60 73 93
59 72 91
64 78 97
59 71 89
58 71 90
61 74 93
55 67 86
60 73 93
63 77 97
60 73 92
57 69 88
56 69 87
56 68 86
58 72 93
65 79 100
57 70 91
63 77 98
57 70 89
61 74 94
66 81 103
60 74 95
66 80 102
61 74 94
64 81 105
58 71 91
65 81 103
68 83 106
61 76 97
66 82 105
65 79 101
67 83 106
68 83 106
61 75 96
65 79 102
66 82 106
68 83 107
64 79 103
65 80 102
64 80 103
72 88 114
66 81 104
68 84 109
67 84 109
68 84 108
69 86 111
67 83 107
69 86 110
70 87 113
68 84 109
69 85 110
77 93 117
68 85 110
70 86 111
65 80 102
70 87 112
74 91 117
73 91 117
68 84 109
70 88 114
70 86 111
72 90 116
71 88 114
69 86 112
74 91 117
73 91 117
71 89 116
69 86 111
72 89 114
76 94 121
69 86 111
73 90 115
73 90 116
67 84 108
71 88 115
71 88 114
69 86 111
72 90 116
72 92 121
76 93 120
74 92 118
70 88 114
72 90 117
73 90 116
76 93 120
72 89 116
73 90 117
76 94 121
73 90 116
75 94 122
68 84 108
69 87 114
73 90 115
73 90 116
74 92 119
75 93 120
72 90 118
74 91 115
75 93 120
68 85 111
74 92 118
74 91 117
74 92 118
75 92 118
72 89 115
73 91 118
75 92 119
75 93 122
73 90 116
77 95 123
73 91 119
78 95 121
77 96 123
75 93 120
72 90 118
75 93 121
74 92 118
77 96 124
75 93 121
74 92 118
73 92 121
76 94 122
77 95 121
75 94 122
75 93 121
75 94 122
77 96 124
74 92 119
74 93 122
74 92 119
77 95 124
76 94 122
74 92 119
76 93 120
76 95 123
76 94 121
76 95 123
75 94 121
76 94 122
77 96 123
75 93 120
74 94 123
77 95 122
78 96 124
80 98 126
75 93 121
75 93 120
76 96 125
76 95 123
76 95 124
75 93 120
78 97 125
79 98 126
77 96 125
78 97 124
77 95 123
73 91 117
81 99 127
77 97 125
77 96 124
76 95 123
77 96 125
76 95 122
75 94 121
77 95 122
77 96 124
75 93 120
75 93 120
76 95 123
75 94 122
76 95 123
75 94 122
72 90 117
78 97 127
77 95 123
75 94 123
76 95 123
75 94 122
77 96 125
77 95 122
76 94 121
74 93 120
74 92 119
75 94 121
74 93 121
76 93 120
75 93 120
75 93 120
78 96 124
74 92 119
76 95 124
74 93 121
76 95 122
74 93 120
75 94 121
75 93 120
76 95 123
76 94 121
73 92 120
75 92 119
71 89 115
79 96 123
74 92 120
74 93 122
74 92 119
75 93 120
78 96 122
77 95 122
78 96 124
77 95 122
74 92 120
71 89 115
72 89 116
71 89 115
78 96 124
73 92 119
75 94 121
74 93 121
73 91 117
74 93 121
74 92 119
73 92 120
74 92 120
74 92 120
72 90 116
72 90 117
73 91 118
72 89 115
73 90 117
73 90 117
70 88 114
73 91 118
73 91 118
74 92 120
74 92 119
72 90 117
70 87 113
69 86 112
75 93 121
72 90 117
75 93 120
72 90 117
71 88 113
70 86 111
72 90 116
72 89 115
72 89 115
69 85 109
72 90 117
68 85 111
74 92 118
71 88 113
73 91 117
71 87 112
70 87 112
70 87 112
74 92 119
72 88 114
69 86 112
71 89 115
74 91 118
69 86 111
71 89 115
73 91 118
70 87 112
70 87 112
72 88 113
64 80 104
68 85 110
70 87 112
70 87 112
68 84 109
67 83 108
68 84 108
70 86 111
70 88 114
69 86 112
71 88 114
68 84 108
72 88 113
68 84 107
65 82 106
66 81 104
69 85 110
63 77 98
67 83 106
67 83 105
69 85 109
62 77 99
66 82 105
62 76 98
70 85 109
62 76 97
67 83 106
68 82 105
62 77 98
64 79 101
63 77 97
66 81 103
69 84 107
67 82 105
61 75 96
65 80 101
61 75 96
61 76 97
65 79 102
61 75 97
58 71 91
59 73 93
58 71 90
59 72 91
59 73 92
53 64 81
57 70 88
59 73 93
59 71 89
61 74 94
58 70 89
60 72 91
58 71 89
61 73 92
55 66 83
55 67 85
55 66 84
54 65 81
59 71 90
53 64 80
54 66 83
53 64 80
57 69 86
46 55 70
49 59 75
56 67 85
48 58 72
48 57 70
54 65 80
46 56 69
45 54 66
50 60 74
53 63 78
44 52 64
52 63 78
54 65 80
50 59 74
44 53 66
43 51 64
43 51 63
44 53 66
43 51 63
46 54 67
46 54 66
44 52 64
49 58 72
42 49 60
36 43 53
48 56 70
42 50 62
38 46 56
43 51 63
37 44 54
34 40 50
41 48 58
39 46 56
43 51 63
45 53 66
46 55 68
40 47 58
42 50 62
38 45 55
41 49 61
41 49 61
41 49 61
41 49 60
44 53 65
49 58 71
44 53 66
41 48 59
40 48 60
45 54 67
48 57 72
48 57 71
46 55 69
45 54 68
46 55 69
46 55 68
42 50 63
49 59 73
55 65 81
47 56 70
53 63 79
47 57 71
50 60 75
54 64 80
51 61 76
53 63 79
52 63 80
54 66 83
57 69 86
51 63 79
51 62 78
53 64 81
56 68 85
56 67 83
57 69 86
55 68 87
58 70 90
57 70 89
62 76 97
60 73 93
62 75 94
61 74 93
62 75 95
63 77 98
55 68 86
60 73 93
57 71 90
61 75 95
65 79 100
66 80 102
62 77 99
63 77 100
65 79 101
62 76 98
64 79 102
64 78 100
63 78 99
63 78 99
58 72 93
61 75 96
68 83 107
67 82 106
63 77 99
67 82 103
63 77 99
69 85 108
65 80 103
67 82 105
66 82 105
72 90 116
69 85 110
67 83 108
69 85 109
72 88 113
68 84 108
67 83 106
68 84 109
65 81 105
68 85 109
70 87 111
71 88 113
72 89 114
69 85 109
70 87 112
71 87 113
68 85 110
73 89 115
71 87 111
72 88 113
70 87 112
69 85 109
70 87 112
72 88 113
70 88 115
68 85 110
73 90 115
66 81 104
71 88 114
69 87 113
71 88 113
72 90 116
74 92 119
73 90 116
68 84 109
72 89 114
73 90 115
70 87 112
71 87 111
73 90 116
74 92 118
75 93 120
74 91 118
73 91 118
72 90 117
71 89 115
74 92 118
73 91 119
75 93 120
74 91 116
73 91 117
70 87 113
75 93 120
74 91 117
72 90 118
74 93 120
77 95 122
80 97 124
71 89 116
74 91 118
73 91 118
70 87 113
74 92 119
74 92 119
76 94 121
71 89 117
75 92 118
75 93 119
75 93 121
77 95 122
73 90 116
76 95 122
78 97 124
78 96 122
79 97 123
71 89 116
72 89 116
75 93 119
73 92 120
76 94 120
74 92 120
73 90 116
74 93 121
77 96 124
77 96 123
77 95 121
73 92 120
75 93 121
74 93 120
78 97 125
77 96 124
74 92 119
74 93 120
79 97 125
80 98 125
75 94 121
75 92 119
75 95 123
71 89 115
78 97 124
77 95 123
76 95 123
77 95 122
76 95 124
76 95 122
79 97 124
76 95 122
79 98 126
75 93 121
74 94 122
75 92 118
77 96 125
76 95 123
76 95 123
76 94 122
74 93 121
77 95 123
77 96 125
76 95 122
76 95 124
77 96 124
73 91 117
77 96 123
75 94 121
76 96 125
76 95 123
75 94 122
75 94 122
78 97 125
75 94 122
76 95 124
74 92 119
76 94 121
76 94 122
77 96 125
76 95 122
79 97 124
76 95 124
76 94 122
75 93 120
75 93 122
74 93 120
75 93 120
72 91 119
76 94 123
73 92 120
76 95 124
76 95 123
76 94 122
76 95 124
75 94 122
76 96 124
76 95 123
78 96 123
75 94 121
77 95 122
71 89 116
78 96 123
76 94 120
69 86 112
72 91 119
77 95 123
70 89 117
78 96 124
78 96 123
74 92 119
73 91 117
73 91 116
75 92 119
74 92 120
74 93 121
76 94 121
75 93 120
74 93 121
77 96 123
75 94 122
77 95 122
76 95 123
78 96 123
75 94 122
73 92 119
74 93 122
73 91 118
78 95 122
73 90 116
76 94 122
73 91 117
75 93 120
74 92 119
69 87 115
75 93 121
75 93 121
76 95 123
73 91 118
69 86 111
74 92 119
70 87 114
71 89 116
70 87 112
71 89 116
74 93 120
74 92 118
74 91 117
71 87 112
75 92 119
70 87 112
74 91 117
72 89 114
72 90 117
72 89 114
70 86 110
70 87 113
68 85 109
69 86 110
71 88 113
72 90 117
71 89 115
74 92 119
73 91 119
74 92 118
72 90 115
73 91 117
74 92 119
69 86 112
66 81 103
72 89 116
70 87 112
67 83 108
74 92 117
71 88 113
66 81 105
74 92 117
70 86 110
68 84 108
69 85 109
70 87 111
65 81 105
73 90 115
68 84 108
69 85 110
72 90 117
69 85 109
67 82 106
66 81 104
65 81 104
70 87 112
66 81 104
65 80 103
66 81 103
65 81 106
66 81 105
65 81 104
61 75 96
69 84 107
64 78 100
68 83 105
63 78 99
65 80 103
59 73 93
63 77 99
62 76 97
59 72 91
55 68 86
63 78 100
68 82 104
63 77 98
65 79 101
64 79 101
57 69 88
54 66 84
58 70 89
57 70 89
61 75 94
58 70 89
65 78 99
59 71 89
58 71 89
56 68 85
56 68 87
57 70 89
63 77 97
58 70 89
58 71 90
59 71 89
55 66 83
54 64 80
59 72 92
56 68 85
52 62 78
52 62 78
45 55 69
48 58 72
53 63 79
52 63 79
54 65 81
51 61 76
53 63 79
56 67 84
52 63 78
52 62 77
51 61 76
45 53 67
46 55 68
41 49 61
43 51 64
47 56 69
43 51 64
48 58 71
45 53 66
46 55 68
44 52 64
37 44 54
50 60 74
48 56 69
47 55 68
42 50 63
46 54 67
43 51 64
40 47 58
42 50 62
44 52 64
44 52 65
41 49 61
39 46 56
47 55 69
46 54 67
44 53 66
38 45 55
41 49 61
45 53 66
40 47 59
48 57 70
40 48 59
46 55 68
46 54 67
46 55 69
44 53 66
48 58 72
47 56 70
41 49 61
50 61 76
53 64 80
49 59 73
46 55 68
44 52 65
48 57 70
46 55 69
51 61 77
50 60 76
53 63 79
49 58 72
48 58 73
49 59 74
49 59 74
50 60 76
52 62 78
53 64 80
59 72 92
56 68 85
52 63 80
51 61 77
58 69 87
56 68 86
52 63 78
49 60 75
60 72 90
59 72 91
56 69 87
56 68 86
53 65 83
58 70 90
58 70 89
55 67 85
60 73 92
57 69 88
59 72 92
65 79 100
63 77 99
61 74 94
59 72 92
64 78 98
63 77 98
68 83 105
64 78 100
64 79 101
63 77 99
65 80 102
67 82 105
66 81 103
64 79 100
61 75 96
66 81 103
67 81 104
61 75 96
72 88 113
67 82 106
69 85 111
68 85 111
69 86 111
67 82 105
63 78 100
70 86 111
66 82 106
69 86 110
61 76 97
68 84 109
68 85 110
67 82 105
67 83 107
65 82 106
67 82 105
70 86 110
63 79 103
68 84 109
71 88 113
69 85 110
74 90 115
70 86 111
73 90 115
67 83 108
72 89 115
69 86 112
70 87 112
71 89 115
69 85 109
69 86 111
71 89 116
69 86 112
70 87 113
71 88 113
72 88 114
71 89 116
74 92 120
74 93 121
71 88 114
74 92 119
70 88 114
72 89 114
72 90 116
74 91 117
69 86 111
72 88 113
74 91 118
76 93 119
72 89 114
71 90 118
69 86 112
69 86 112
74 92 118
71 88 114
73 90 116
71 89 117
75 92 118
73 90 117
75 92 118
74 91 117
76 94 121
75 92 118
75 93 120
75 93 119
74 93 120
74 91 116
74 91 116
73 92 119
72 90 115
72 89 115
74 92 119
73 90 116
75 93 120
76 94 122
76 94 122
71 89 117
76 95 123
75 93 121
74 92 118
76 94 121
75 93 119
74 91 118
77 95 123
73 90 117
76 95 122
75 93 120
74 93 120
75 93 120
75 93 121
77 96 124
77 96 125
75 94 122
80 98 124
78 96 124
74 92 119
75 93 121
73 91 118
74 92 119
77 95 123
74 92 120
75 94 122
76 95 122
76 94 121
76 94 121
74 93 121
78 96 124
74 93 120
73 92 120
74 93 120
77 94 121
76 94 121
72 91 118
72 90 117
76 94 123
76 95 123
75 93 120
76 95 122
74 92 118
76 94 121
73 91 119
75 93 120
74 93 120
77 96 124
75 93 120
74 92 119
75 95 124
77 95 123
76 95 123
79 98 125
74 92 120
78 97 125
76 94 122
78 97 125
79 97 124
78 96 124
77 96 123
75 92 118
76 95 123
77 95 122
79 98 127
76 94 121
76 94 122
76 94 121
76 95 122
74 93 120
75 93 121
77 95 123
77 95 123
76 94 122
73 91 117
78 96 122
77 95 122
76 95 122
74 92 120
74 92 120
75 93 122
74 93 120
76 94 122
77 96 123
75 93 121
74 93 121
76 95 124
73 91 119
75 93 121
75 92 119
77 95 122
72 90 116
74 93 122
75 93 121
71 89 117
73 90 117
78 96 123
76 93 120
73 91 118
75 94 122
76 94 121
74 93 121
77 94 120
77 95 121
75 93 120
74 91 118
75 93 120
73 92 120
73 91 119
77 95 123
76 94 121
72 90 117
74 92 119
72 90 117
71 89 115
73 90 115
73 90 115
74 91 117
72 91 119
77 95 121
77 96 123
73 90 117
74 92 119
73 90 116
72 90 116
73 91 119
72 90 116
70 88 114
73 90 116
71 89 115
72 90 116
70 87 112
74 91 118
73 91 117
68 85 109
71 88 113
72 89 116
73 91 118
73 90 116
72 90 115
73 90 117
72 90 117
71 87 113
70 88 115
72 89 115
69 86 111
68 85 110
72 89 115
69 86 110
67 84 110
69 84 108
72 89 114
69 86 111
72 89 114
68 84 109
70 85 109
73 89 114
73 90 116
73 90 115
67 83 106
69 85 109
70 87 112
72 88 112
70 87 113
70 86 109
67 83 108
67 83 107
67 83 106
67 84 108
68 85 109
65 80 102
66 81 104
64 80 103
70 86 110
65 80 102
61 76 99
68 83 106
63 78 99
64 78 100
61 75 96
69 85 110
64 80 103
67 83 106
67 83 106
63 78 101
66 81 105
63 78 100
56 69 89
68 84 108
57 70 90
58 72 91
64 79 100
59 72 92
62 76 97
60 74 94
61 74 94
59 71 90
70 85 108
60 74 94
55 67 84
60 73 92
62 77 99
61 74 93
60 73 92
59 72 91
62 76 98
56 67 85
59 72 91
55 67 84
56 68 86
53 65 82
56 68 86
55 67 84
56 68 86
60 72 90
53 64 81
59 71 89
54 66 84
52 64 81
57 68 86
50 61 77
53 63 79
49 60 76
51 61 76
48 58 73
50 60 75
52 62 77
53 64 80
47 56 70
55 66 82
53 64 80
51 61 77
51 60 75
43 51 63
51 61 76
48 58 73
43 51 64
49 59 74
49 59 73
51 61 76
42 50 62
46 55 68
46 55 68
42 51 63
51 61 75
40 47 58
47 56 70
42 50 62
46 54 68
42 51 63
47 56 70
42 50 62
46 54 67
48 56 70
47 56 70
46 55 68
39 47 58
46 54 67
44 53 66
46 55 69
44 53 66
47 55 68
38 46 57
39 47 58
44 52 65
39 46 58
48 57 71
50 60 74
49 59 74
45 54 67
52 62 77
48 57 71
49 58 72
53 64 79
47 57 71
50 61 77
46 56 70
55 66 83
50 60 75
53 64 80
56 67 84
49 59 75
46 55 70
54 66 83
51 62 78
53 64 81
55 66 83
52 63 81
56 68 85
54 66 84
57 69 86
51 62 78
63 76 95
60 73 92
55 67 85
61 74 93
59 72 92
57 69 86
64 78 100
56 69 88
59 72 91
52 63 80
58 71 91
58 71 91
57 71 90
57 70 89
61 74 95
58 72 91
60 72 91
64 78 98
60 74 95
57 70 90
64 77 98
69 85 108
59 73 94
70 86 109
64 78 99
67 82 105
65 80 103
61 74 94
64 79 100
68 83 106
66 82 106
64 79 102
68 84 108
61 75 95
70 86 110
66 82 107
68 84 108
64 80 104
71 88 113
69 86 110
70 86 109
68 84 107
70 86 111
72 89 115
66 82 106
66 81 103
71 88 113
65 81 106
70 86 110
69 86 110
70 87 113
67 83 106
68 84 108
66 82 106
71 88 112
71 87 112
68 84 107
67 83 107
72 89 114
64 80 104
72 89 114
71 88 113
75 92 119
72 89 115
69 86 112
70 88 114
67 83 107
72 89 116
67 83 108
73 91 118
70 87 113
72 89 114
70 86 111
69 86 111
70 88 115
69 86 110
74 92 119
74 91 117
75 94 122
74 92 119
75 93 120
72 90 116
73 91 118
74 92 118
73 91 119
70 87 113
77 95 122
71 88 114
73 91 118
72 90 117
74 91 117
74 91 118
74 92 119
73 92 119
73 91 117
72 90 117
75 94 122
71 89 116
73 92 120
72 90 117
71 88 114
73 92 120
76 95 122
75 92 119
71 89 115
72 90 117
75 93 120
75 94 122
72 90 117
72 91 119
72 90 117
74 92 119
75 93 120
71 89 115
75 93 121
72 91 118
76 94 122
76 95 123
74 91 117
75 93 121
77 95 123
76 95 123
75 93 120
76 95 123
74 92 120
75 93 120
76 94 122
77 94 120
75 94 121
73 91 117
76 94 121
75 93 120
76 95 124
72 90 117
77 96 124
76 94 121
73 91 119
74 92 119
71 89 116
78 96 124
76 93 119
76 94 121
79 96 123
77 95 122
73 92 119
79 98 126
76 95 122
78 98 127
77 96 125
75 93 121
73 91 118
75 93 120
79 97 124
76 95 123
76 94 121
77 94 121
76 96 124
78 96 125
78 97 125
77 96 125
77 95 122
76 95 124
72 91 120
77 95 124
78 96 124
75 93 121
77 96 124
75 94 122
77 97 125
76 94 122
78 96 124
76 95 122
74 92 119
75 94 121
77 95 122
74 93 121
77 96 124
74 93 121
74 93 121
75 94 122
74 93 121
75 94 121
76 94 122
73 92 121
76 93 120
77 96 124
76 94 123
77 95 122
74 94 122
76 95 122
74 93 121
74 92 118
72 90 117
74 93 121
76 95 123
75 92 118
78 96 123
76 94 122
74 92 119
77 96 124
76 95 123
76 94 121
73 90 117
76 95 123
73 92 120
74 94 123
75 93 121
73 90 116
73 91 117
72 89 114
74 92 120
75 92 118
74 92 119
72 89 116
72 90 116
73 91 119
75 93 120
73 91 119
73 89 114
74 92 119
76 94 122
74 92 120
75 92 118
75 93 120
73 92 119
73 91 118
76 94 120
73 90 115
73 91 117
73 91 117
72 89 115
71 88 114
73 91 116
71 89 115
74 92 118
76 94 121
71 89 114
71 88 115
68 85 110
69 86 111
76 93 119
73 90 115
71 90 117
69 87 113
71 88 113
74 92 118
67 84 109
73 91 116
74 91 117
71 89 115
68 84 109
70 87 114
70 88 116
76 94 120
72 90 117
70 87 113
73 91 117
68 85 109
69 85 110
72 89 115
70 87 112
67 82 105
73 90 116
67 83 109
71 88 113
69 86 112
68 85 109
74 91 117
69 85 109
66 83 109
68 84 108
69 85 110
70 85 109
69 85 109
73 90 116
65 80 104
68 83 106
68 85 109
65 81 104
66 81 104
67 83 106
67 83 106
63 78 100
73 90 116
66 81 102
66 82 106
67 82 105
65 81 104
66 81 104
65 80 102
65 80 103
65 80 102
64 78 100
58 73 95
67 80 101
67 82 104
63 78 100
63 77 99
70 87 111
67 82 105
63 77 98
61 73 91
64 77 98
61 75 96
66 81 103
62 77 98
65 79 100
67 82 103
56 69 88
60 74 94
60 72 92
58 71 91
62 75 95
58 70 88
58 71 90
61 74 94
55 67 87
59 71 89
57 69 87
58 72 92
57 70 89
57 68 85
51 62 79
54 66 85
54 65 81
53 64 81
50 60 76
48 57 72
51 61 76
52 63 78
50 60 75
59 71 89
48 58 73
51 62 79
45 54 67
55 66 83
50 61 76
53 64 79
59 70 88
49 59 74
48 57 71
48 58 72
51 61 75
47 56 71
52 62 78
53 63 78
48 58 71
50 59 74
51 60 75
50 60 74
49 59 73
45 53 67
46 55 69
44 53 65
48 57 71
50 59 72
48 58 72
45 54 67
48 58 72
50 59 73
46 54 67
40 48 59
43 52 65
49 58 72
46 54 67
46 55 68
48 57 70
46 55 68
51 61 76
48 57 71
44 53 66
51 61 76
51 61 77
44 53 65
46 55 68
53 63 79
51 61 76
45 54 67
51 61 77
51 61 77
50 60 74
55 65 82
50 61 76
60 72 90
50 61 77
51 61 77
53 64 79
55 67 83
51 61 77
53 64 80
51 62 78
51 62 78
54 65 82
51 62 78
59 71 89
54 65 82
47 57 73
51 61 77
56 68 86
50 60 76
56 68 85
60 73 92
54 66 83
57 70 89
61 75 95
59 71 89
61 74 93
62 76 96
56 68 87
59 72 91
60 73 93
63 77 98
56 69 88
52 64 81
61 74 94
62 75 94
64 79 101
69 84 106
60 73 92
61 75 96
65 79 101
66 82 105
62 75 96
62 76 98
65 78 99
62 75 96
62 76 97
64 79 102
64 79 100
69 84 107
69 84 107
65 80 102
69 84 106
67 82 105
62 76 98
64 80 103
72 88 113
63 77 99
63 78 100
67 83 107
67 83 107
72 88 112
63 78 101
70 87 112
68 84 109
66 81 103
66 82 106
71 87 111
63 79 102
67 83 108
64 79 102
67 84 108
70 86 111
67 84 109
72 89 113
71 88 113
69 85 110
67 84 109
73 90 117
71 87 112
69 86 112
67 83 108
71 88 114
71 88 113
66 82 107
73 90 115
73 91 118
70 88 115
69 86 110
70 88 114
75 91 117
73 91 117
76 95 122
67 83 108
73 91 117
67 84 110
71 88 113
76 93 119
72 91 119
75 92 119
71 88 113
74 92 118
74 91 117
76 94 122
75 93 120
76 93 119
75 93 119
73 92 119
74 92 118
71 89 115
73 91 118
74 92 119
72 90 117
68 85 112
75 93 120
74 91 117
75 94 123
76 94 121
70 88 116
73 90 115
72 88 114
75 93 120
75 93 121
75 94 122
72 91 118
73 92 119
74 93 121
73 91 118
72 91 118
75 93 120
72 90 117
72 90 116
74 92 120
78 96 124
73 91 119
72 89 115
74 92 119
74 91 117
74 93 121
73 90 116
75 92 119
76 94 122
71 88 113
74 93 120
73 91 119
78 96 123
73 91 118
74 92 119
75 93 119
73 92 120
75 95 124
78 96 124
73 91 119
75 92 119
74 92 119
75 94 122
74 92 120
75 94 121
74 93 120
73 92 121
75 93 120
75 92 119
76 95 122
74 92 118
77 95 121
79 97 124
77 95 123
77 95 124
76 95 123
77 95 123
75 94 122
76 94 121
77 96 124
76 94 121
77 94 121
76 95 123
76 94 121
77 95 123
75 93 120
76 95 123
75 92 119
77 96 124
78 97 124
75 94 121
77 96 124
76 94 121
75 94 122
77 96 125
76 95 122
74 92 119
75 94 122
75 93 121
75 93 121
77 95 123
76 94 122
75 93 120
76 94 121
74 92 119
72 90 116
77 96 124
75 94 122
74 93 121
75 94 123
77 96 125
77 95 123
77 94 120
78 97 124
73 92 119
74 91 117
73 91 119
74 92 119
77 96 123
71 88 114
77 96 125
74 91 118
79 97 125
77 96 124
76 94 122
70 87 113
74 91 117
75 93 120
75 93 121
72 90 116
74 94 122
73 91 118
77 96 123
74 92 119
73 91 117
77 96 123
78 96 124
77 95 122
74 93 120
73 91 118
76 95 122
72 91 119
73 91 118
76 94 122
73 90 116
73 91 117
76 93 119
70 88 114
74 92 119
74 93 121
75 93 120
72 89 114
73 92 119
71 86 110
71 88 113
74 90 115
72 90 118
72 90 118
72 90 117
73 91 116
75 92 119
71 89 115
75 93 121
72 89 115
72 90 117
66 83 107
70 86 110
69 86 110
69 86 111
73 91 118
72 89 116
73 90 116
75 93 119
72 90 116
75 92 119
69 85 109
69 87 112
72 89 114
71 87 112
74 92 118
74 90 115
72 89 115
70 87 112
73 90 115
71 87 112
70 86 111
70 87 113
72 89 115
72 88 114
71 88 113
68 83 106
68 84 108
71 88 113
72 88 114
69 85 109
71 88 112
69 85 108
70 87 112
71 87 111
65 81 105
69 86 110
70 86 111
67 82 104
70 87 111
68 84 108
65 82 106
65 81 105
72 89 114
68 83 107
62 78 101
75 91 116
70 86 111
66 81 104
70 86 110
65 79 101
66 81 103
65 79 100
64 79 102
67 82 105
63 78 100
67 83 106
69 84 107
66 81 105
62 76 96
64 77 97
59 72 91
63 77 99
65 79 100
69 85 107
62 76 97
67 82 104
59 72 93
55 67 86
55 67 84
62 76 97
63 78 99
56 69 88
61 73 92
54 67 86
60 73 93
57 69 88
62 75 95
63 77 97
56 70 89
56 70 90
53 65 84
57 70 88
63 76 94
58 70 89
56 67 85
59 71 90
58 69 87
55 67 84
56 68 85
54 65 81
54 65 82
50 61 77
45 55 69
42 51 65
52 63 79
57 69 87
56 67 84
54 65 81
54 65 82
53 63 78
54 65 83
45 54 68
48 57 72
52 63 79
51 61 75
45 54 68
52 63 79
59 71 89
48 57 71
54 65 81
50 59 74
48 58 73
48 57 71
54 65 81
49 58 72
48 57 72
43 52 65
48 57 71
43 51 63
44 53 66
41 48 60
47 56 70
48 57 70
44 52 65
40 48 59
52 62 77
44 53 65
55 65 80
44 52 64
46 56 69
51 61 76
53 63 78
48 57 72
50 60 76
50 59 73
44 52 65
45 54 67
51 60 75
52 62 78
48 58 74
50 60 75
57 69 86
53 64 80
47 57 71
50 61 76
57 69 86
48 58 72
51 61 75
55 67 83
56 68 85
53 64 80
50 60 75
51 61 77
55 65 81
55 67 84
57 68 85
56 68 85
57 69 86
59 71 89
62 74 91
59 71 89
55 67 86
55 66 84
55 68 87
61 74 93
55 67 85
61 73 92
59 72 92
55 67 86
63 76 96
55 68 87
57 71 90
54 67 85
65 80 102
56 69 89
66 80 102
54 67 85
60 72 92
65 80 102
66 81 103
64 78 99
63 78 101
60 74 94
66 81 103
63 78 100
61 75 96
56 69 88
68 84 107
67 83 106
69 84 108
69 85 109
64 79 101
66 81 103
60 73 94
66 81 104
69 85 109
65 80 103
63 78 100
61 75 96
62 77 99
68 84 108
68 83 105
68 84 107
67 83 106
70 86 110
64 79 101
68 85 110
74 91 116
69 85 108
67 83 107
67 82 104
63 78 100
70 87 113
65 81 106
71 87 111
68 84 108
71 88 113
70 87 112
68 84 109
71 89 117
68 85 110
71 88 114
71 88 112
69 86 110
72 89 115
68 85 111
70 87 113
72 89 113
72 89 114
68 85 110
72 90 117
74 91 117
71 89 115
73 90 114
71 88 115
69 86 111
71 89 115
72 90 117
73 90 116
71 89 116
70 87 113
70 87 111
68 85 111
71 89 115
72 89 115
73 91 117
71 89 115
74 92 119
73 90 116
73 91 118
76 94 122
75 93 118
71 88 115
73 90 116
73 91 117
74 91 116
72 89 115
74 93 120
75 93 121
73 91 117
71 88 115
72 89 114
76 94 120
75 92 118
71 89 117
72 90 116
74 92 118
72 90 118
76 93 120
72 90 116
75 94 121
76 95 123
73 92 119
73 91 118
77 96 123
73 91 117
71 89 116
73 92 119
73 90 116
75 93 119
76 94 121
76 94 122
74 93 121
76 94 120
73 90 115
74 92 118
75 94 121
74 92 119
75 94 122
76 95 122
72 91 118
73 91 116
75 94 121
76 95 124
76 94 122
76 93 119
76 94 121
77 95 121
75 93 121
76 94 123
78 96 122
77 95 123
76 95 122
73 91 117
75 93 120
74 93 121
75 93 120
74 93 120
75 94 123
76 94 121
78 96 124
75 93 120
78 97 125
73 92 119
78 96 124
74 92 119
78 97 125
79 98 127
75 94 121
76 95 123
79 97 124
76 95 124
78 97 125
75 94 121
73 91 117
76 93 119
76 93 120
75 94 121
70 89 116
77 96 126
76 94 122
76 94 120
74 93 121
75 94 121
75 93 120
76 95 122
77 96 125
77 95 124
75 93 120
75 92 118
74 93 123
77 96 125
76 95 123
74 92 119
76 95 122
75 94 121
76 95 125
76 95 123
75 94 122
75 93 119
76 94 121
77 96 123
76 95 123
76 94 122
75 93 121
75 92 119
75 94 121
76 95 123
74 92 120
75 93 120
77 95 123
71 89 116
75 93 120
75 93 121
76 95 122
71 88 114
74 92 119
73 91 118
77 95 122
74 93 121
74 92 119
74 92 119
71 88 114
76 93 119
79 97 124
75 93 120
73 90 116
76 94 120
74 92 119
73 92 120
75 93 121
73 89 114
72 89 115
76 95 122
74 92 119
75 93 120
75 93 121
73 91 118
70 88 114
72 90 117
72 90 116
73 90 116
71 90 118
73 92 119
72 89 116
72 89 114
73 92 119
71 88 113
74 92 119
69 87 113
73 91 117
76 94 122
74 92 118
73 91 118
71 88 115
73 92 120
72 89 114
74 91 117
70 87 113
71 89 115
69 85 110
69 85 110
72 90 117
72 90 117
72 89 114
68 84 108
74 91 117
73 90 117
75 93 120
67 83 107
71 88 113
72 89 114
69 86 110
70 87 113
71 86 110
69 86 111
68 84 109
66 81 104
68 85 110
67 84 110
73 91 117
66 81 104
67 82 104
68 84 108
72 89 113
68 84 108
67 82 105
69 86 111
69 84 107
65 81 105
64 78 99
66 82 106
68 84 108
65 80 102
68 84 108
63 78 100
70 87 112
65 79 101
68 84 108
68 84 107
65 80 103
66 81 102
63 77 99
62 76 97
62 77 99
60 73 93
65 80 103
62 76 98
66 80 103
60 74 94
65 80 103
64 78 99
64 78 100
66 80 101
64 79 102
57 69 88
62 76 97
61 75 95
62 76 96
62 75 96
64 78 100
64 78 100
57 69 87
60 73 93
53 64 82
63 77 98
54 67 86
57 69 88
57 70 88
59 71 90
61 74 94
59 71 90
60 72 91
51 62 79
52 63 81
59 72 91
56 67 85
59 72 90
56 67 85
57 69 86
53 64 81
55 66 82
57 69 87
51 62 79
46 56 71
61 73 91
52 62 77
48 58 75
54 65 82
50 61 76
51 61 76
54 65 82
52 63 79
48 58 72
42 50 63
49 60 75
51 61 77
48 58 74
48 57 72
50 60 75
56 66 82
46 55 69
46 55 70
53 64 79
53 63 77
49 58 72
53 63 79
46 55 69
53 64 80
42 51 63
48 58 73
42 51 64
48 57 70
48 57 71
50 60 75
53 63 79
50 60 75
46 55 68
47 56 69
47 56 70
52 63 78
49 59 74
52 63 78
49 58 73
50 60 75
50 61 76
46 55 69
50 60 74
44 52 65
52 62 77
55 66 82
46 55 69
55 66 82
53 64 80
55 67 84
53 64 80
59 72 90
54 65 82
55 66 83
53 64 81
49 60 76
53 64 80
59 72 90
55 66 84
54 65 81
55 67 84
54 65 83
57 70 88
65 78 97
52 64 80
64 78 98
55 67 85
58 70 88
54 66 84
62 75 95
62 75 94
55 68 86
60 72 91
63 76 96
57 68 86
58 71 91
65 79 100
58 71 90
56 68 86
61 75 95
63 76 97
62 74 93
59 72 92
59 71 90
57 70 89
60 74 94
63 77 98
65 80 103
60 74 95
63 78 99
64 78 100
61 74 94
62 77 98
62 76 97
61 76 98
67 83 106
60 74 96
66 82 105
63 78 100
69 85 110
66 81 102
65 79 102
66 81 105
65 80 103
64 78 100
66 82 106
64 80 103
65 80 102
68 84 107
71 88 113
68 84 108
65 81 105
65 81 103
68 84 108
69 85 108
74 91 117
73 90 115
68 84 108
62 78 102
71 87 111
67 84 109
68 83 106
65 81 104
71 88 113
73 90 115
70 87 114
66 82 106
68 85 109
67 83 108
71 87 111
68 84 108
72 90 116
74 90 115
71 89 114
70 87 113
69 86 112
73 90 116
72 89 113
73 91 117
70 86 111
75 93 119
73 90 115
72 90 117
68 85 110
72 89 114
67 84 109
72 89 114
70 87 113
72 90 117
74 90 113
73 90 116
70 88 116
74 92 118
71 88 113
72 90 117
71 88 114
73 91 116
72 90 116
72 89 115
73 91 119
76 95 122
72 91 118
76 94 122
72 89 115
71 89 115
76 93 120
74 92 120
73 91 119
76 95 124
75 93 121
71 90 117
75 93 120
70 87 113
73 90 117
72 90 117
74 92 118
75 93 120
76 93 118
75 93 121
75 92 118
76 95 123
76 95 124
76 95 124
74 93 121
74 93 121
73 90 116
76 94 122
78 97 125
76 94 122
73 90 116
75 92 118
74 92 119
75 93 120
79 98 126
75 94 122
78 97 124
76 94 121
74 93 120
74 92 120
76 95 122
75 94 122
75 93 120
77 95 123
72 90 116
75 94 122
75 93 120
76 94 120
76 95 124
77 96 124
75 93 120
75 93 120
73 91 118
79 97 125
75 93 121
72 90 117
76 95 123
76 95 124
80 98 126
76 95 123
76 95 123
78 97 125
75 94 123
76 94 121
74 91 118
77 95 123
76 95 123
76 94 121
77 95 123
76 94 121
75 93 122
77 96 124
77 96 124
75 93 122
75 94 122
75 93 120
77 95 122
73 91 117
76 95 123
74 93 121
77 96 125
75 93 120
74 93 120
73 91 118
76 95 122
76 95 124
73 91 118
74 92 120
74 92 118
73 91 119
76 95 123
76 94 122
73 91 118
78 96 122
76 94 123
73 91 118
75 93 121
76 94 120
76 94 122
75 93 121
74 93 120
74 93 120
74 92 119
75 93 120
72 89 115
76 95 122
73 91 118
74 92 118
72 90 117
74 93 121
76 94 121
75 93 120
76 94 120
72 89 115
73 92 120
75 94 121
73 91 118
74 92 120
69 87 115
77 95 122
75 94 122
74 91 118
71 89 116
77 95 123
73 91 117
75 92 118
74 91 116
74 92 120
72 90 117
72 90 117
74 91 117
74 93 122
72 90 115
70 87 113
74 92 119
72 89 115
72 90 116
74 92 118
74 92 119
71 89 114
76 93 119
74 92 119
75 92 119
74 92 119
70 87 113
74 92 119
77 94 119
71 89 115
76 94 122
70 87 113
75 92 118
76 93 119
69 85 109
70 87 111
72 89 115
70 87 112
74 91 117
71 88 113
72 89 114
73 90 117
72 89 115
71 86 109
69 86 111
71 87 113
72 89 114
70 87 112
73 91 117
72 89 115
72 89 115
68 84 108
74 92 119
67 82 106
67 83 107
68 85 109
73 89 114
67 84 108
69 86 112
70 87 111
70 85 109
68 84 107
73 89 113
67 84 109
64 80 104
63 77 98
70 87 113
65 80 103
67 83 107
69 86 110
62 76 97
67 83 107
67 82 105
67 82 104
63 76 96
64 78 100
70 87 112
65 81 104
66 81 104
66 81 104
68 84 108
61 75 96
64 79 101
59 74 96
68 83 107
60 74 94
62 75 96
63 78 100
67 82 104
63 76 97
64 79 102
61 74 94
59 72 92
62 76 96
56 69 88
55 68 87
63 77 98
61 74 94
61 74 94
59 71 91
59 72 92
55 67 85
57 69 87
61 75 95
60 74 94
54 65 83
55 67 86
52 64 81
59 72 91
53 65 83
59 72 91
55 66 83
60 72 90
55 67 86
63 76 96
54 65 82
58 70 89
53 64 80
57 68 86
61 74 94
64 77 97
51 62 80
51 61 77
54 66 83
53 64 82
56 67 84
54 65 82
51 62 78
54 64 81
53 63 78
42 51 63
49 59 74
47 57 71
51 61 75
58 69 86
48 58 72
50 60 75
51 61 76
58 70 87
54 65 81
48 58 73
52 63 78
46 56 70
50 61 76
52 62 77
51 61 75
47 56 70
50 60 76
54 65 81
50 60 75
40 48 60
52 62 76
53 64 79
50 61 76
49 59 74
47 56 70
55 66 82
51 61 76
52 62 77
53 64 80
51 60 75
49 58 72
49 59 75
49 59 74
55 67 83
55 66 83
57 68 85
54 65 81
50 60 75
52 63 79
47 57 71
50 60 75
57 68 86
50 61 77
56 67 83
55 66 82
47 56 71
56 68 85
48 58 72
60 73 91
56 67 85
61 74 94
56 68 86
53 64 81
55 66 83
55 67 85
60 73 92
60 73 93
55 67 85
58 70 87
61 74 93
61 74 95
63 78 99
57 70 90
56 68 86
55 67 86
57 68 86
59 72 91
65 80 102
59 72 91
58 70 90
57 70 89
60 74 95
63 78 99
61 75 96
65 80 102
62 76 97
59 73 94
61 76 98
66 81 105
65 79 101
62 77 100
61 75 96
63 78 99
60 74 95
63 77 99
65 80 102
71 87 112
67 82 105
66 80 101
64 79 102
67 83 107
64 79 101
64 79 103
64 80 103
71 87 110
68 83 106
69 83 105
69 86 111
64 79 101
70 86 110
67 83 106
63 78 102
72 88 113
69 85 109
69 85 109
72 89 113
67 83 107
72 88 113
69 86 112
65 80 103
71 89 115
67 83 108
70 86 110
72 90 117
72 88 112
69 85 109
67 81 103
65 80 102
70 87 112
71 88 113
68 85 110
69 85 109
71 87 112
66 83 108
72 89 115
71 87 110
71 89 115
68 85 110
71 88 113
71 88 113
71 87 112
71 87 112
70 86 112
71 88 113
75 92 117
73 91 118
77 94 121
70 87 111
73 91 119
70 88 116
69 86 112
73 92 119
69 85 111
71 87 113
71 89 115
74 92 118
72 89 115
73 92 120
72 90 118
70 87 114
75 93 120
73 92 120
74 92 120
78 96 123
70 89 117
74 91 117
73 91 119
70 89 117
71 87 113
72 89 115
73 90 116
75 92 119
76 95 122
77 95 122
76 94 120
74 92 120
75 92 119
74 91 117
74 92 119
75 93 119
73 91 118
77 95 122
75 94 122
74 93 120
75 93 121
76 93 119
74 93 121
72 89 115
75 92 119
74 92 119
75 93 119
75 92 119
77 96 124
74 92 119
76 95 123
75 94 121
76 94 122
76 94 121
73 92 121
76 94 122
76 94 121
76 94 121
76 94 123
78 96 124
75 93 120
74 93 122
78 97 125
80 98 125
74 93 120
79 97 125
74 92 118
73 91 118
77 94 120
75 94 121
79 97 125
76 94 121
78 98 127
77 96 123
76 95 125
74 92 119
75 94 122
77 95 123
77 95 123
76 95 123
77 97 126
77 96 126
76 95 123
73 91 118
73 91 118
77 96 125
76 94 122
76 95 123
76 95 122
77 95 123
74 92 119
78 97 127
76 93 119
77 96 124
74 93 121
77 95 123
74 93 121
76 94 122
77 95 123
77 96 123
75 93 121
75 94 121
78 97 125
76 94 121
75 94 122
77 96 125
74 93 121
75 93 121
74 92 119
75 94 121
74 93 121
75 94 122
77 94 119
72 91 118
75 93 120
76 94 121
73 92 119
77 95 123
76 94 121
75 94 122
77 95 122
72 91 118
75 92 118
75 94 121
71 89 115
76 95 123
74 93 121
78 96 124
76 94 121
73 90 115
74 92 119
73 91 118
75 93 120
74 91 117
77 95 122
72 90 117
69 86 110
73 90 116
73 91 117
76 95 123
75 93 120
73 91 117
70 88 114
74 91 117
72 88 113
74 93 122
75 93 119
73 92 119
74 92 117
72 90 117
71 89 115
73 90 117
71 88 113
73 90 116
73 91 119
73 91 119
71 87 113
75 92 118
73 90 116
68 84 107
69 86 110
71 88 115
71 89 115
70 87 113
67 83 107
70 88 115
69 86 111
73 90 116
71 87 112
68 84 108
69 87 113
73 90 116
69 86 111
73 90 116
72 90 116
71 88 113
71 88 113
72 89 115
70 87 112
73 91 118
71 88 112
70 87 112
71 88 113
70 85 108
66 82 106
66 81 105
71 87 111
73 89 114
67 83 106
71 87 111
69 84 107
67 82 106
67 83 106
67 83 107
69 86 111
64 79 102
67 82 105
71 87 111
62 77 100
67 82 106
65 81 105
69 84 108
68 84 108
67 82 105
67 83 107
65 81 104
67 83 107
64 79 101
69 84 108
67 84 108
65 80 103
71 86 109
63 79 102
62 76 98
66 80 102
66 81 104
64 79 101
71 87 111
64 79 103
64 79 101
63 78 100
65 80 102
61 75 97
64 77 98
63 77 98
60 74 95
63 77 99
66 82 104
64 77 97
58 71 90
65 79 100
64 79 101
61 73 92
66 80 102
56 69 89
57 69 88
56 68 87
57 69 87
58 71 90
58 71 91
60 73 93
59 73 93
58 71 91
57 70 88
52 64 81
61 74 94
56 68 87
57 69 87
54 65 82
55 67 84
57 69 87
54 66 83
57 69 87
54 65 81
52 63 80
56 68 86
55 66 83
53 63 79
50 61 78
52 62 78
52 63 80
59 72 91
55 66 83
47 58 73
49 59 75
55 66 82
53 64 80
54 64 79
54 65 81
45 55 69
45 54 67
47 57 71
47 56 70
49 58 73
48 57 72
48 59 74
52 63 79
51 61 76
46 55 69
51 61 76
48 58 73
54 64 80
51 60 75
44 53 66
51 60 75
45 54 68
43 51 65
50 60 76
56 67 84
54 65 80
49 58 73
41 49 61
48 57 72
43 52 66
56 68 85
54 65 82
54 65 82
49 59 74
53 64 80
45 53 67
56 67 84
55 66 82
49 59 74
48 57 71
49 59 74
60 72 91
54 65 82
54 66 83
54 65 81
52 62 78
49 59 75
56 67 84
55 67 84
51 61 77
58 69 86
52 63 80
59 71 88
56 68 85
46 56 70
56 68 86
53 65 82
60 72 92
58 71 89
55 67 84
56 68 86
58 70 89
60 73 93
61 74 94
63 77 98
61 74 95
62 76 96
60 74 94
62 75 94
60 73 92
55 66 84
66 80 102
62 76 97
66 80 102
59 72 91
62 75 95
57 70 90
59 73 93
65 80 103
58 72 93
59 73 94
61 74 94
67 83 106
65 79 100
65 80 103
62 76 97
65 79 101
64 78 99
62 76 97
67 82 106
61 76 97
61 77 100
67 82 105
68 84 108
63 78 100
65 80 102
67 83 107
67 82 105
67 82 106
65 80 103
64 78 100
63 77 98
66 82 107
66 82 105
68 84 107
70 86 111
67 84 109
65 81 103
69 86 110
71 87 112
71 87 112
67 83 107
68 83 106
67 83 107
65 82 106
69 86 110
70 87 112
70 86 110
73 90 116
65 82 107
65 80 104
71 88 114
71 87 112
68 84 108
71 88 113
71 88 113
72 90 117
67 84 109
66 82 107
70 87 113
71 88 114
73 91 117
71 89 116
71 88 115
72 89 113
71 88 114
71 88 114
76 94 121
71 89 117
76 93 119
75 93 121
72 89 115
70 87 112
70 86 111
70 87 113
71 88 114
71 88 114
71 88 114
72 90 117
75 93 119
75 93 120
70 87 113
71 89 116
71 88 114
71 89 115
75 93 119
75 93 120
73 91 117
72 90 116
73 90 116
71 88 115
73 91 117
72 90 117
73 90 117
72 88 112
73 91 118
74 92 119
73 91 118
73 91 117
77 96 124
76 94 121
73 91 118
74 91 118
75 92 119
72 91 118
77 95 123
76 94 122
75 93 120
72 90 116
71 88 115
76 94 121
75 94 123
73 91 118
77 95 121
71 89 115
76 94 121
77 95 123
73 91 118
76 94 120
74 93 121
72 90 117
75 93 121
73 91 119
75 94 122
76 94 121
77 95 122
77 96 124
77 96 124
75 93 120
76 94 122
73 91 119
78 97 124
73 92 120
74 93 121
75 92 119
74 92 119
77 96 124
73 91 119
74 93 122
76 94 121
75 94 122
74 93 122
75 94 122
72 91 118
75 94 123
74 92 120
73 91 119
74 93 122
75 94 122
76 94 121
75 93 121
77 96 125
75 93 121
74 93 121
74 92 118
76 94 120
76 95 123
74 93 120
75 93 120
75 94 123
73 92 121
77 95 123
76 94 122
77 96 123
74 93 120
73 92 119
76 96 126
74 92 120
76 94 122
77 95 121
74 92 119
74 93 121
75 94 123
73 91 117
78 97 124
76 94 122
75 93 120
77 95 122
73 92 120
78 97 125
76 95 124
75 93 120
73 91 119
76 94 122
73 91 118
74 93 121
77 95 122
76 94 122
74 93 121
74 92 120
72 89 115
71 90 117
75 93 120
74 92 119
74 93 122
74 91 118
74 93 121
77 95 123
78 96 123
72 90 117
78 96 122
72 90 116
74 91 117
73 90 116
74 92 119
75 91 117
74 92 118
76 94 122
72 90 116
72 89 116
75 92 118
74 92 118
71 89 115
70 88 114
75 92 118
74 92 119
76 95 123
70 88 114
71 89 115
71 89 115
77 94 121
74 91 117
75 93 120
74 92 119
73 90 116
73 91 116
70 87 113
74 92 118
73 91 118
71 88 114
74 92 119
72 90 116
69 85 110
70 87 113
71 88 113
69 86 110
69 86 112
71 88 113
72 89 113
69 86 112
72 90 117
72 89 114
71 88 113
71 89 115
71 89 116
72 90 116
68 85 109
71 87 112
70 87 112
69 86 111
72 90 116
68 84 108
71 87 111
67 83 107
67 82 106
68 85 110
73 89 113
70 87 113
68 82 105
68 85 110
69 85 109
69 86 111
70 85 108
68 84 110
73 89 113
68 84 108
68 84 108
66 82 106
69 85 109
68 85 109
67 83 106
61 75 96
68 85 109
66 82 106
65 80 103
67 81 102
64 78 100
64 79 101
66 80 103
63 79 102
71 87 110
60 75 98
63 78 101
63 78 101
68 82 105
61 76 98
62 77 99
62 75 95
65 80 101
64 79 102
62 75 96
64 79 100
66 81 103
65 80 103
55 67 85
59 73 94
62 76 98
67 81 102
67 82 105
56 69 88
61 75 95
62 75 95
65 79 100
61 75 95
60 73 93
63 77 98
57 69 88
60 72 92
57 70 89
57 69 86
55 66 83
56 69 87
52 64 81
62 74 94
54 65 83
58 70 88
63 76 95
57 69 88
54 65 81
54 65 82
55 66 84
54 65 81
50 60 76
52 63 79
48 58 74
57 68 86
57 69 87
54 64 79
53 64 80
54 65 82
60 72 91
59 71 88
47 57 72
52 63 79
50 61 76
56 67 84
57 68 85
49 59 74
48 58 73
53 64 80
52 63 79
58 70 88
58 69 87
52 62 78
47 57 71
53 64 81
47 57 71
56 68 85
47 57 72
48 58 73
51 61 76
46 56 70
50 59 74
50 60 75
55 66 83
53 64 80
50 60 76
54 65 81
53 63 78
54 64 80
52 63 79
52 63 78
48 57 71
51 62 79
49 59 74
51 62 77
58 69 87
49 59 75
54 66 83
57 69 88
56 67 84
52 62 78
54 65 82
52 63 79
50 60 74
55 67 84
55 67 85
50 60 76
51 62 78
56 68 86
57 69 87
49 60 77
49 59 75
57 69 87
48 59 74
54 65 83
62 76 95
49 60 76
58 70 88
58 71 90
58 71 90
63 76 96
53 65 84
66 79 100
63 77 98
65 79 99
58 71 90
60 73 94
63 77 97
55 68 86
65 79 100
66 80 102
57 70 89
62 76 97
65 79 101
57 71 91
60 74 95
65 81 103
60 73 93
62 77 99
62 77 99
58 72 92
60 74 96
61 75 96
61 75 96
64 79 101
69 86 111
66 80 103
69 85 108
66 80 101
69 85 108
66 81 104
63 77 98
65 80 104
56 69 89
67 82 105
59 73 94
65 80 101
70 86 109
67 83 107
70 87 113
71 88 114
69 84 106
66 83 107
69 85 109
64 79 101
67 82 105
72 88 113
66 82 106
74 91 116
73 90 116
65 80 103
69 84 108
70 87 114
71 87 112
72 89 113
71 88 114
72 87 111
72 88 114
68 84 108
70 86 110
69 85 109
66 81 104
70 86 111
73 90 115
74 92 118
70 87 112
73 90 115
68 85 110
68 85 110
68 84 108
69 86 112
74 91 117
72 89 114
71 88 113
69 85 110
72 90 117
67 84 108
72 88 114
73 88 112
73 91 118
71 88 113
75 93 119
70 87 112
74 91 118
73 91 119
73 90 115
71 88 114
75 94 122
73 91 117
74 92 117
70 87 112
75 93 119
74 93 120
75 93 120
73 92 119
71 89 114
76 94 120
71 89 115
73 91 118
72 91 119
74 92 119
72 90 117
75 93 119
69 87 112
73 91 118
74 92 118
73 91 119
71 90 117
75 93 121
75 93 120
73 91 118
72 90 116
75 93 120
72 90 118
71 88 113
73 91 118
75 93 121
73 91 118
72 90 117
74 93 122
77 95 124
75 94 122
70 88 116
77 95 122
72 90 117
74 92 119
74 92 120
73 91 119
75 93 119
75 93 119
75 93 121
75 94 121
74 93 121
76 95 124
73 92 121
72 90 117
73 92 119
75 94 122
76 95 124
78 96 123
73 92 120
78 96 123
76 96 125
77 96 124
73 91 119
75 93 121
71 89 115
74 92 120
75 94 122
76 93 119
74 92 119
77 96 124
76 95 122
78 96 124
77 96 125
76 95 123
78 96 123
75 94 121
73 91 119
75 94 122
77 96 124
77 95 121
75 93 121
77 95 122
77 95 122
74 92 119
78 97 125
74 93 120
76 94 122
78 95 122
71 89 116
75 94 122
76 94 122
77 96 125
76 94 123
77 95 123
75 94 121
73 92 119
76 96 125
77 96 124
77 95 122
73 91 117
76 96 125
75 93 120
74 91 118
71 88 115
70 88 114
78 95 121
72 91 119
73 91 119
73 92 119
73 90 116
73 91 119
75 94 121
77 95 121
75 93 119
74 93 121
75 93 121
74 92 119
74 92 118
77 95 121
76 93 119
76 94 121
74 92 119
73 91 117
76 94 122
73 90 116
73 90 117
75 92 118
75 93 119
71 89 116
72 92 121
75 94 122
75 93 119
72 91 118
75 93 119
69 87 114
70 88 114
76 93 120
74 92 120
72 89 114
73 91 118
74 92 119
73 91 118
73 90 116
69 85 110
69 86 110
74 93 120
70 86 111
76 93 119
71 87 112
69 87 113
73 90 117
72 89 115
70 88 114
70 87 113
70 88 115
70 88 114
74 92 118
71 88 114
75 93 120
74 92 118
73 91 116
66 83 107
74 91 116
73 91 118
69 86 112
74 92 118
68 85 111
73 91 118
69 86 111
68 85 110
65 81 105
70 87 112
70 87 113
72 88 112
76 94 120
70 88 115
73 89 115
68 83 106
67 82 105
69 85 109
70 87 114
66 81 105
62 77 100
64 81 105
68 85 109
66 82 106
73 91 118
69 84 108
68 84 108
69 86 111
66 82 106
72 88 112
66 82 107
67 84 108
69 85 108
64 79 102
66 82 106
67 82 104
61 76 98
69 84 107
68 85 109
69 84 108
67 83 106
71 88 113
68 84 108
65 81 106
64 79 102
64 78 100
63 78 101
65 79 101
64 79 102
68 82 105
68 84 107
63 77 97
63 77 97
60 74 95
64 79 102
68 83 105
65 80 102
60 74 95
64 79 101
66 81 102
69 84 106
63 76 97
62 75 95
64 79 100
66 81 103
59 73 93
61 74 94
66 81 103
61 75 95
64 78 99
57 69 87
58 70 89
59 72 91
58 72 93
58 71 89
59 71 90
60 73 93
55 68 86
62 75 95
54 65 82
56 68 86
56 69 88
56 68 86
61 74 93
59 71 89
59 71 90
56 69 87
48 58 73
49 59 74
54 66 84
59 72 91
56 69 88
51 61 77
57 68 85
49 60 75
55 66 83
54 66 84
57 69 87
51 61 77
51 62 77
45 55 69
49 59 75
52 62 77
53 64 81
48 57 72
54 65 81
53 64 79
54 64 79
47 57 71
54 66 83
50 59 74
53 63 79
53 64 80
54 65 81
49 58 72
53 63 78
47 56 69
54 65 82
45 54 68
43 52 65
54 65 82
48 59 74
52 64 80
54 65 82
50 61 76
55 66 82
53 64 79
52 63 78
63 76 96
53 64 80
48 59 74
53 65 82
57 69 88
56 68 85
57 68 86
53 65 81
52 63 79
53 63 79
59 71 88
59 71 90
55 67 86
59 71 90
54 65 82
58 71 89
58 71 89
55 67 84
49 59 74
57 69 87
61 74 93
59 72 91
61 74 94
55 66 84
60 73 93
56 69 87
59 71 90
58 70 88
58 71 90
58 70 88
62 76 97
55 67 85
64 78 99
61 73 93
56 68 86
56 68 87
63 76 97
60 73 93
62 76 97
63 77 98
61 76 97
68 83 106
58 72 92
57 70 89
62 75 95
69 85 109
62 76 97
62 76 98
61 75 96
69 84 107
64 78 100
61 75 97
63 77 98
68 83 107
62 76 98
64 79 101
65 81 105
70 85 108
68 83 107
63 78 100
66 81 103
64 79 102
68 84 108
63 78 99
68 83 106
64 79 101
62 77 100
69 84 108
67 82 105
69 86 111
63 77 99
66 82 106
69 86 110
67 82 106
69 86 110
66 80 102
72 88 113
67 84 109
72 88 113
67 83 107
71 87 112
71 87 112
66 83 108
71 87 112
71 88 112
69 85 110
63 79 103
69 85 110
75 92 117
69 86 112
68 84 107
69 86 112
72 90 116
72 91 118
70 86 110
73 90 117
67 83 107
74 91 118
70 86 111
69 86 111
68 84 109
70 87 113
72 89 114
72 90 117
71 89 115
71 87 112
69 86 111
71 88 114
72 90 116
74 91 117
72 89 113
73 90 116
72 89 115
69 86 112
73 91 118
74 92 118
71 88 114
76 92 117
72 89 115
72 89 115
74 91 117
76 94 123
70 88 114
76 95 122
71 89 115
73 91 118
75 92 119
75 93 120
70 87 112
73 90 116
75 94 121
73 91 117
74 92 120
76 94 121
72 91 118
73 91 118
77 96 124
73 90 116
72 89 115
73 91 116
76 95 124
72 90 116
74 91 118
77 95 122
74 92 119
72 90 117
69 88 115
74 92 120
78 96 123
72 90 117
75 93 121
74 91 118
75 92 118
76 94 121
73 92 120
76 94 122
76 94 120
75 94 121
74 92 119
73 91 118
77 96 125
75 94 123
74 92 118
73 91 119
78 96 123
75 93 121
72 89 114
76 95 123
76 94 122
75 93 120
75 94 121
73 91 119
75 92 119
73 92 119
76 94 122
77 95 123
73 92 121
76 94 121
78 96 124
75 94 121
76 94 120
75 94 121
77 96 124
74 92 119
77 95 121
76 94 122
76 95 122
75 93 121
76 94 122
75 94 121
75 93 121
75 94 121
76 94 122
79 96 122
76 95 122
74 92 119
77 95 123
74 91 117
75 94 123
75 94 121
75 93 121
73 92 120
76 94 121
76 93 119
76 94 121
74 91 117
74 91 117
74 93 121
74 93 120
76 95 122
75 93 121
77 96 124
72 89 115
77 95 122
74 92 117
74 93 121
75 94 122
75 93 121
69 87 113
73 90 116
72 88 114
76 95 123
77 95 121
75 93 120
74 92 119
75 93 120
72 89 115
74 92 118
75 93 121
70 87 113
73 91 118
74 92 119
72 89 115
74 92 120
78 95 121
70 87 114
76 93 120
74 93 121
75 92 119
73 91 118
76 95 123
72 89 116
74 92 118
72 89 115
71 88 113
76 93 118
72 90 118
72 90 116
72 90 116
72 89 115
73 92 119
75 92 118
74 92 119
69 87 113
75 94 122
70 89 116
72 89 115
72 89 115
76 93 119
71 88 115
72 89 115
75 93 120
68 85 110
72 89 115
70 85 108
67 84 109
73 90 117
73 90 115
71 89 116
73 90 115
70 87 112
72 89 116
71 89 116
72 88 114
74 92 118
72 89 113
73 91 118
71 87 111
73 91 118
71 89 115
73 90 116
72 89 115
69 86 111
69 85 110
69 86 112
72 88 113
72 88 113
67 83 108
68 84 110
67 84 109
70 86 109
68 84 108
71 88 113
73 91 117
69 85 109
67 83 107
64 79 100
70 87 112
72 89 114
69 84 107
66 82 105
66 82 107
70 85 109
63 77 99
64 79 101
68 84 107
69 85 110
64 79 102
72 89 113
66 81 104
67 83 107
66 81 105
66 82 105
65 81 104
72 90 116
66 82 106
64 78 99
64 79 102
66 82 105
69 85 109
67 82 104
66 81 104
61 75 96
66 81 103
66 81 103
64 79 101
69 85 108
64 79 102
63 78 101
56 69 89
62 75 95
67 83 106
63 77 97
65 78 99
62 75 95
62 76 98
60 74 95
65 79 102
53 65 83
61 75 96
60 74 94
58 71 91
64 78 98
59 72 92
57 69 87
55 68 87
61 74 94
58 70 88
64 78 98
59 71 89
54 66 83
54 66 83
56 67 85
57 69 87
60 73 92
58 70 89
53 64 80
56 69 87
58 70 87
58 71 90
52 63 80
54 65 82
56 68 85
58 70 88
51 61 76
59 71 89
49 60 76
50 60 76
60 73 93
51 61 76
49 59 75
54 65 82
48 59 76
54 65 81
55 67 84
51 61 76
53 64 82
50 60 76
52 63 80
53 64 81
53 63 79
52 62 78
48 58 72
58 70 88
51 62 77
54 65 82
55 66 82
52 62 78
51 61 77
50 61 77
52 62 77
55 66 83
55 67 83
54 65 81
52 62 78
53 64 80
51 62 79
53 63 79
51 62 78
54 65 82
52 63 80
53 64 81
56 67 84
49 59 74
58 70 88
52 62 78
56 68 86
54 66 84
55 66 82
55 66 83
53 64 81
64 77 98
54 65 81
58 70 88
56 67 84
55 67 85
59 71 90
51 62 79
56 68 86
57 69 88
62 74 92
53 65 83
59 71 90
52 63 79
53 64 81
58 70 88
60 73 92
60 72 91
61 73 92
56 69 87
59 72 91
63 78 100
62 75 94
62 77 98
59 72 91
60 75 96
64 77 96
59 72 91
66 80 102
59 72 92
63 78 99
64 78 100
58 70 89
63 77 99
63 78 99
64 78 100
68 83 106
66 82 105
60 73 93
61 75 96
60 73 94
62 76 98
68 85 109
66 80 102
68 83 106
60 74 94
65 80 103
64 80 105
61 74 94
65 80 103
69 85 109
66 82 105
69 85 109
70 86 110
63 78 99
61 74 95
62 77 99
63 77 98
67 83 108
70 86 110
67 83 106
67 82 106
68 84 108
63 77 98
67 83 106
68 83 107
70 86 109
66 82 104
69 85 110
66 82 105
66 82 106
70 87 112
68 84 108
74 92 118
69 86 110
67 83 108
70 87 111
71 88 114
68 84 108
68 84 109
71 88 114
73 89 115
69 86 111
71 88 113
73 91 117
71 87 111
69 86 111
70 87 112
70 87 113
73 90 117
72 88 112
69 86 112
71 88 114
71 89 115
70 87 112
71 89 115
72 91 119
71 88 114
73 91 119
74 91 115
70 86 111
68 85 111
73 90 115
76 93 119
76 94 120
71 89 115
72 89 115
75 93 120
70 88 114
73 90 116
71 88 114
75 93 119
73 90 116
71 88 114
71 88 114
71 89 115
76 94 121
72 90 117
76 94 120
75 94 123
74 92 118
72 90 116
73 91 117
75 93 119
76 94 120
73 91 117
75 93 119
74 92 118
69 86 112
74 91 117
74 93 120
73 91 118
73 92 120
74 91 117
73 91 119
75 93 120
75 93 119
73 91 117
74 91 118
75 93 120
73 91 118
75 93 120
73 91 119
75 94 122
73 91 117
75 94 122
75 93 119
76 94 121
70 88 114
77 96 124
77 96 124
75 93 122
79 97 124
73 91 119
74 91 118
75 93 121
78 95 121
75 94 121
74 92 119
76 95 124
75 93 120
77 95 121
75 95 125
75 93 121
76 94 121
75 94 122
76 95 124
75 93 121
76 95 122
75 93 120
72 90 115
78 97 125
76 94 122
74 93 120
76 94 122
77 96 123
76 95 122
75 94 123
77 95 122
76 94 121
75 93 119
72 90 117
78 96 124
78 96 124
74 93 121
80 99 127
76 95 122
75 94 121
77 96 124
76 95 123
76 94 121
74 92 119
73 92 120
74 93 122
76 95 122
75 93 121
77 95 122
77 95 123
76 95 122
76 95 123
74 93 120
75 94 122
74 93 121
75 93 121
70 87 113
77 95 122
76 94 121
76 95 122
71 89 116
73 91 118
76 95 124
73 90 117
76 94 119
75 93 119
73 91 118
73 91 117
74 92 119
74 93 120
72 90 117
74 91 117
72 89 115
74 92 120
71 89 115
76 94 122
76 94 121
72 90 119
74 93 120
73 91 117
74 92 118
76 96 125
71 88 114
71 88 113
73 91 117
72 90 117
74 91 117
74 91 117
74 91 117
73 91 119
72 91 119
76 94 121
68 85 110
75 92 117
72 91 119
74 92 119
72 90 116
74 92 118
73 90 117
71 89 115
72 90 116
74 92 119
77 96 123
74 94 123
68 85 110
71 88 113
74 90 115
72 90 117
70 88 114
73 91 118
75 93 120
69 87 113
71 89 116
71 89 115
74 92 119
71 89 115
73 90 117
70 86 110
71 88 115
70 86 110
71 89 116
68 85 111
68 86 113
70 88 113
72 88 113
69 87 112
70 88 113
72 90 117
71 88 112
73 91 116
70 88 114
67 83 107
67 83 107
69 85 109
68 84 108
72 89 115
70 86 111
69 84 107
66 82 106
69 86 112
71 87 112
70 86 110
69 85 110
69 85 109
67 82 106
70 86 110
61 76 98
65 79 100
66 80 102
66 82 105
65 80 102
67 83 106
70 85 108
71 87 111
67 82 105
66 83 107
62 77 99
69 84 108
65 81 105
63 78 100
65 80 101
68 84 108
69 85 109
64 79 102
67 82 106
64 78 98
68 83 106
64 79 100
58 70 89
65 80 102
64 80 103
61 76 97
64 78 99
66 80 102
60 73 93
66 80 102
63 78 99
61 74 93
56 70 90
55 68 88
63 76 96
63 79 101
60 74 95
60 74 95
59 72 91
62 76 96
56 68 85
57 70 90
54 66 85
57 70 89
58 70 88
59 72 92
58 72 92
60 73 93
57 69 88
57 70 88
54 66 84
59 72 90
51 62 79
49 59 75
61 74 93
55 67 86
58 70 88
57 69 87
60 73 93
47 58 73
56 68 86
55 67 84
61 74 93
55 66 84
52 63 79
50 60 76
59 71 88
50 60 75
54 65 82
58 70 89
51 62 78
59 72 91
59 71 90
56 67 84
54 65 82
55 66 82
52 63 78
53 64 80
54 66 83
53 64 81
55 66 83
53 65 82
53 64 81
50 60 76
55 66 84
52 63 80
55 67 84
56 68 86
52 62 77
56 68 86
53 64 80
50 60 75
50 60 76
51 61 76
58 69 87
56 68 86
55 66 83
59 72 92
58 70 87
58 70 89
56 68 86
53 64 81
58 70 88
57 68 86
54 65 82
56 67 84
61 75 95
55 67 85
54 66 83
57 69 88
61 73 91
55 67 86
58 71 90
59 72 91
57 69 88
62 75 95
52 63 79
53 65 82
59 71 90
63 76 97
59 72 90
62 76 97
62 75 95
61 74 93
66 80 102
61 74 94
61 74 94
54 66 83
58 72 91
60 73 92
60 74 94
66 81 104
71 85 108
60 73 94
62 77 100
61 75 96
57 70 89
60 73 94
65 80 102
67 84 108
66 81 104
61 75 96
65 79 101
61 75 97
65 79 101
64 80 102
64 79 102
59 72 93
63 77 98
63 76 97
62 76 98
62 76 98
67 81 103
62 76 97
58 72 93
67 83 106
65 80 102
67 82 105
64 79 101
61 75 96
64 79 101
69 85 108
67 82 106
62 76 97
62 77 99
71 88 112
65 80 104
70 86 110
72 88 112
69 85 109
71 87 111
66 82 106
65 81 105
67 83 106
69 84 107
71 87 112
66 83 109
65 81 105
65 81 104
66 82 107
67 84 109
67 84 110
68 84 109
68 85 110
72 89 114
67 84 109
71 87 110
72 89 114
68 85 111
67 84 108
73 91 117
70 86 110
69 85 109
71 88 113
69 87 113
74 92 119
70 86 110
71 89 114
73 90 115
69 86 111
70 87 111
69 85 109
74 91 117
71 88 113
72 89 114
70 87 112
74 92 118
72 89 114
71 88 114
72 90 116
69 85 108
71 88 115
73 90 115
76 94 121
73 90 115
75 94 121
72 90 116
75 93 120
73 90 117
74 91 118
74 93 120
74 92 119
72 89 115
75 92 118
69 86 112
71 89 116
74 92 118
75 93 121
74 91 118
72 90 117
73 91 117
70 87 114
75 93 121
72 90 117
73 91 117
72 90 118
73 91 119
75 93 121
73 91 116
74 93 120
76 94 122
74 93 120
76 95 122
75 92 118
73 91 118
76 94 121
75 93 120
74 92 118
76 95 125
73 90 117
75 94 122
72 91 119
77 94 121
76 94 121
74 92 120
76 94 122
76 94 121
76 95 123
76 94 123
76 94 121
75 93 120
76 94 123
74 91 117
75 93 120
76 94 122
72 91 119
73 91 117
74 92 118
74 93 121
75 93 120
77 96 125
76 94 121
75 94 122
76 94 121
78 96 124
76 96 125
73 91 119
74 92 119
76 95 123
77 95 121
75 94 122
74 91 118
76 95 123
75 94 122
78 97 125
74 93 122
73 91 119
75 94 122
75 93 121
76 95 122
73 91 117
76 96 124
76 95 123
71 89 115
76 94 122
78 96 123
73 92 119
76 94 123
74 92 120
76 94 120
75 94 122
74 91 118
76 94 121
73 91 118
75 93 120
77 95 123
75 93 120
75 94 122
73 91 117
74 92 119
75 93 120
77 95 121
75 93 119
77 95 122
73 91 118
74 92 120
73 91 117
75 93 119
76 94 120
73 90 116
73 90 116
72 90 117
76 94 120
75 92 118
72 89 114
76 94 121
77 94 120
74 92 119
72 89 116
71 88 114
71 89 116
76 95 122
72 91 119
75 93 119
72 90 117
74 92 119
73 89 114
75 92 118
73 91 119
75 93 120
74 91 115
75 93 120
74 92 119
72 90 116
72 89 114
76 94 121
74 92 120
68 84 108
73 91 118
73 91 118
73 91 117
73 91 118
76 95 124
72 89 114
71 89 115
70 87 111
70 86 111
72 89 115
74 91 117
71 88 114
68 85 110
72 91 118
74 92 118
72 91 118
73 90 115
71 89 115
69 86 111
72 89 116
70 87 111
71 88 114
69 86 111
71 87 112
68 85 110
73 90 116
72 89 115
69 86 110
67 83 107
72 90 116
68 85 111
69 85 111
65 81 106
71 88 115
72 89 115
69 85 110
73 89 114
75 92 117
64 79 102
71 88 114
73 90 115
66 81 105
67 82 104
71 88 113
68 83 106
65 82 106
68 83 107
70 87 111
70 86 110
70 87 113
68 84 108
66 82 107
66 82 106
72 89 114
65 81 105
66 82 106
64 79 100
66 82 105
72 89 114
61 75 96
64 78 100
70 87 111
67 83 108
65 80 103
65 80 103
63 76 96
67 83 106
65 80 102
67 82 105
60 73 94
64 79 101
62 76 97
71 86 110
65 80 102
58 72 92
64 78 101
61 75 96
64 79 100
66 80 100
66 82 105
68 83 106
64 78 100
56 69 89
66 80 102
63 77 98
62 75 95
61 74 93
58 71 91
63 78 99
62 75 96
56 68 87
67 82 104
58 70 88
60 74 94
62 76 96
57 69 88
63 77 98
59 72 91
57 69 87
60 73 92
61 74 93
60 73 92
58 71 91
55 67 85
59 72 91
60 73 92
55 67 85
56 68 86
61 74 93
61 73 92
56 68 85
51 62 78
60 73 92
60 74 93
58 69 86
53 64 80
56 69 87
46 55 69
58 70 87
61 73 91
56 67 84
53 64 80
54 65 82
52 62 78
57 69 87
56 68 86
52 63 80
52 63 80
61 73 90
53 64 81
48 59 74
54 66 83
53 65 81
50 60 76
56 68 86
48 59 74
56 67 84
54 65 82
49 59 74
53 64 81
55 66 83
49 59 74
52 63 80
54 65 82
60 71 89
60 73 92
52 62 78
53 64 81
59 70 88
53 64 81
52 62 78
55 67 84
61 74 92
53 64 81
57 69 88
57 69 86
56 67 85
48 59 75
58 70 88
62 75 95
55 67 84
61 74 94
56 69 88
53 65 82
56 68 85
55 67 84
57 69 88
61 75 95
57 70 89
61 74 93
60 73 93
63 76 97
52 63 80
60 73 92
61 74 94
59 72 92
60 74 95
60 72 91
55 67 86
56 68 86
57 69 88
56 69 87
61 75 96
61 75 95
63 76 97
60 74 95
57 70 89
63 77 99
64 78 99
61 75 95
61 75 96
64 78 100
69 84 106
64 78 100
65 80 104
59 71 91
62 76 98
63 77 99
60 74 96
58 71 91
67 82 105
62 76 98
67 82 105
62 75 95
63 76 96
67 82 105
64 79 100
63 78 100
66 81 104
64 79 102
71 87 111
63 79 102
66 81 104
66 81 104
64 79 101
68 84 107
66 82 104
68 83 106
67 83 107
71 88 113
67 83 107
67 84 108
68 85 109
67 83 106
72 88 114
69 85 110
65 81 106
69 85 108
67 82 104
67 83 106
72 89 114
67 83 108
62 78 100
68 85 110
67 82 105
69 86 111
69 85 110
75 92 118
70 87 112
70 86 110
72 88 114
71 88 113
66 83 108
74 92 118
71 88 113
71 88 114
73 90 116
71 89 114
72 89 114
70 87 113
67 84 110
74 91 118
71 88 112
68 85 111
71 89 116
71 88 113
71 89 115
69 86 112
74 92 119
72 91 118
69 86 111
72 91 118
71 88 114
76 94 122
73 91 118
69 86 112
72 89 114
70 87 113
70 87 113
71 88 114
73 91 117
72 89 115
75 92 117
73 90 117
70 87 113
71 88 114
70 87 113
73 91 118
73 91 118
72 89 115
70 87 113
74 91 118
73 91 118
73 90 116
74 91 117
70 87 112
74 92 121
72 90 118
71 89 116
73 92 119
74 91 118
75 94 121
77 94 120
74 91 118
71 89 116
76 95 122
74 92 118
76 94 121
73 90 115
74 91 118
75 93 120
73 92 120
75 92 119
76 95 122
73 90 117
76 94 122
75 93 120
76 93 119
75 93 120
74 92 119
76 95 124
73 91 117
75 94 122
75 93 120
75 93 120
73 91 117
75 93 120
74 92 119
78 97 126
78 97 126
77 96 124
76 94 122
77 95 122
72 89 116
76 95 123
76 94 121
74 92 118
73 92 120
74 93 121
74 92 120
76 95 123
75 93 120
77 95 122
73 91 118
76 94 121
75 94 121
75 95 124
77 96 124
76 95 122
78 96 123
73 92 120
76 95 122
75 92 119
78 96 123
77 95 122
73 92 119
77 96 124
74 92 118
73 92 119
75 92 119
78 96 125
70 86 111
76 94 120
77 95 123
76 94 121
77 95 123
74 93 121
76 95 123
76 94 121
74 92 120
75 92 119
76 94 122
77 94 121
76 94 120
75 93 120
73 91 118
77 95 123
72 90 116
76 94 122
71 88 114
74 93 120
75 93 120
72 90 117
73 91 119
75 92 118
74 93 121
73 91 119
75 93 120
72 90 117
72 90 118
73 91 119
72 90 117
74 92 119
75 93 121
73 91 117
73 91 119
76 94 122
76 94 121
72 89 114
76 95 123
73 92 120
73 90 115
75 94 122
74 92 118
72 90 117
74 92 118
72 89 116
70 86 112
74 92 119
75 93 120
70 87 113
67 83 108
72 90 117
73 90 116
71 88 114
73 91 117
72 89 114
77 93 119
71 88 113
70 86 111
73 91 118
68 85 111
75 92 117
74 90 114
73 90 116
70 85 109
67 83 108
72 89 115
70 87 111
71 88 113
72 89 116
70 88 115
71 89 115
71 88 114
72 89 115
65 81 104
72 89 114
67 83 107
71 88 114
70 86 111
72 89 115
67 84 109
66 82 106
68 85 110
70 87 111
71 87 111
69 85 108
69 86 112
67 82 105
70 86 111
71 88 113
66 82 106
69 85 109
70 86 110
70 86 111
65 80 102
71 88 113
69 85 110
67 82 105
69 86 110
65 81 104
63 78 101
70 86 111
65 80 102
70 87 112
68 85 110
69 84 106
66 81 104
63 78 101
69 85 109
65 79 101
69 85 109
66 82 105
66 81 103
66 81 104
61 76 98
65 80 103
58 72 93
66 81 103
62 77 100
63 78 100
63 77 97
63 78 100
64 78 99
64 78 100
64 79 101
64 79 100
65 80 101
65 80 102
66 80 102
66 81 104
68 83 106
67 81 103
60 75 96
59 73 93
58 71 91
67 82 104
63 77 99
57 69 88
60 73 92
65 79 100
59 72 92
64 78 100
56 69 88
62 75 95
59 72 91
62 76 97
58 70 89
57 70 89
54 66 84
54 65 83
55 68 87
56 69 88
58 71 90
59 71 90
52 64 80
59 71 88
53 65 83
59 71 90
60 72 92
62 75 94
54 65 82
55 67 84
58 70 88
55 67 86
57 68 85
51 62 78
55 66 84
49 60 75
60 73 91
56 68 85
60 72 91
56 67 84
52 63 79
53 65 83
52 63 79
54 66 83
60 73 93
57 69 87
54 65 83
52 63 79
53 64 79
55 67 84
59 71 90
57 69 87
47 57 72
52 63 79
45 55 70
55 67 85
55 66 83
52 63 79
54 64 81
53 64 81
52 63 79
51 62 79
52 62 78
56 67 85
58 70 87
58 69 86
51 62 78
55 67 84
52 63 79
58 70 88
55 67 85
56 68 85
54 66 84
52 63 80
58 71 90
58 71 91
59 73 92
60 73 92
61 75 95
59 71 90
53 65 83
57 69 89
55 67 85
55 68 87
58 71 90
56 67 84
60 72 90
66 79 98
59 71 90
58 71 90
59 73 93
58 71 90
58 70 88
61 74 94
56 70 90
60 73 94
64 77 98
60 74 94
65 79 100
66 80 102
60 74 94
61 75 95
63 77 97
58 71 90
64 79 103
57 69 88
59 72 92
60 74 94
64 79 101
63 78 100
66 80 101
61 74 94
58 72 93
69 84 107
63 78 101
62 75 95
66 81 103
62 77 99
71 86 109
63 78 100
64 80 102
68 83 106
64 80 103
63 76 96
63 76 96
68 84 109
64 78 101
69 84 108
64 80 103
67 82 104
70 87 113
68 83 105
68 84 108
67 84 108
68 84 108
69 85 108
61 76 98
64 79 101
64 79 101
68 85 111
73 90 115
68 85 109
65 80 103
69 85 109
65 81 104
66 82 105
69 86 110
66 82 106
68 85 110
69 85 109
69 86 112
70 87 112
68 85 109
68 84 108
68 85 109
72 88 112
69 86 111
71 88 113
70 87 113
68 84 108
71 88 114
70 86 111
71 88 113
66 83 108
69 86 110
71 88 113
68 84 108
73 91 118
69 86 111
70 88 114
72 90 116
68 85 109
69 85 109
71 89 115
69 86 111
73 90 116
73 91 117
71 88 113
69 87 113
73 91 118
69 87 113
72 90 117
70 87 111
77 95 122
71 89 115
72 90 117
73 90 116
73 90 116
75 94 121
76 94 120
72 89 115
72 88 113
72 90 117
73 91 118
75 93 120
74 91 117
74 92 118
73 90 116
72 89 115
70 88 115
72 90 116
71 88 113
75 93 120
74 92 119
71 90 117
77 95 122
71 90 118
72 90 116
75 93 120
75 94 121
73 91 119
73 91 117
73 92 119
71 89 115
74 91 118
77 95 123
76 94 120
77 94 121
76 95 124
74 92 121
72 89 114
76 94 122
75 93 120
76 95 123
78 97 126
76 94 121
74 93 120
72 90 118
74 92 119
76 95 122
76 94 121
77 95 123
74 92 119
75 94 122
73 91 118
72 90 117
73 92 121
75 93 120
76 94 121
75 94 122
74 92 120
77 96 124
76 94 122
75 95 123
76 95 123
74 92 119
76 94 121
76 95 122
76 94 120
77 96 124
77 95 123
76 95 122
79 97 125
77 96 123
75 94 121
75 93 121
74 93 121
76 94 122
75 92 119
74 92 119
75 93 120
75 93 120
75 93 120
72 90 116
73 91 117
77 95 122
76 95 123
79 97 124
73 92 119
75 93 119
75 93 119
75 93 121
73 91 117
74 93 121
71 88 115
78 95 122
74 93 120
78 96 124
77 95 122
75 93 120
73 91 118
76 93 120
72 90 117
76 95 123
74 92 119
74 92 118
75 93 119
73 92 120
77 96 123
71 89 115
74 92 120
73 90 117
73 91 119
77 95 123
73 91 119
72 89 115
70 88 116
76 95 122
74 92 118
73 91 118
73 91 118
77 95 123
74 93 121
73 91 119
75 93 119
70 87 113
74 92 119
72 90 115
75 93 121
74 92 119
70 88 115
74 92 120
73 90 116
72 90 117
74 92 120
73 90 115
73 90 116
75 93 118
74 92 119
71 90 117
74 92 119
71 88 114
74 91 116
75 93 118
70 87 113
71 87 112
75 93 119
71 87 111
73 90 117
71 89 116
69 86 112
74 91 116
74 91 117
70 87 113
73 90 116
71 89 115
71 88 113
71 88 112
69 86 111
69 85 110
71 87 111
70 87 112
72 90 116
69 86 111
69 87 113
73 90 116
69 86 112
71 88 113
67 84 109
68 84 108
68 85 109
71 87 112
71 87 111
71 88 112
70 87 111
70 86 110
74 92 118
65 80 102
74 91 116
66 82 106
70 86 111
71 87 112
70 87 112
69 84 108
64 79 102
66 82 105
68 84 106
71 88 113
66 82 106
72 88 113
65 81 104
69 85 109
64 80 105
68 83 105
66 82 105
65 81 104
65 79 101
61 76 98
67 82 105
60 73 92
61 76 97
70 86 110
69 83 105
67 83 106
64 78 98
67 82 105
69 84 107
64 78 100
65 79 102
64 78 99
66 81 104
58 72 92
62 76 97
60 73 93
65 79 101
59 73 93
62 77 98
62 76 97
58 72 93
62 77 98
66 81 104
59 73 93
58 72 93
58 72 92
57 70 90
65 79 100
59 72 91
57 70 91
58 71 90
60 74 96
57 69 88
58 70 89
59 72 92
56 69 87
60 73 92
57 70 89
61 74 94
60 73 93
57 69 87
60 73 93
58 70 89
58 71 91
58 71 90
60 72 91
55 67 86
57 68 84
57 70 88
58 71 90
58 71 90
61 73 92
55 67 85
62 75 95
63 76 95
55 68 86
59 72 90
55 67 85
58 70 89
50 61 78
57 69 87
63 76 95
53 64 82
54 66 82
54 65 82
54 65 81
53 64 80
49 59 74
58 71 89
53 65 82
49 59 75
57 69 86
52 64 81
53 64 81
55 67 84
58 71 90
56 68 85
55 67 85
57 69 88
54 66 83
56 69 88
50 60 76
56 68 86
51 61 77
60 72 91
58 70 88
52 63 79
52 63 79
56 67 83
52 63 80
56 68 87
55 67 87
56 68 86
57 69 86
56 68 86
55 67 85
58 70 89
57 69 87
64 77 96
54 65 82
60 73 92
56 68 86
57 69 86
51 61 78
57 69 87
56 69 88
58 70 89
57 70 89
55 67 86
62 76 98
55 68 88
57 69 88
61 75 95
58 71 91
61 75 96
57 69 88
57 70 89
62 75 96
65 79 101
57 70 90
65 80 103
66 80 102
53 64 81
62 76 97
61 75 96
60 73 93
62 76 97
57 70 89
55 69 89
65 79 100
61 75 97
63 77 97
66 80 102
62 75 96
64 78 98
63 78 100
63 77 97
62 77 99
68 83 106
66 81 103
63 77 98
67 83 106
62 76 97
69 84 106
65 80 101
64 79 101
64 78 101
65 80 103
67 83 106
66 82 105
66 81 104
67 82 106
65 80 103
63 77 99
68 84 109
64 79 102
65 80 103
69 85 110
72 89 114
66 83 107
66 82 105
67 83 108
69 85 108
70 86 110
66 83 108
69 86 111
70 86 110
69 85 108
72 88 113
71 88 113
66 82 105
70 87 113
65 81 104
69 85 110
71 88 114
71 87 112
74 92 118
67 84 109
69 85 109
74 91 117
66 81 104
68 84 109
67 83 106
70 87 113
70 87 111
68 85 111
73 90 117
72 89 115
71 88 114
72 89 115
71 89 115
69 86 111
73 90 116
70 86 111
71 89 116
68 85 111
68 84 107
71 89 116
69 87 113
72 90 118
73 91 118
72 90 117
74 92 118
69 86 112
75 93 120
72 89 116
69 88 116
72 90 116
71 88 113
76 94 120
68 84 109
72 89 115
72 88 113
73 90 115
70 88 114
72 90 116
72 90 116
71 89 117
70 87 114
74 92 119
75 93 120
74 93 121
69 87 113
73 91 118
70 88 115
69 87 113
72 90 116
75 92 118
74 91 117
74 92 119
73 91 117
73 90 117
71 88 113
75 94 122
73 92 121
78 96 123
75 92 118
76 94 121
75 93 120
73 91 118
74 92 119
76 93 119
74 91 116
78 96 123
77 96 124
72 89 114
75 93 119
72 90 117
77 96 124
78 96 124
76 94 122
78 96 124
76 94 121
75 93 119
74 91 118
76 95 123
79 97 124
73 91 117
74 92 119
78 96 123
75 93 120
75 92 119
73 91 118
74 92 120
76 93 120
75 94 122
71 89 117
74 93 121
72 89 114
74 93 121
79 97 124
76 94 122
73 90 116
75 93 121
74 93 122
72 90 117
72 89 115
78 96 124
74 91 118
75 94 122
76 94 121
75 94 123
75 94 123
75 93 121
75 94 123
76 95 123
72 91 118
78 97 125
77 96 124
77 95 123
72 90 118
76 94 122
73 91 118
75 93 121
75 94 122
75 92 119
75 93 120
74 92 118
76 95 122
74 92 118
78 96 123
76 94 120
73 91 119
74 92 120
74 94 123
75 93 120
71 88 113
76 95 122
75 93 121
75 93 121
73 90 117
76 94 121
75 93 120
73 91 117
75 93 121
70 89 117
75 93 121
77 95 122
73 92 120
74 92 119
78 96 124
71 88 115
75 93 118
73 91 117
72 90 117
72 90 118
71 89 116
72 89 114
70 87 113
72 89 116
74 92 119
73 91 119
71 89 115
70 88 115
70 88 114
71 89 115
71 89 114
72 89 114
72 89 115
75 94 122
75 92 119
71 89 116
69 85 111
73 90 116
73 90 116
72 89 116
69 86 113
71 87 111
73 90 116
66 83 108
72 89 114
73 89 115
76 95 122
69 85 110
72 90 117
73 90 116
73 90 115
72 89 115
71 88 115
68 85 111
68 85 110
73 91 117
73 90 116
69 85 110
74 92 118
72 90 115
72 89 115
71 87 112
68 84 107
71 88 112
67 83 107
71 89 116
71 87 111
69 84 108
70 87 112
72 89 115
68 84 108
68 84 109
69 86 111
71 88 115
65 80 103
69 85 109
67 83 107
70 86 110
69 85 108
73 90 116
67 83 107
72 89 114
66 81 104
63 78 101
65 80 103
70 87 112
65 80 103
67 83 106
66 81 104
67 83 108
69 85 108
66 81 105
69 85 109
64 79 102
60 75 96
67 82 104
70 86 110
65 79 101
64 79 101
65 80 103
65 79 100
66 81 104
67 82 105
61 76 98
72 88 111
69 85 109
65 80 102
60 74 95
63 76 97
67 82 104
62 75 95
61 74 94
64 79 101
62 76 96
67 82 105
61 75 96
61 74 93
61 75 96
65 79 102
60 74 95
69 83 105
63 77 99
62 76 97
62 75 95
65 80 102
58 71 90
61 74 94
65 80 101
60 73 93
58 71 91
53 65 83
56 68 87
56 69 89
58 71 90
58 70 89
60 73 92
58 70 88
55 67 85
56 69 88
58 70 88
61 74 93
60 73 91
56 68 86
58 72 92
56 67 85
60 73 93
60 73 92
55 66 83
61 74 93
55 67 86
56 68 86
57 69 87
63 76 96
57 69 87
57 69 87
47 57 73
57 68 85
66 79 100
54 65 82
52 63 81
59 71 90
51 62 77
53 64 81
54 66 84
55 67 84
58 71 89
51 62 78
56 68 86
53 65 82
60 72 91
60 72 91
51 61 77
55 66 84
56 68 85
57 69 87
53 64 82
57 69 87
52 64 81
53 64 82
59 71 89
54 66 84
57 68 85
60 73 92
51 62 78
53 65 83
59 71 90
64 78 98
56 68 86
51 63 80
58 71 90
59 72 92
51 63 81
58 71 90
56 67 84
55 66 84
62 76 97
58 71 89
59 72 91
59 72 92
58 71 89
57 70 89
62 77 98
58 70 89
59 72 91
58 71 91
69 84 106
61 74 94
62 75 96
59 71 90
58 70 89
60 73 92
62 75 96
62 75 95
59 72 93
62 75 95
56 69 89
62 77 98
64 79 100
63 77 98
60 73 93
60 74 94
64 77 98
65 80 103
68 84 107
65 79 102
57 71 91
61 75 96
61 76 97
64 79 100
60 73 94
62 76 97
65 80 103
69 84 106
66 82 107
66 82 106
64 79 101
67 84 108
65 80 103
56 69 88
62 76 97
65 80 102
69 84 108
61 75 96
64 79 102
63 77 98
68 83 107
63 77 98
67 82 106
72 88 113
67 82 105
69 84 107
66 82 107
66 82 106
65 80 104
63 78 101
68 84 107
60 74 97
72 88 111
70 86 111
68 84 108
69 86 110
66 82 106
70 87 111
68 84 110
68 83 106
70 86 110
68 84 109
74 91 117
71 88 113
74 91 117
69 87 113
67 83 107
68 84 108
69 85 110
67 83 107
68 85 110
67 83 106
71 89 116
68 85 110
64 79 102
72 88 113
73 89 114
70 86 111
69 86 111
72 90 116
66 81 105
72 90 116
78 96 123
71 88 113
74 92 119
75 92 118
71 88 113
71 88 114
72 88 114
73 90 116
71 90 117
72 89 115
72 89 113
70 88 114
72 90 116
72 90 117
73 91 119
73 91 119
73 89 113
70 88 115
71 88 114
70 88 113
71 89 115
72 89 116
76 94 121
75 93 120
70 87 112
74 93 120
71 89 116
71 89 116
71 88 113
75 92 119
75 92 118
73 90 115
71 87 112
73 91 117
72 90 116
72 89 115
69 86 112
74 92 119
72 90 117
72 89 115
73 91 118
72 89 116
74 92 118
76 94 121
74 92 120
76 94 121
76 93 119
72 89 116
75 93 120
74 92 119
77 96 123
76 95 122
75 93 120
74 92 119
72 90 117
71 89 117
74 92 119
76 93 120
73 90 117
73 91 118
77 95 123
75 92 119
74 93 122
75 93 119
77 95 122
79 98 125
74 93 121
79 97 125
74 92 119
73 90 116
76 94 122
75 93 120
74 92 119
73 91 118
74 93 120
73 91 118
76 94 122
77 95 121
74 91 117
76 95 124
77 96 124
77 97 125
77 96 124
78 96 124
79 97 124
72 91 118
75 93 121
77 95 123
75 94 121
73 91 118
77 95 122
75 93 120
73 91 118
74 91 118
76 95 122
77 95 123
75 92 119
77 96 124
72 90 117
77 95 123
75 94 122
74 92 119
71 88 114
77 94 121
74 91 118
73 90 117
77 95 122
77 96 124
74 92 119
76 94 120
76 94 122
75 93 120
75 93 120
78 96 123
72 89 114
75 94 123
74 91 118
73 91 118
72 91 119
74 93 121
74 93 120
72 91 119
76 94 121
74 92 118
76 94 121
77 94 120
71 90 118
76 94 120
73 90 117
71 89 115
72 90 117
70 87 113
71 89 115
70 87 113
70 88 114
72 90 117
70 87 113
73 92 119
70 88 114
72 90 116
72 90 117
75 93 120
76 93 120
72 89 115
75 93 119
68 85 109
70 86 111
72 89 115
69 85 110
71 89 114
72 88 113
74 91 117
73 91 119
76 94 121
73 90 115
73 91 118
71 88 113
71 88 113
71 88 114
74 92 119
68 86 112
72 89 115
69 87 113
69 86 110
68 84 109
73 89 113
67 84 109
73 90 116
73 90 116
69 85 108
69 85 110
69 86 111
73 90 115
68 85 110
68 84 108
69 86 111
69 85 109
65 81 103
70 88 113
74 91 118
66 83 107
67 84 109
66 83 109
68 83 107
65 81 105
69 86 110
69 85 109
69 86 111
72 88 113
68 84 108
71 87 112
67 82 105
70 86 111
65 80 103
71 86 110
65 81 104
64 81 106
69 86 110
71 88 114
65 81 104
65 80 102
69 85 110
63 78 99
67 83 107
65 81 104
67 83 107
64 79 101
64 79 102
69 85 108
59 74 95
69 84 107
65 80 103
63 78 101
67 82 104
64 78 99
70 85 108
61 74 95
62 75 96
58 71 90
58 72 93
64 78 98
62 76 97
65 79 102
64 78 100
64 78 99
63 78 100
60 74 94
60 73 94
67 82 105
65 80 103
67 81 103
60 74 94
62 76 96
62 76 96
63 77 100
62 76 98
58 72 92
62 76 96
60 73 92
58 71 89
63 76 96
62 75 94
60 72 90
57 70 89
64 78 99
56 68 86
58 71 91
56 68 87
58 71 90
60 73 93
67 81 102
58 71 90
60 72 91
55 67 84
53 64 81
61 74 94
58 70 88
58 70 88
61 76 98
58 70 88
54 66 84
58 71 90
51 62 79
55 68 87
62 75 95
57 69 86
55 67 84
58 70 89
57 70 89
55 67 86
59 72 90
56 68 87
51 61 77
56 68 87
51 62 78
64 77 97
56 68 85
60 72 91
59 71 90
53 64 81
55 66 83
59 72 92
55 67 84
53 65 82
54 66 85
62 75 95
54 66 84
59 72 90
64 78 98
55 67 84
53 65 82
52 63 79
60 73 92
56 68 86
57 68 86
60 72 91
54 66 82
54 65 82
58 71 90
52 64 81
50 61 76
59 72 90
57 69 87
55 68 86
59 71 89
54 66 83
56 69 88
50 61 77
61 74 94
60 73 93
57 69 87
57 70 90
52 62 79
58 71 90
59 71 90
58 70 89
62 74 94
53 65 82
59 72 91
59 72 92
56 69 87
60 73 92
57 70 88
59 72 91
64 78 99
62 75 96
59 73 94
66 81 104
59 72 92
67 81 103
62 76 96
67 82 105
63 77 98
64 77 98
63 78 99
62 77 99
62 76 97
64 79 100
66 81 103
64 78 100
66 82 105
59 73 93
69 84 107
65 81 105
64 79 102
65 80 102
66 81 103
62 75 94
58 72 92
67 83 106
64 78 101
65 80 102
66 81 103
63 78 101
66 81 104
66 82 105
67 82 104
66 81 104
67 82 105
68 84 107
67 83 106
69 84 108
63 77 99
68 84 108
70 85 109
68 84 108
68 84 108
67 82 105
67 83 107
63 78 100
71 87 112
65 81 103
65 80 102
70 86 111
67 83 107
67 84 109
66 82 106
69 86 110
71 87 112
72 88 112
66 82 106
65 81 104
66 81 104
70 86 110
71 87 111
69 86 112
68 84 108
71 87 112
69 86 112
71 87 112
68 84 109
73 89 115
69 85 109
70 86 111
66 83 108
76 94 122
71 87 113
72 90 116
70 88 114
71 88 114
72 90 117
69 85 110
70 87 112
75 92 118
67 84 108
73 90 116
70 87 114
70 87 112
71 90 118
72 89 115
71 88 113
74 91 116
76 93 118
77 95 122
74 90 115
70 87 113
76 93 119
74 92 118
74 91 118
73 91 118
74 91 118
71 87 111
70 87 112
75 93 121
74 91 117
75 93 121
72 89 114
76 95 122
72 89 115
74 91 118
71 89 115
73 90 117
72 91 119
75 94 121
73 90 115
75 93 119
76 95 123
73 91 118
72 89 115
73 90 117
73 91 119
74 93 121
76 94 120
73 91 117
76 95 123
73 91 117
73 91 117
76 94 122
75 93 120
75 93 120
72 90 117
76 94 121
75 94 122
76 95 123
72 90 116
75 92 118
74 93 120
72 91 118
76 94 122
72 91 118
76 95 122
78 96 124
70 86 111
74 92 118
74 92 119
74 92 118
75 93 121
75 93 121
77 95 122
74 91 117
76 94 121
73 92 120
73 91 120
72 90 117
76 94 122
74 91 118
74 92 119
75 93 119
76 94 122
76 94 121
76 95 123
75 94 123
79 97 124
77 96 125
76 94 121
76 94 122
76 94 121
74 92 119
75 94 122
75 93 121
76 95 122
74 93 120
74 93 121
71 89 115
71 89 116
77 96 126
75 94 121
75 92 118
75 93 119
76 94 120
74 91 117
74 91 117
75 93 121
74 91 118
75 93 120
73 92 120
74 92 120
76 94 121
77 96 123
74 91 118
75 93 120
74 92 119
73 92 120
75 93 120
73 91 118
74 92 118
74 92 119
74 92 118
70 87 113
74 91 117
75 93 120
73 91 119
73 91 117
78 96 123
75 93 121
73 91 119
74 91 117
72 89 115
77 94 120
73 91 118
76 94 121
75 93 119
73 90 116
74 91 118
75 93 118
71 89 114
72 89 116
72 89 116
73 90 116
75 92 119
72 89 115
72 89 114
72 89 115
73 90 117
72 90 117
72 90 117
69 85 110
70 86 110
69 85 110
70 87 113
69 86 111
72 90 117
71 88 114
75 93 120
68 84 109
71 88 115
75 92 118
71 89 115
74 91 117
71 88 113
67 83 107
71 88 113
69 87 114
67 83 107
72 90 117
71 88 114
75 92 118
67 84 109
69 85 110
70 87 113
75 92 118
75 92 119
70 87 113
73 90 117
71 88 114
67 83 106
69 85 111
67 82 105
70 87 113
69 85 111
68 85 110
67 83 108
71 88 113
70 86 110
71 87 112
67 84 108
69 87 113
71 88 114
64 79 102
62 76 98
65 81 105
69 85 109
72 88 112
64 80 102
67 83 106
66 83 107
68 84 108
72 88 112
65 81 104
69 85 110
65 81 104
68 85 111
70 86 109
65 80 102
69 85 107
64 79 101
61 75 95
64 79 102
66 81 105
68 84 107
64 79 101
69 85 109
66 81 103
69 85 109
66 82 106
68 83 107
67 83 106
59 73 93
63 77 98
70 86 109
65 80 102
62 76 98
65 80 103
61 74 94
62 76 97
61 75 95
58 71 90
64 79 100
66 80 102
63 78 100
63 77 98
63 77 97
65 80 102
68 84 108
59 72 92
61 74 93
65 79 100
55 68 87
62 76 96
61 75 96
58 72 92
53 64 82
60 73 92
57 68 86
66 79 100
65 79 100
63 76 96
60 74 94
57 69 88
58 71 90
62 75 95
60 72 91
60 72 92
58 71 90
60 72 90
60 74 94
59 72 91
60 73 93
59 73 93
60 73 92
57 70 89
56 69 88
58 71 90
56 69 87
60 73 92
61 74 95
60 73 92
56 68 87
56 67 84
53 64 81
63 76 96
52 63 79
56 68 86
49 60 77
59 72 91
56 68 86
56 68 87
62 76 96
53 64 81
62 75 94
49 60 77
55 67 85
64 78 100
55 67 85
55 67 84
57 68 86
62 75 95
51 62 78
55 67 85
56 68 86
60 73 92
56 68 85
58 71 89
58 70 87
53 64 82
54 66 83
57 69 88
59 73 92
58 71 90
60 73 92
67 81 103
56 68 86
49 59 75
58 70 88
61 74 93
60 73 92
61 74 93
59 72 91
56 69 88
57 69 88
61 74 94
55 67 85
62 76 97
57 69 89
62 76 98
62 76 96
57 70 89
58 72 92
57 69 88
63 77 98
59 72 92
59 72 91
66 79 100
64 78 100
60 72 91
61 75 95
60 73 93
61 75 95
64 79 100
63 78 100
55 67 85
67 83 106
65 79 100
60 73 93
67 82 104
59 73 94
63 77 97
62 76 97
62 77 98
62 76 97
57 69 87
64 79 101
68 83 105
67 83 105
60 74 94
63 78 100
65 80 103
63 77 99
65 79 101
62 76 97
64 79 101
67 82 104
66 82 106
72 88 113
69 84 108
65 80 103
68 83 106
65 80 103
72 88 113
60 74 94
68 84 108
64 79 103
68 83 106
70 86 110
65 81 105
68 83 107
63 79 103
63 78 100
67 83 107
66 82 106
67 82 106
69 86 110
64 80 105
65 82 108
64 80 103
70 87 112
65 81 104
69 85 110
65 81 105
70 86 110
71 88 114
68 83 107
72 88 113
73 91 117
71 88 114
69 86 111
66 81 103
69 85 109
68 85 109
69 86 111
72 89 113
72 90 117
72 89 114
70 87 113
69 85 110
71 88 114
68 85 110
70 87 113
72 89 115
77 95 121
70 86 112
71 89 115
71 88 113
70 87 112
68 85 111
74 91 117
75 92 119
72 89 115
73 91 117
67 84 108
72 90 117
74 92 118
73 91 119
73 90 116
71 88 113
70 87 113
70 87 112
74 91 116
72 88 113
75 93 119
70 86 111
73 91 118
71 89 115
74 90 115
69 87 113
74 92 118
73 91 118
73 89 114
73 91 118
72 90 117
74 92 119
75 93 120
70 86 111
73 91 118
77 95 123
78 95 122
73 90 117
77 95 122
74 93 120
69 85 110
74 93 120
77 95 123
77 95 122
72 90 116
73 91 119
74 92 119
77 95 121
72 89 116
75 94 121
75 93 119
74 92 118
74 91 117
75 94 121
74 92 120
75 92 119
77 96 124
75 94 123
74 92 119
77 95 123
75 94 121
75 92 119
77 96 125
73 92 120
75 93 121
75 93 120
74 92 119
72 90 117
74 93 121
76 94 121
76 94 121
75 93 119
75 93 121
72 90 117
72 89 116
77 96 124
74 92 120
76 94 123
74 93 121
76 94 121
73 92 121
76 95 122
76 94 121
75 94 124
75 94 123
75 93 120
72 90 116
75 93 120
73 92 119
75 93 119
76 95 122
75 93 120
75 94 122
76 94 122
76 95 124
73 92 119
76 94 121
77 95 122
74 92 118
74 92 120
73 92 119
76 94 121
75 94 123
76 94 122
75 93 120
74 92 119
71 88 113
74 92 119
74 92 119
72 91 119
70 88 115
73 90 117
74 91 117
76 95 123
72 90 116
74 92 120
76 94 121
67 84 109
73 91 117
71 89 116
73 90 114
75 93 119
74 93 121
71 89 116
72 89 115
74 93 120
71 88 114
69 86 112
72 90 117
76 94 121
72 89 115
74 91 117
72 90 117
70 88 115
73 91 118
69 87 114
75 93 120
73 91 117
74 92 119
71 88 115
75 92 119
73 91 119
76 94 120
75 92 119
70 87 111
74 92 119
68 84 108
70 88 114
73 90 117
74 91 118
71 89 114
71 88 115
72 89 116
69 85 109
73 90 117
71 89 115
72 90 116
68 85 109
72 91 119
70 87 113
74 92 118
69 86 113
66 82 106
69 84 107
72 90 116
71 87 112
69 85 109
71 89 115
67 83 106
68 85 109
72 88 113
67 83 107
69 85 110
68 85 110
67 82 106
68 83 107
70 86 110
70 87 112
73 91 117
71 89 115
71 87 111
65 81 104
67 83 106
68 83 106
71 88 114
63 79 102
68 85 110
67 84 109
70 87 112
71 88 113
67 82 106
70 86 110
70 86 110
68 84 108
64 80 102
69 85 110
66 82 105
69 85 110
70 86 111
69 86 110
64 79 102
69 85 108
70 86 111
67 83 106
71 87 111
66 81 103
65 81 103
70 85 107
62 76 98
64 79 102
64 79 101
64 79 102
66 81 104
61 76 97
69 84 108
66 80 102
70 84 107
68 82 104
65 80 102
67 81 103
66 81 103
66 80 103
61 75 96
65 80 102
63 76 97
64 79 102
66 81 105
62 76 96
64 78 99
62 76 97
62 76 97
60 74 95
67 82 105
61 75 96
63 77 97
65 80 102
64 78 100
62 76 98
64 79 100
63 78 101
66 80 102
59 71 90
57 70 89
58 70 89
63 77 98
57 69 88
61 75 95
63 76 97
63 76 96
68 82 104
67 82 105
60 73 91
57 69 87
58 71 91
59 72 92
57 71 92
62 75 95
60 73 92
63 77 98
58 71 91
58 71 90
55 67 84
62 75 95
53 65 82
50 62 79
53 66 85
55 67 84
56 68 85
60 73 93
57 70 88
57 69 87
60 73 93
56 67 83
55 66 83
58 71 90
57 70 88
62 74 93
52 63 80
55 67 84
57 69 87
56 68 86
51 62 78
57 69 88
63 76 96
61 74 92
58 70 87
57 69 87
60 73 92
52 63 80
58 70 88
51 62 78
63 76 95
59 71 89
57 69 86
55 66 84
58 70 88
55 68 86
53 64 81
57 69 88
54 67 86
58 71 90
60 72 91
57 70 90
55 68 87
57 69 88
61 74 95
58 71 90
62 76 97
61 74 94
60 73 93
59 72 92
59 72 92
59 72 90
60 73 93
56 69 87
63 76 96
60 74 94
61 73 92
62 75 96
57 69 88
57 69 88
64 78 100
61 75 96
63 77 97
61 75 95
62 76 96
59 73 94
59 72 92
61 76 98
66 80 100
62 77 98
64 77 98
57 70 90
66 80 101
62 76 98
56 69 88
64 78 99
66 81 104
66 80 101
57 70 90
67 82 105
65 81 104
64 79 102
69 85 108
62 76 97
61 75 96
63 78 100
60 74 95
65 80 102
65 80 103
67 83 107
64 78 100
63 79 101
67 82 104
64 79 102
60 74 95
66 81 105
66 81 104
68 84 107
69 86 111
62 77 98
65 81 104
67 82 104
65 80 103
68 83 106
65 81 105
65 80 102
72 89 114
69 85 108
71 87 112
68 83 107
69 85 109
70 85 108
68 84 109
66 82 106
69 85 110
71 87 112
65 79 101
71 87 111
66 82 106
70 86 110
69 85 110
70 88 113
70 86 109
69 86 111
68 84 108
70 86 110
67 83 108
69 86 110
66 82 106
70 87 111
70 86 111
69 85 109
70 86 110
70 87 111
69 85 110
75 93 120
67 83 108
71 88 112
74 91 116
72 90 116
67 84 109
71 88 113
68 85 109
71 87 112
69 85 110
74 92 117
72 89 114
72 89 115
72 90 117
67 84 110
71 87 112
71 88 112
73 90 115
72 89 116
70 87 112
74 92 118
71 89 115
71 88 113
72 90 117
73 90 116
72 90 116
70 87 113
72 89 116
72 89 114
70 86 110
72 89 116
73 91 119
75 93 120
74 92 118
75 92 117
73 90 116
72 91 118
73 91 119
73 90 117
73 91 117
76 95 122
74 92 119
75 92 118
78 96 122
74 92 121
72 90 117
75 92 119
73 90 116
73 91 117
72 91 118
76 94 121
75 93 119
75 92 118
71 90 119
74 91 118
75 93 120
74 92 118
76 94 120
76 94 122
76 94 121
74 92 119
74 93 120
73 92 120
75 94 122
76 96 125
78 96 123
74 92 119
72 90 118
74 92 119
76 95 123
76 95 123
78 97 125
74 92 119
70 87 112
73 91 118
76 95 124
74 92 118
73 91 117
73 92 120
75 95 125
75 93 120
77 95 123
74 91 118
74 92 119
74 92 119
74 92 119
72 90 117
77 95 123
72 90 118
76 95 123
75 93 121
75 95 124
79 97 125
77 96 125
74 93 120
74 93 121
74 91 117
77 96 123
74 92 120
74 92 120
75 93 120
71 89 115
75 94 122
74 93 121
75 93 119
73 92 120
77 96 124
71 88 115
73 91 119
73 91 119
73 91 117
73 91 118
75 93 121
77 95 122
73 91 118
73 91 117
75 93 120
76 93 119
75 93 121
74 93 120
75 93 120
78 97 125
72 91 118
75 93 121
73 91 116
76 95 124
72 89 115
75 93 120
77 95 123
72 89 115
73 92 119
74 92 119
75 92 118
73 90 117
73 90 117
71 88 115
74 91 116
73 90 117
73 91 119
71 88 113
75 94 122
71 89 115
71 88 113
71 88 115
74 92 119
72 90 116
68 86 113
68 86 112
73 90 116
75 93 119
68 85 109
72 90 116
69 86 112
73 90 116
71 89 115
76 94 122
75 92 119
72 90 117
73 91 117
72 89 115
72 90 117
71 88 113
71 88 113
73 90 115
70 88 113
67 83 107
72 90 117
70 88 114
69 86 111
72 89 115
72 90 116
72 90 115
67 84 108
73 90 115
69 86 112
70 86 110
69 85 110
67 83 108
69 86 110
70 87 112
70 87 111
73 90 115
69 86 111
65 82 106
72 90 116
70 85 108
70 87 112
71 85 108
73 89 114
67 83 107
67 83 108
69 84 107
68 84 108
67 83 107
70 87 112
66 83 107
65 80 103
64 79 102
67 83 107
69 86 111
65 80 102
67 83 108
67 83 107
66 82 105
70 86 111
66 81 104
61 75 96
69 85 108
69 85 111
64 79 101
63 77 98
68 84 107
61 75 95
65 80 101
64 80 103
64 79 102
67 82 105
64 79 101
60 75 98
63 78 102
60 74 96
62 76 97
63 77 98
66 81 103
60 75 96
62 76 97
65 81 103
62 77 99
61 76 98
66 81 104
65 80 102
63 77 98
64 78 100
62 76 97
63 76 97
64 79 103
62 76 97
65 80 103
59 73 93
59 72 91
63 78 100
65 80 102
59 71 90
56 69 89
60 73 92
55 67 85
60 74 95
61 75 96
61 74 94
65 79 100
60 73 94
60 73 93
58 71 91
62 76 97
57 70 90
63 77 98
60 73 92
64 78 99
57 70 90
56 70 90
54 65 82
57 69 88
57 69 88
61 75 96
62 76 97
61 74 95
60 72 92
60 73 91
62 75 95
59 72 92
54 66 83
61 74 95
59 72 90
58 70 88
51 62 79
54 65 83
57 70 89
55 67 86
55 67 85
52 63 80
53 65 82
53 64 80
54 65 81
56 68 86
57 70 89
55 66 84
60 72 91
59 72 91
53 65 82
62 75 95
56 68 87
51 63 80
58 70 88
56 68 86
61 74 94
54 66 84
55 66 83
57 69 87
54 66 83
60 73 92
59 72 90
62 75 96
54 65 83
56 69 88
55 67 85
53 64 81
53 65 83
52 63 80
60 74 94
58 70 89
56 70 90
57 70 90
58 70 89
59 72 91
62 76 96
56 68 87
61 75 96
56 69 88
57 70 89
63 76 95
60 74 93
60 72 91
63 77 98
57 70 89
67 81 103
60 74 95
62 76 96
64 78 100
60 74 94
50 61 78
60 74 94
61 75 96
61 75 96
64 77 98
61 75 96
62 76 96
63 78 101
62 76 98
64 79 101
65 80 102
67 82 105
62 76 96
64 78 99
64 79 102
62 75 96
65 80 101
67 81 104
66 81 103
61 74 94
67 82 105
67 82 104
64 79 102
64 78 101
65 79 101
67 82 106
65 80 103
64 78 99
65 80 103
61 76 97
59 73 94
64 80 103
66 82 106
64 80 105
68 83 107
65 80 102
65 81 104
65 79 102
66 81 103
69 85 108
66 82 105
64 79 102
71 88 114
69 85 109
71 88 115
69 84 108
68 84 108
72 89 114
62 77 100
66 82 105
70 86 111
67 83 107
66 82 106
69 85 109
70 87 112
69 85 109
66 81 103
65 81 105
65 81 104
69 85 110
69 85 109
68 83 106
70 86 111
72 89 115
71 88 114
68 84 108
66 82 106
66 82 105
71 88 113
67 82 105
70 87 114
67 83 107
71 88 113
68 86 112
68 84 108
74 92 119
66 83 108
68 85 110
71 87 112
69 86 111
67 84 108
71 89 115
72 88 113
72 90 117
68 85 110
69 86 111
73 90 117
68 86 112
74 92 119
71 88 114
75 93 119
69 86 111
70 86 111
71 89 115
73 91 117
70 88 114
77 95 123
78 96 124
71 89 116
75 93 121
71 89 116
73 90 115
71 89 116
72 90 116
75 93 119
76 94 120
71 88 112
74 92 120
75 93 120
75 93 120
72 89 115
76 95 122
73 91 118
72 90 117
70 89 117
69 87 114
73 91 119
72 90 117
74 93 121
70 87 113
79 96 122
73 91 119
72 90 118
75 94 121
73 91 119
71 89 117
70 88 114
74 93 121
75 93 120
74 92 120
73 91 119
72 89 114
71 90 117
70 88 115
74 92 119
75 93 120
75 94 124
77 95 122
72 90 117
75 93 121
72 90 117
75 93 120
76 94 121
75 93 121
77 96 123
73 91 117
73 91 119
77 95 122
77 95 123
75 93 120
72 90 116
73 91 119
72 90 117
76 95 122
74 91 117
74 92 120
72 91 119
75 94 122
73 92 120
69 87 114
76 94 122
73 90 116
74 92 118
75 92 118
76 95 124
76 94 120
75 93 121
72 90 118
74 93 120
74 93 120
73 92 119
75 93 121
74 92 119
78 96 123
69 86 113
73 91 118
75 93 119
73 91 119
76 94 120
76 94 122
74 92 119
72 90 116
73 92 119
72 92 121
77 95 122
72 91 118
75 94 121
76 94 121
74 92 119
74 91 117
71 88 113
77 96 125
74 92 119
74 91 117
72 90 118
76 94 121
71 89 116
71 88 114
70 87 112
72 90 116
72 90 116
74 92 120
72 90 116
75 93 120
69 85 110
69 85 110
71 88 113
75 92 118
73 91 118
71 89 115
75 93 119
72 90 116
73 92 121
73 92 120
71 89 115
68 85 109
78 96 123
69 87 114
73 91 118
76 94 121
70 87 113
69 86 112
73 90 116
71 88 113
71 88 113
72 89 115
73 90 117
72 90 116
67 84 110
75 93 120
75 93 121
75 92 117
68 85 110
72 89 115
73 90 117
70 87 114
73 90 117
74 90 115
68 85 110
77 95 121
67 84 109
71 89 116
72 90 115
68 85 111
74 91 117
71 89 116
72 88 112
72 88 113
72 88 112
71 88 113
69 86 111
72 89 115
70 85 109
67 84 109
70 87 112
69 85 110
69 86 111
67 83 107
69 86 112
72 89 115
72 89 115
69 85 109
67 83 107
69 86 112
69 85 109
69 85 110
67 83 106
68 85 110
67 83 107
68 84 109
65 80 103
66 82 106
66 82 106
66 83 107
62 77 99
68 84 108
64 78 99
68 85 110
65 81 105
66 81 103
71 90 117
64 78 100
71 87 111
63 77 98
69 85 108
65 80 102
67 82 103
64 78 100
65 79 100
65 80 102
64 79 101
69 84 106
67 82 104
66 80 102
66 82 105
62 78 101
63 77 99
62 76 97
66 81 103
63 78 99
64 78 98
66 81 103
61 74 94
60 74 95
62 75 96
65 79 101
64 78 100
70 86 109
65 80 102
65 81 104
62 75 96
63 79 101
63 77 97
62 76 97
60 74 95
62 77 98
56 68 87
64 77 97
62 77 98
63 77 99
63 76 97
58 71 91
55 68 86
62 76 97
63 76 96
60 73 93
57 69 87
60 73 92
61 74 95
60 73 92
64 77 98
62 75 95
62 76 97
55 68 87
58 71 90
55 67 85
61 74 94
58 72 91
58 71 90
55 68 86
65 79 100
54 66 83
60 73 91
60 73 91
56 68 87
55 67 85
63 76 95
58 70 88
59 72 92
61 74 94
60 72 91
61 73 92
60 72 90
64 78 100
64 78 99
61 73 92
62 74 93
52 64 81
60 74 94
61 74 92
67 81 103
56 68 86
59 72 92
56 68 86
59 72 92
58 70 88
61 74 93
55 68 86
57 69 86
56 68 87
57 69 87
57 69 87
52 63 80
53 64 81
59 71 90
58 70 89
55 68 87
52 63 80
62 75 94
56 68 86
60 74 94
61 73 91
60 74 94
59 71 90
64 78 99
60 73 94
55 68 86
62 76 96
58 72 92
62 76 97
63 77 96
58 70 89
56 68 87
61 74 94
61 74 94
59 73 94
60 73 94
60 73 93
62 75 95
68 83 107
66 80 101
64 78 98
62 76 97
60 74 94
59 72 91
61 74 94
66 81 102
61 75 96
64 78 98
64 80 103
65 79 101
65 79 101
62 77 100
61 75 95
61 75 96
62 76 98
65 79 100
65 79 101
65 80 102
62 75 96
66 82 105
61 75 96
63 78 100
65 81 104
68 85 109
63 77 98
63 77 99
63 78 100
67 82 104
64 79 102
67 82 104
69 84 107
65 81 104
63 77 98
67 83 106
68 84 109
67 83 107
69 85 109
70 85 108
68 84 109
66 81 103
68 84 106
67 83 108
69 86 111
65 80 102
67 83 107
65 81 104
69 85 108
68 84 108
62 77 99
66 81 104
68 83 107
69 84 108
72 89 115
69 85 109
67 84 109
68 85 111
70 87 112
69 86 111
73 92 119
67 82 105
66 81 105
70 87 112
64 79 102
69 86 112
69 85 110
69 86 112
70 86 112
75 92 118
68 84 108
72 89 115
70 87 113
64 80 103
68 85 111
73 90 116
67 84 109
73 88 112
68 84 109
72 89 115
70 87 112
74 91 117
72 89 113
70 87 113
67 84 109
70 88 114
66 82 107
71 87 111
71 89 116
71 89 117
68 85 111
70 86 111
74 91 118
71 87 112
69 86 112
72 88 113
72 89 114
72 90 116
71 87 111
74 92 118
72 90 118
74 92 118
73 91 117
72 90 117
70 87 113
70 87 112
72 89 115
68 85 110
74 91 118
72 90 118
73 91 117
74 91 118
73 90 117
75 93 119
75 93 120
73 91 116
74 92 118
74 91 118
73 92 119
73 90 116
73 91 117
73 91 118
72 90 116
71 87 112
76 94 121
75 93 120
74 92 119
72 91 118
73 91 118
72 90 117
73 91 118
75 92 118
72 90 116
72 91 119
76 95 123
75 93 121
74 92 118
76 95 122
75 94 122
76 95 122
73 91 118
74 92 119
74 92 119
74 92 119
75 94 121
75 93 119
77 95 123
74 93 120
76 93 120
74 92 119
74 92 119
74 91 118
75 93 121
76 94 122
75 93 120
78 97 125
77 96 123
75 93 120
76 94 121
75 93 120
75 93 120
75 93 119
76 94 121
74 92 120
72 92 121
76 93 120
73 91 117
73 91 119
76 95 124
75 93 121
73 91 116
77 96 124
74 93 122
77 95 122
74 92 119
75 94 122
75 93 121
76 95 122
75 93 120
76 94 122
77 96 125
75 93 120
73 91 118
76 95 124
71 90 118
73 90 117
74 92 119
74 92 119
75 93 120
74 93 120
76 94 121
75 93 120
71 89 116
73 90 116
76 95 122
74 92 119
75 94 122
74 91 118
73 90 115
72 88 113
75 93 120
74 93 121
73 90 116
74 93 122
72 90 118
67 85 111
72 90 117
70 87 113
76 94 120
74 91 118
75 93 121
73 91 118
72 90 116
68 85 110
74 90 115
71 88 115
69 86 111
70 87 113
69 85 109
71 88 114
73 90 116
70 86 112
72 89 116
71 89 115
71 88 114
73 90 115
74 91 116
72 90 116
72 90 116
69 86 110
76 94 120
72 89 114
72 89 114
71 88 113
70 89 116
72 90 116
73 90 116
71 88 114
68 84 108
69 85 110
68 84 109
71 89 115
73 90 116
74 91 118
70 87 112
70 86 111
73 91 119
73 90 116
68 84 109
70 86 111
71 88 114
71 89 115
68 84 108
71 87 112
72 88 113
70 85 109
67 84 109
66 81 105
73 89 114
70 87 112
69 86 110
71 88 115
62 77 100
71 87 112
68 84 109
73 91 117
65 80 103
64 81 105
68 84 109
69 85 109
71 88 112
69 85 110
67 83 107
71 87 112
68 84 109
67 83 105
69 86 112
68 84 107
70 86 111
66 82 106
68 84 108
69 84 108
68 83 107
69 85 110
65 79 100
65 79 101
70 86 110
65 80 103
67 83 106
68 82 104
68 83 105
61 76 97
65 80 103
69 85 108
66 82 105
67 82 105
63 77 98
62 76 96
62 77 98
62 76 97
67 82 104
68 84 107
66 81 102
65 80 103
58 72 92
62 76 97
67 82 106
66 81 104
60 74 95
56 69 89
60 74 95
63 77 98
57 70 90
62 76 97
59 72 90
63 77 97
69 84 106
60 73 92
62 76 97
63 76 96
62 76 96
70 85 108
62 76 98
62 75 95
63 77 99
60 74 94
66 80 101
57 70 89
59 72 92
56 69 89
57 70 89
63 77 97
55 67 85
66 79 99
56 68 87
64 79 100
59 73 94
59 72 91
59 73 93
61 75 96
53 65 83
61 74 95
53 65 82
59 71 90
63 77 99
59 72 92
56 68 87
62 75 94
63 77 97
55 67 84
57 69 88
57 70 89
58 70 89
55 68 87
58 71 90
55 66 83
60 73 94
61 74 94
55 67 86
62 75 95
61 74 94
58 70 89
59 71 91
64 77 97
52 63 79
58 71 90
62 75 94
56 68 87
52 64 81
47 59 75
54 67 86
59 72 92
59 73 93
57 69 87
53 63 80
57 69 87
66 79 99
61 74 93
62 75 95
60 73 94
58 71 91
54 67 86
61 75 95
61 75 96
61 74 93
60 72 90
63 77 99
65 79 100
59 72 91
57 69 87
52 64 82
58 70 89
60 73 93
58 72 92
59 72 91
64 79 101
60 73 93
61 74 94
67 82 104
59 72 92
65 80 103
56 68 86
61 73 92
63 76 96
59 72 91
63 77 99
61 76 98
60 73 93
66 81 102
66 80 102
67 83 107
64 80 103
65 79 101
64 79 100
57 70 90
63 77 98
65 79 100
64 79 101
65 79 100
65 81 105
63 78 102
67 83 107
69 85 108
67 82 103
67 82 105
68 84 108
67 81 102
64 79 101
67 83 106
66 80 103
66 81 104
63 77 99
68 84 108
64 79 101
68 84 107
71 87 111
70 87 111
68 83 107
72 89 114
65 80 102
68 84 108
69 85 108
70 85 109
70 85 107
66 81 103
67 83 106
63 78 100
65 80 104
71 87 112
69 85 110
68 84 109
68 83 107
67 83 106
70 86 112
70 87 111
70 86 110
71 88 112
66 82 106
71 88 114
71 88 114
74 90 115
71 87 113
73 90 115
68 85 110
71 87 112
71 88 113
70 86 111
67 82 105
73 90 115
67 83 108
72 89 115
68 85 110
70 86 111
69 85 110
73 89 115
68 85 109
68 85 110
72 89 114
71 88 114
72 89 115
71 88 113
72 90 116
70 87 111
69 86 112
68 85 110
72 90 116
70 87 113
71 88 114
72 89 115
66 83 107
72 88 114
71 88 114
70 87 112
71 88 114
75 93 121
73 90 116
75 93 119
71 87 111
74 90 115
72 90 116
74 92 119
74 91 117
72 90 116
69 85 108
74 92 119
72 89 114
73 91 118
66 81 105
72 90 115
73 91 116
72 89 116
74 92 119
70 87 111
71 89 116
72 91 118
74 92 120
76 94 121
73 91 118
76 95 122
75 92 118
73 90 117
72 90 117
74 92 120
74 93 121
75 93 121
74 92 117
73 91 119
77 95 121
73 93 122
74 92 119
76 94 120
75 93 121
75 92 119
77 95 123
73 90 116
73 91 118
76 94 121
72 89 116
76 93 120
74 93 121
74 92 118
71 89 116
75 93 120
75 92 119
73 92 119
74 92 119
75 94 121
76 94 121
76 95 123
74 92 120
76 95 124
70 89 117
74 94 123
72 90 118
78 96 123
77 96 124
74 92 120
76 93 119
74 93 122
79 97 124
75 94 122
75 92 119
76 95 123
75 94 121
71 88 115
72 91 119
74 92 119
76 94 122
76 94 121
77 95 123
72 90 117
74 91 118
77 96 124
72 90 116
71 90 117
76 94 120
76 93 120
74 92 119
74 91 118
71 90 118
74 91 118
77 94 119
71 89 117
73 93 121
74 91 117
76 94 121
74 92 120
75 93 120
73 90 116
70 87 113
76 93 120
76 93 119
74 92 119
78 96 123
73 91 119
73 92 119
75 93 121
75 94 122
77 95 123
74 91 117
75 92 118
70 86 112
74 91 117
72 90 118
71 88 113
76 94 122
74 93 120
72 91 118
71 89 116
73 90 116
75 92 118
69 86 111
71 88 114
73 90 116
73 91 117
75 93 119
71 89 115
74 90 116
72 89 115
67 83 107
75 93 119
70 88 114
74 92 118
74 91 117
71 88 114
69 85 110
72 89 114
74 91 115
71 88 113
69 85 110
68 86 112
74 92 119
73 90 115
67 83 107
73 90 117
72 90 116
72 89 115
71 87 112
69 86 111
71 87 112
70 88 114
71 88 114
69 85 109
70 87 112
67 82 106
67 83 107
67 83 107
72 88 112
68 84 108
71 89 115
66 81 105
68 84 108
66 82 106
71 88 113
70 87 112
70 87 111
65 80 103
68 84 108
73 90 115
66 82 106
68 85 110
68 85 110
67 83 106
70 86 111
63 78 100
69 85 110
64 79 102
68 85 109
66 81 104
68 84 109
69 84 108
62 77 100
68 84 107
69 85 109
64 80 103
70 86 110
66 82 106
68 83 107
67 82 105
65 81 105
72 88 111
68 83 106
68 84 107
68 84 107
62 77 99
69 85 108
61 75 96
61 76 97
66 82 104
65 80 102
63 78 101
65 80 103
68 83 105
59 73 93
66 81 104
67 84 108
68 84 108
61 76 99
62 77 99
67 82 106
70 86 110
65 79 101
58 70 90
67 82 104
63 78 101
64 79 102
67 84 108
59 72 92
62 77 98
60 75 96
58 70 89
62 77 99
57 70 90
61 75 97
59 72 92
62 75 96
63 79 102
64 78 100
62 75 95
66 80 102
60 73 93
60 73 93
63 77 97
64 78 99
63 78 100
56 68 87
60 74 95
54 66 83
65 79 101
60 73 93
60 74 94
63 77 98
60 73 92
59 72 92
58 70 89
61 74 93
66 80 101
61 74 94
63 77 97
57 69 88
60 74 94
60 74 94
56 69 88
62 75 95
59 72 92
61 75 97
64 79 101
52 63 80
60 73 93
60 73 92
58 71 89
57 70 89
56 68 87
58 70 89
58 71 90
57 69 88
56 67 85
59 72 90
59 71 90
59 73 93
57 70 90
62 75 94
58 70 88
57 69 88
61 73 92
59 72 91
57 69 88
60 74 94
61 73 92
56 69 87
60 73 92
61 74 94
52 63 80
62 76 97
61 75 96
57 70 89
62 76 97
63 77 97
60 74 94
56 69 88
60 74 95
59 72 92
59 73 93
52 64 81
57 69 87
62 76 96
57 70 89
58 71 90
61 74 94
60 74 94
60 73 94
66 81 103
57 69 88
59 72 91
65 78 99
65 79 99
63 76 97
57 70 90
61 75 96
60 74 95
62 77 98
60 73 92
62 77 98
63 77 97
62 75 95
65 79 101
63 77 99
63 78 100
66 81 103
64 78 100
64 78 99
62 76 98
65 79 102
64 78 99
66 82 104
63 77 97
67 82 106
64 79 101
68 84 107
64 78 100
67 82 105
62 76 97
61 75 96
63 78 99
65 80 103
63 78 100
65 79 102
70 86 111
66 82 104
66 81 104
70 86 110
67 82 105
64 79 102
65 81 104
64 80 103
66 80 102
65 79 101
69 85 108
63 78 101
67 83 106
67 83 107
67 84 109
68 84 108
67 83 107
67 84 108
69 86 111
66 82 106
65 80 103
70 87 113
66 82 106
65 81 105
70 86 111
67 84 110
70 87 111
70 86 109
69 85 109
65 81 104
66 82 107
65 81 104
65 81 105
66 82 106
74 91 118
68 84 108
73 90 115
66 83 108
65 81 105
67 84 109
69 86 110
62 77 100
73 90 117
70 85 108
75 93 119
72 88 112
70 86 110
71 89 115
69 85 108
67 83 106
69 86 110
72 89 115
69 86 111
74 91 117
72 89 115
73 90 115
72 88 112
70 86 109
67 84 109
70 87 112
69 85 108
76 93 119
73 91 118
73 91 118
72 88 113
71 87 111
72 89 114
76 94 122
73 91 118
75 93 121
75 93 120
70 86 110
69 86 113
70 88 114
73 93 121
70 88 116
67 84 111
72 90 117
75 93 119
70 87 113
74 92 120
71 88 114
72 89 116
73 91 118
68 86 111
73 91 118
73 90 115
67 84 109
73 90 117
73 92 119
75 93 120
73 90 115
69 85 109
71 88 114
73 91 118
73 91 119
73 91 118
78 96 125
75 93 121
76 95 122
73 90 117
76 94 123
74 92 118
73 91 117
71 89 116
76 94 121
74 92 119
74 92 119
70 87 113
70 88 115
74 92 118
73 91 118
75 92 119
75 94 123
74 92 118
77 95 122
71 89 117
72 88 113
72 90 117
76 95 122
75 94 122
75 93 119
73 91 119
74 91 116
74 91 118
75 92 119
76 94 122
77 96 125
75 93 121
76 94 121
74 93 121
77 95 123
75 92 118
73 91 118
75 94 122
77 95 122
74 93 122
74 92 120
75 94 122
75 93 121
76 94 121
71 90 118
74 93 120
75 94 122
75 93 120
76 94 122
76 93 119
74 92 120
79 97 125
76 95 123
76 95 123
76 94 122
73 91 117
75 94 122
77 95 123
75 93 120
72 90 116
74 91 116
76 94 121
75 94 121
72 90 117
73 91 117
73 91 118
72 90 117
75 92 118
74 92 119
75 94 122
72 90 117
70 87 112
76 94 121
74 92 118
76 95 123
71 87 112
73 90 117
74 91 117
74 92 117
75 94 121
74 92 119
74 92 119
74 91 118
74 92 120
71 87 112
73 91 119
74 91 117
73 91 118
72 90 118
75 93 120
76 94 121
77 94 121
73 90 117
75 92 119
74 92 120
74 92 119
73 90 114
70 87 113
72 90 117
71 88 114
71 88 114
74 92 120
72 89 115
72 90 116
66 82 107
74 90 116
74 91 117
69 85 108
75 92 118
71 87 112
70 88 114
72 88 113
70 87 113
74 91 117
72 89 116
67 83 107
72 89 114
67 84 109
71 88 114
74 91 117
70 87 113
71 88 113
68 83 107
72 89 115
71 87 112
70 86 109
74 92 119
69 85 109
69 85 110
69 87 112
72 89 115
72 89 114
66 82 106
71 87 111
69 86 111
68 85 109
71 87 111
63 78 100
69 85 110
70 86 111
67 83 108
62 77 99
68 84 108
68 83 107
70 86 111
65 81 105
68 85 109
72 88 111
72 88 112
62 77 99
59 73 93
67 83 106
68 85 110
58 72 94
67 81 104
60 75 96
71 87 112
70 86 110
63 77 99
65 80 102
68 84 108
67 83 107
66 82 105
68 84 108
64 78 99
68 84 108
64 79 100
68 83 106
68 84 106
66 82 105
66 81 104
61 76 98
68 83 106
66 81 104
64 78 99
66 81 104
61 75 95
63 78 100
62 76 98
61 75 96
65 80 103
66 81 104
64 79 100
61 74 94
65 80 101
57 70 90
67 81 103
62 77 99
63 77 98
59 73 93
61 75 96
61 75 95
64 79 101
62 77 98
62 76 97
63 77 99
65 79 99
59 73 94
65 79 100
60 73 93
67 82 104
61 75 95
59 73 93
64 78 98
59 72 93
57 69 87
65 79 100
57 69 87
62 76 97
58 70 90
59 73 93
66 80 102
62 74 94
61 74 93
60 73 92
57 69 87
55 68 88
60 73 93
58 72 92
62 76 97
57 70 89
58 71 90
56 68 87
62 75 95
59 72 92
63 77 98
57 70 88
58 71 90
55 68 87
64 78 99
60 73 93
52 64 81
57 69 88
57 69 88
64 79 101
63 77 98
63 76 96
63 77 97
59 72 91
65 79 102
60 73 93
63 76 97
63 77 98
56 69 87
65 79 101
58 71 89
61 73 93
60 73 92
54 66 83
64 78 100
62 76 96
62 76 97
55 67 85
59 72 91
60 73 92
61 73 92
60 74 95
61 75 96
59 72 91
62 76 96
56 68 87
58 70 89
59 72 91
59 71 90
63 77 99
57 70 89
62 76 97
67 82 104
63 77 97
62 75 96
60 73 92
59 72 93
61 75 95
62 76 96
60 74 94
63 77 98
59 72 91
66 80 103
65 80 102
60 73 93
63 78 100
65 80 102
59 72 92
57 70 90
60 73 92
65 80 102
63 77 99
62 75 95
67 83 106
63 78 99
68 84 106
66 81 103
63 77 98
69 84 108
64 79 100
63 77 98
65 80 104
60 73 92
66 81 103
62 77 98
73 89 114
68 82 104
67 82 104
62 77 99
67 82 106
59 73 94
66 81 104
64 80 103
64 79 101
64 79 103
72 88 114
68 83 105
66 79 100
70 88 114
65 81 105
62 77 98
60 74 95
69 85 109
69 85 109
63 78 100
66 81 103
65 80 103
67 83 108
72 88 112
66 80 102
69 85 108
70 86 109
70 87 111
69 86 112
65 80 103
70 87 113
67 81 103
72 87 111
66 81 104
69 84 108
74 92 119
68 85 110
67 83 107
68 83 106
72 89 114
73 89 113
73 89 114
69 85 110
69 85 110
72 89 115
65 80 104
72 89 114
72 90 116
72 89 116
72 89 114
68 84 107
71 88 115
74 91 117
68 84 108
70 87 113
72 88 112
73 91 118
68 86 111
72 89 115
71 88 113
71 88 114
68 84 109
73 90 116
69 85 109
74 91 117
72 88 113
75 92 119
72 89 115
70 87 113
73 91 117
72 89 115
71 88 113
73 90 115
73 91 118
75 94 121
71 87 112
74 92 119
74 90 115
68 85 111
68 84 108
73 91 119
77 95 122
76 93 120
69 86 111
74 92 119
72 90 117
72 89 115
73 92 119
76 94 121
74 93 121
76 94 120
73 90 116
74 92 118
70 87 113
73 91 117
74 91 118
73 91 118
75 92 119
72 89 115
73 91 118
74 91 117
76 94 120
71 88 115
71 89 116
72 90 116
74 91 117
74 91 118
76 95 122
76 94 122
75 94 122
75 92 118
76 94 122
75 93 120
76 94 121
74 92 120
75 92 118
75 93 120
76 94 121
76 95 122
72 91 119
74 92 119
74 92 119
74 92 119
71 89 115
72 90 117
74 92 119
74 92 120
77 96 124
73 90 115
74 93 121
69 87 113
78 96 124
72 90 117
74 92 119
76 94 121
76 94 122
72 91 118
74 93 121
78 97 126
75 93 121
76 93 119
75 93 119
74 92 119
73 92 119
75 93 120
75 93 120
71 88 114
73 90 117
71 88 112
75 94 122
71 88 115
73 91 118
76 95 122
76 94 121
75 93 121
69 86 111
76 94 120
74 91 118
77 94 120
78 96 123
72 90 116
70 87 113
73 92 119
71 89 115
73 91 117
78 97 125
71 90 118
75 92 119
76 94 121
72 90 115
71 89 116
72 90 117
72 90 115
74 92 119
77 95 123
73 90 115
74 92 119
76 93 119
66 82 107
74 92 120
73 91 118
72 90 116
75 93 120
72 90 116
73 90 115
74 91 117
75 93 121
71 88 113
69 87 113
72 89 116
69 87 113
72 89 116
70 87 113
68 84 109
68 86 111
75 92 119
71 89 115
74 91 117
72 89 114
75 92 118
70 86 110
69 85 109
70 87 112
69 86 111
75 92 119
69 86 112
71 88 114
72 89 115
71 88 114
71 88 114
71 88 113
68 85 111
73 91 117
70 87 111
72 89 115
72 90 115
69 84 108
68 84 109
71 87 112
68 85 110
69 85 109
72 90 117
68 85 110
70 86 112
69 84 108
66 82 105
71 88 113
72 88 114
72 89 114
67 83 108
66 82 106
71 88 113
64 80 103
69 85 109
69 86 111
68 83 107
70 88 113
67 83 106
67 83 108
69 86 111
65 80 103
62 76 97
66 82 106
67 83 107
67 84 108
71 87 112
65 81 105
66 81 104
65 81 105
73 89 113
64 78 100
65 79 101
72 88 111
64 79 102
69 85 109
69 85 108
67 83 106
66 82 105
64 79 101
73 89 114
63 78 101
70 86 110
64 80 103
61 76 98
62 77 98
67 82 105
64 80 102
64 79 101
61 76 98
72 88 111
59 73 94
66 82 105
67 82 104
62 77 98
66 81 102
69 85 108
67 82 105
62 75 95
67 83 106
64 78 99
61 74 95
66 81 102
65 79 100
64 80 103
65 80 102
61 74 94
66 81 103
70 86 110
65 79 99
64 78 100
61 76 98
65 79 100
61 75 96
63 78 100
58 70 88
61 74 95
58 71 89
63 78 99
58 72 92
62 77 98
61 75 96
65 79 101
62 76 96
61 74 94
63 77 96
62 76 96
55 67 86
52 64 82
54 66 85
54 67 86
62 77 98
64 77 97
60 73 91
63 77 97
58 70 89
68 83 106
59 72 92
63 77 97
60 74 95
60 74 94
66 80 101
59 72 91
62 76 98
61 75 95
62 75 94
57 70 89
58 72 91
59 72 92
56 68 87
56 68 87
58 70 88
56 68 86
57 69 88
62 75 95
63 77 97
60 73 92
63 77 99
64 77 98
58 71 91
65 79 100
63 77 97
61 74 94
58 70 89
62 76 97
64 78 99
60 73 93
58 70 89
58 71 90
63 77 97
59 72 93
59 72 92
63 77 97
59 72 91
58 70 89
57 70 90
55 67 86
60 73 92
56 69 88
57 70 90
60 73 93
63 77 98
58 70 89
63 77 96
58 72 92
57 70 89
68 82 104
57 69 87
58 70 89
64 79 101
60 73 93
60 74 94
63 77 97
65 79 100
61 76 98
65 79 101
64 79 100
58 70 89
65 80 102
65 78 98
63 76 97
65 81 104
64 79 100
65 80 102
69 85 108
63 76 97
60 72 91
65 80 101
66 81 103
62 76 96
65 80 103
67 82 105
69 86 110
68 83 105
62 76 97
70 86 110
65 79 100
63 77 98
67 82 105
70 86 111
65 81 103
65 80 104
68 83 106
62 76 98
66 81 104
62 77 98
63 77 99
67 83 108
67 82 105
68 83 107
67 83 107
69 84 108
68 85 110
68 84 108
68 84 107
62 77 99
69 85 109
66 81 103
68 85 109
71 88 113
65 80 103
69 85 110
64 79 101
70 86 111
66 82 107
71 87 112
68 84 108
66 81 105
68 84 109
69 85 109
66 82 106
75 91 116
65 81 103
72 88 113
67 82 105
67 84 108
69 85 110
71 89 116
68 85 109
68 84 108
72 88 112
70 86 110
71 89 115
69 85 111
69 87 113
71 87 111
71 88 113
71 88 114
68 84 108
68 85 110
73 91 117
68 84 108
69 86 111
69 86 111
73 91 117
72 89 114
69 85 110
70 88 114
65 81 104
73 90 116
71 88 113
72 89 115
70 88 114
74 92 120
74 91 118
69 86 112
69 85 109
70 88 116
71 88 113
75 93 119
71 89 116
72 89 114
72 89 115
74 91 117
75 93 120
74 92 119
73 92 120
67 83 108
74 92 119
73 90 116
70 88 114
75 93 119
69 86 111
70 88 115
74 92 119
73 90 116
73 91 118
73 91 118
73 92 120
74 92 119
77 95 122
72 90 116
75 93 120
74 93 120
73 90 116
72 89 115
72 91 118
74 92 118
70 87 113
78 96 122
74 92 118
77 95 122
73 90 116
74 93 120
74 91 117
73 90 117
75 93 119
73 90 115
74 92 119
77 95 123
74 92 119
74 92 119
71 89 117
75 92 119
70 87 114
72 91 119
71 88 114
74 92 119
73 91 118
75 93 120
75 92 118
74 92 119
71 88 114
75 92 118
76 94 121
74 93 121
78 97 125
76 94 121
75 92 119
74 92 118
75 93 120
76 94 122
73 91 118
77 95 122
74 92 120
75 94 123
73 91 119
76 94 122
76 95 122
77 96 124
78 96 124
76 94 121
75 93 121
75 93 120
78 96 124
74 93 122
75 93 120
73 91 117
72 91 118
73 91 118
76 94 121
75 93 119
76 94 121
74 92 119
73 91 118
75 93 121
77 96 124
73 90 116
75 94 123
74 91 118
75 93 119
75 92 119
72 90 116
72 89 116
72 91 118
74 92 119
71 89 116
74 92 119
72 89 114
72 90 116
72 90 116
72 89 115
71 89 116
74 91 117
69 86 110
73 91 118
72 90 117
72 90 116
71 89 115
75 92 119
72 89 116
73 91 117
75 92 119
71 89 115
73 92 120
71 90 117
73 90 116
74 92 118
74 92 119
70 87 112
73 91 116
75 93 120
67 85 111
72 89 114
70 88 114
78 96 123
73 91 118
73 90 116
69 86 111
69 86 112
74 92 119
67 83 107
73 91 117
70 87 112
72 90 115
69 85 110
72 89 114
69 86 111
71 89 115
71 88 114
67 83 107
68 85 110
73 91 118
73 90 116
66 83 108
71 89 115
69 85 110
75 91 116
71 88 114
68 85 110
69 86 111
74 91 117
68 85 110
72 88 113
73 91 118
70 86 111
66 81 105
70 87 111
70 87 111
71 87 111
66 82 106
67 83 107
70 86 110
73 90 115
70 87 113
71 87 111
67 84 108
71 87 112
67 84 109
66 82 105
68 84 108
66 82 105
70 86 111
67 83 105
71 87 112
65 79 101
68 84 108
71 88 113
67 82 104
65 81 105
69 84 106
68 84 109
63 78 102
65 80 104
63 79 102
63 78 100
68 84 107
62 77 101
70 86 111
65 81 104
68 84 107
67 82 104
73 90 116
69 86 110
67 83 107
63 78 100
66 80 102
67 83 107
61 75 95
65 80 102
62 78 100
65 80 102
67 82 105
70 86 110
68 82 104
65 81 104
54 67 85
66 81 105
65 79 100
63 77 98
65 79 101
62 77 98
63 77 99
66 82 106
67 82 105
64 79 100
63 77 98
62 75 96
61 74 95
61 75 95
61 75 96
66 81 105
60 73 94
60 74 94
64 78 100
63 77 97
65 81 103
65 80 102
64 78 98
63 77 98
61 75 95
64 78 100
57 70 90
63 77 99
64 79 101
61 75 95
58 72 91
63 77 98
62 76 97
67 83 107
64 78 98
63 77 98
62 75 95
64 79 100
56 68 87
62 75 95
61 75 96
58 70 88
53 65 83
65 79 100
65 79 101
62 76 96
62 75 94
62 75 96
59 71 91
65 79 100
66 80 101
56 69 88
60 72 92
56 69 89
56 69 88
61 74 94
56 69 89
59 72 92
61 74 94
59 72 91
59 72 90
60 72 91
62 77 98
62 76 96
59 72 91
57 70 88
59 72 92
59 72 91
57 69 88
58 71 91
64 78 100
60 74 94
60 73 92
60 73 93
60 74 95
60 72 91
60 73 92
67 81 103
68 83 105
61 75 95
61 74 94
53 64 81
59 72 92
60 73 92
63 77 99
61 75 94
62 75 94
57 70 89
61 75 95
59 73 93
63 77 98
63 77 98
58 70 90
58 72 93
61 74 94
58 71 91
56 69 88
64 78 99
62 76 97
65 79 101
60 73 92
68 83 106
61 75 96
63 76 97
64 78 100
62 76 96
63 77 97
64 78 99
68 83 105
62 76 98
65 81 104
65 79 100
63 78 99
64 78 100
62 76 97
62 76 96
62 77 99
63 78 101
67 82 106
64 78 100
66 81 103
61 75 96
66 81 104
69 84 107
67 82 104
69 85 109
66 81 103
67 81 104
70 86 109
66 81 104
68 83 106
66 82 105
64 78 100
66 81 105
65 80 103
64 79 101
66 82 105
69 85 110
65 80 103
68 83 106
67 82 105
71 87 111
73 89 115
68 84 109
69 86 112
68 85 110
70 87 113
70 85 108
73 89 114
70 85 108
68 84 108
65 81 104
68 84 107
66 81 105
67 84 110
70 87 112
67 84 109
66 82 107
68 83 106
66 81 104
74 90 115
71 89 116
67 82 105
67 83 107
67 83 106
69 85 109
72 90 116
73 91 118
73 90 115
68 84 107
72 89 116
67 85 110
69 87 113
71 88 113
68 84 110
70 86 111
72 89 114
70 86 110
72 88 114
71 87 111
72 89 115
70 88 114
69 86 112
74 91 117
66 82 106
73 89 114
69 86 111
72 90 116
75 93 119
71 89 116
73 90 114
71 88 114
71 88 113
71 88 113
71 88 114
70 87 113
71 88 114
71 88 113
74 91 117
73 90 116
74 92 118
75 93 119
77 94 120
74 92 118
72 89 115
72 88 113
71 88 112
72 91 119
70 88 115
71 90 117
71 89 116
71 89 115
71 87 111
73 90 117
73 91 119
69 85 110
71 88 114
73 91 118
74 92 119
73 91 118
71 87 112
72 88 113
75 93 120
75 94 121
72 90 118
72 89 115
76 93 120
73 90 115
74 92 119
72 90 116
71 89 117
71 89 116
73 92 119
76 94 121
76 94 121
73 92 119
74 91 117
74 92 119
73 91 119
75 94 122
71 89 115
76 93 120
76 94 122
73 91 117
75 94 122
73 91 118
73 91 116
78 97 124
78 97 124
76 95 123
71 90 117
76 94 121
73 91 117
75 93 121
74 92 118
71 88 115
72 90 117
74 93 120
74 93 120
75 94 121
77 96 124
76 94 121
75 93 121
75 93 120
73 92 119
75 93 120
70 88 114
77 96 123
75 93 119
74 93 121
75 94 121
73 92 120
71 88 114
73 91 118
75 93 121
75 93 120
72 90 117
77 96 124
76 94 120
73 90 117
76 94 121
76 94 121
73 91 119
75 92 119
76 93 120
74 92 120
75 94 123
72 90 117
75 93 119
72 90 118
77 95 122
72 90 116
76 94 121
76 94 121
75 93 120
73 92 120
74 92 119
72 90 116
70 87 113
71 89 116
75 92 118
76 94 122
73 92 120
72 90 117
75 94 122
71 88 113
73 90 116
75 93 120
71 88 113
71 88 114
75 92 118
71 88 115
70 87 112
72 88 113
73 91 116
71 87 111
72 89 115
75 93 120
77 94 121
71 89 116
73 91 117
70 88 115
70 87 113
73 91 117
76 94 122
73 90 117
74 92 118
75 92 118
71 88 112
72 89 116
70 87 112
71 87 112
68 84 109
68 85 110
73 91 117
68 85 110
70 87 112
71 89 116
72 88 113
67 82 105
70 86 109
70 86 111
65 82 107
66 82 106
66 82 105
72 88 113
67 83 107
72 90 117
70 86 110
70 86 111
70 86 111
68 85 111
65 81 105
67 83 106
66 82 107
67 83 106
73 90 116
69 84 108
73 90 116
68 84 108
67 84 109
66 82 106
67 84 109
72 89 116
70 87 112
64 79 102
70 86 110
66 82 107
72 90 116
66 83 107
71 87 111
70 87 111
60 75 96
70 87 112
71 87 110
67 83 107
68 84 108
67 82 105
62 77 100
67 82 105
70 87 112
67 82 105
68 83 106
68 83 107
65 81 104
69 85 110
68 82 104
70 86 110
64 79 102
66 82 106
66 80 102
60 73 92
68 84 107
63 79 102
68 83 107
67 83 106
62 77 100
64 79 102
70 86 110
64 79 102
66 81 103
65 80 103
65 81 104
58 72 93
61 76 98
64 78 100
56 69 89
70 86 109
66 81 105
60 73 93
64 79 102
67 82 104
64 78 100
64 78 100
58 71 90
63 77 98
60 74 95
62 77 99
62 76 97
59 73 93
60 74 94
68 83 105
63 77 98
59 73 93
58 72 93
61 74 94
65 79 100
61 74 95
64 78 99
61 74 93
66 80 102
64 78 99
61 75 97
59 71 90
67 82 104
67 82 105
59 72 91
60 74 94
67 81 103
62 75 95
58 71 90
64 78 99
59 72 91
57 69 88
59 73 94
62 75 96
62 76 98
54 67 85
63 77 97
59 72 92
61 75 95
60 73 91
55 67 86
63 78 99
60 73 92
57 69 87
59 73 93
61 74 95
61 74 94
55 67 85
63 78 100
63 77 97
55 66 84
65 79 102
60 74 95
60 73 93
63 77 96
57 70 90
63 77 97
58 71 91
59 71 91
59 72 92
64 78 99
67 81 103
60 73 93
62 75 96
59 72 92
58 71 90
62 75 96
60 73 93
62 76 97
63 77 98
58 70 89
64 78 100
61 74 94
61 76 97
61 75 96
64 78 98
64 78 99
59 73 93
65 79 100
61 74 93
59 72 92
62 77 98
63 78 99
64 78 99
58 71 91
58 72 92
60 74 95
56 69 89
64 79 103
66 81 103
60 73 92
62 77 98
61 76 98
61 75 96
60 73 94
63 77 98
64 79 101
63 77 99
62 75 95
66 81 103
62 76 98
66 82 104
56 69 87
64 80 102
67 83 107
64 79 100
64 79 102
64 79 100
62 76 97
64 79 102
67 82 106
67 82 104
63 77 100
65 81 103
70 86 111
64 78 98
65 81 104
64 79 101
68 84 109
63 77 98
64 79 102
66 81 104
65 81 106
68 84 108
68 85 110
63 79 103
68 83 105
65 81 105
65 80 103
64 79 103
64 79 101
67 83 107
68 84 109
71 88 113
70 86 110
69 85 108
70 85 108
71 88 114
67 82 105
67 82 106
71 87 112
67 84 109
68 84 107
73 90 115
64 79 101
66 82 106
66 82 105
68 85 110
71 89 115
69 84 108
69 85 111
67 82 106
68 84 108
72 88 113
68 85 111
71 87 112
70 87 112
74 92 118
69 86 110
71 88 114
69 84 108
72 89 114
71 87 113
71 88 114
74 92 120
73 90 116
70 87 111
68 85 110
69 86 111
72 90 115
68 84 109
66 82 106
72 89 114
74 92 119
69 86 111
67 83 108
67 84 109
71 87 113
66 82 105
74 91 117
70 88 115
70 88 114
70 87 113
71 90 117
73 90 116
74 92 118
69 86 111
73 91 118
72 89 115
74 92 120
76 94 120
73 90 115
70 87 113
71 88 114
74 92 117
73 91 119
71 89 115
73 90 116
73 91 119
74 91 116
73 91 118
71 88 114
70 88 114
71 89 115
77 95 121
72 89 115
70 87 113
71 87 112
71 88 114
74 91 118
73 91 117
74 93 120
74 92 118
75 93 120
70 87 112
74 92 118
75 92 118
74 93 120
75 93 120
73 90 117
76 94 121
74 90 115
74 93 120
75 93 120
72 91 120
75 93 120
73 90 115
73 90 116
70 88 115
75 94 121
72 89 116
74 91 118
71 90 117
74 92 118
71 88 115
76 94 121
74 93 120
77 95 122
75 92 117
73 92 120
74 93 121
72 89 114
75 93 120
74 92 119
73 91 118
75 93 121
75 94 122
75 93 119
75 93 119
72 92 121
75 94 121
71 89 116
78 97 125
75 93 120
75 92 119
74 92 118
77 95 121
72 89 116
73 91 117
76 94 121
76 94 122
74 91 118
77 95 123
74 93 120
75 94 122
75 94 122
75 94 122
72 89 116
71 88 114
74 92 119
73 90 117
76 94 121
67 84 110
76 94 121
74 92 120
74 92 119
72 89 115
75 92 119
73 91 117
72 90 117
71 88 114
72 89 114
72 90 117
73 90 116
74 92 120
73 91 118
74 92 120
73 91 117
75 93 121
72 90 117
73 91 117
71 88 115
73 91 117
70 88 114
73 91 117
72 89 114
73 91 116
70 87 112
73 91 117
70 86 111
73 90 116
71 88 114
75 92 119
71 89 115
75 92 117
74 91 116
74 91 117
72 90 116
72 89 114
70 87 112
69 86 111
74 90 115
67 83 108
69 86 111
65 81 105
72 90 117
69 86 111
74 92 118
74 91 116
72 89 115
72 89 114
69 86 111
70 87 112
73 89 114
69 86 111
66 83 108
74 91 118
68 84 109
73 90 116
71 89 115
71 88 114
72 89 116
71 87 112
71 88 115
70 87 111
71 89 116
66 82 105
69 84 108
71 87 111
72 89 114
70 88 114
70 86 111
71 87 113
67 83 107
69 86 112
67 84 109
70 86 110
72 89 113
66 82 106
63 78 100
65 80 102
69 85 109
69 85 110
69 86 111
69 87 113
69 85 109
66 81 105
67 83 107
65 81 106
64 80 103
69 85 108
69 85 108
65 81 104
68 84 108
72 89 115
66 81 105
68 84 108
70 86 110
66 82 106
71 87 111
65 81 104
65 80 104
67 83 107
66 82 105
68 85 109
61 75 96
65 80 103
66 80 102
71 86 109
67 83 107
67 82 106
69 84 107
57 70 89
68 83 106
66 81 105
63 78 100
63 78 99
62 77 99
65 79 101
64 78 99
65 81 103
70 86 110
60 74 95
62 76 96
64 78 100
62 77 99
62 76 97
63 77 99
66 80 102
67 82 104
59 73 93
65 80 102
67 81 102
63 77 99
60 74 95
65 80 102
64 79 101
64 79 101
68 85 110
56 69 88
65 80 103
60 74 94
57 71 91
60 74 94
61 75 94
62 76 96
61 75 97
66 81 104
64 79 101
58 71 91
57 71 90
61 74 94
60 73 93
62 77 98
61 74 95
68 83 105
66 80 102
62 77 99
58 70 88
63 76 97
56 69 88
62 75 96
59 72 92
62 76 96
54 66 84
61 74 95
56 69 88
62 77 98
56 69 89
59 73 94
62 75 95
60 73 94
63 77 98
60 73 93
60 74 94
63 77 99
61 75 96
60 73 93
57 71 91
69 84 106
51 63 80
62 75 95
64 78 99
57 69 87
61 74 93
62 76 95
59 72 91
66 80 100
54 66 85
60 74 94
62 75 95
57 70 88
57 70 88
62 75 95
56 69 88
59 73 93
64 78 98
62 77 98
64 78 99
63 76 96
61 74 95
58 71 90
60 74 94
59 72 92
59 73 93
69 83 105
61 75 95
63 77 99
65 79 101
64 79 101
66 80 102
63 77 98
63 78 99
66 81 103
63 78 99
60 74 94
57 70 88
63 77 99
65 79 101
58 71 90
60 73 92
58 72 92
61 75 96
66 81 103
57 71 91
66 80 102
64 78 99
64 78 101
66 80 102
71 86 110
64 80 102
66 81 104
61 76 97
56 68 87
63 77 98
66 81 104
68 83 106
67 82 105
64 80 103
67 82 104
64 80 103
67 82 104
67 82 105
64 79 102
67 82 106
65 81 104
65 81 105
64 78 100
71 88 114
63 78 100
66 82 106
72 88 110
65 80 103
67 84 109
71 88 113
66 82 107
61 74 94
72 88 112
67 82 105
62 77 100
71 87 111
60 75 98
66 80 102
64 79 102
67 83 106
67 82 104
70 86 109
66 82 105
63 78 101
65 80 103
65 81 104
71 87 110
62 78 102
73 90 116
68 84 109
69 85 110
67 82 106
70 87 112
72 88 113
70 87 112
70 87 111
70 86 111
69 85 108
71 87 111
63 79 101
72 89 114
70 87 112
73 89 113
68 84 108
69 86 110
68 84 108
73 90 116
68 84 107
66 81 105
73 91 118
67 83 106
74 91 116
73 91 118
73 90 115
67 85 111
72 88 114
68 85 110
73 90 115
68 84 108
76 92 117
71 88 114
72 89 114
72 90 116
71 89 115
70 88 114
71 88 114
69 86 111
66 83 108
74 92 119
75 94 121
74 92 119
74 92 118
73 90 116
75 93 120
69 86 111
69 86 110
73 90 116
75 92 118
73 90 116
68 85 111
72 88 114
74 92 119
74 92 119
70 86 111
73 90 116
76 94 120
72 90 117
73 91 119
75 92 118
70 88 114
79 96 122
72 89 116
75 93 121
74 91 118
74 92 119
75 93 119
72 89 115
74 93 122
75 92 119
74 91 117
73 90 116
75 94 122
71 88 114
72 90 118
73 91 117
69 86 111
74 92 119
77 95 122
72 91 118
76 93 119
74 92 119
71 88 115
77 95 123
73 90 116
74 93 121
71 87 111
76 95 124
73 91 117
77 95 123
76 94 122
75 92 118
76 94 121
73 92 120
76 94 121
78 96 124
74 92 120
77 95 122
78 97 124
73 92 120
76 94 121
74 92 119
75 94 122
71 88 114
73 91 117
76 95 122
75 92 117
76 94 121
73 92 120
75 93 120
74 92 120
73 91 117
74 92 118
72 91 119
72 89 115
73 90 116
76 93 120
74 92 120
76 93 119
73 92 120
74 92 120
73 90 116
73 90 117
73 92 120
74 92 120
73 91 118
69 87 113
75 92 119
73 91 118
73 91 119
74 92 119
76 95 122
75 92 119
71 88 113
72 90 118
71 88 115
74 92 118
72 90 117
76 93 120
72 89 115
71 88 113
72 89 115
72 89 116
73 90 116
74 91 118
76 93 119
68 85 111
69 86 112
73 90 117
71 89 117
71 88 113
67 84 109
69 86 111
72 90 116
70 87 112
75 92 117
71 89 115
75 93 121
73 91 118
72 89 114
70 87 112
70 87 113
72 89 114
75 94 121
71 90 117
75 94 122
72 90 115
73 90 116
74 93 120
69 86 111
76 94 121
70 87 113
78 96 123
68 84 108
71 89 115
69 85 111
73 90 115
69 85 110
69 85 110
71 88 114
72 89 114
72 88 114
68 85 110
71 88 114
71 88 114
69 84 106
74 90 115
74 91 116
74 92 118
68 85 110
70 86 112
68 83 107
73 90 117
67 83 107
71 89 115
67 84 108
69 86 111
70 87 112
68 85 109
67 83 106
66 82 105
66 82 105
73 90 117
70 87 112
66 81 105
72 89 114
70 87 113
71 87 111
70 87 111
73 89 113
71 87 111
73 90 115
67 82 104
66 81 104
66 82 106
69 85 109
69 85 109
67 83 107
68 83 107
65 80 103
66 82 105
73 89 115
66 81 105
70 86 111
65 80 104
69 85 109
67 82 104
70 86 110
63 78 101
66 82 106
63 78 101
68 83 106
64 79 102
72 89 114
64 79 101
66 81 104
63 77 97
66 81 104
63 77 99
68 84 108
65 79 101
69 84 106
61 75 96
64 79 102
65 80 103
64 79 101
66 81 103
66 81 103
67 82 104
64 79 102
63 78 100
67 82 105
66 81 102
61 76 98
63 77 98
59 72 92
67 81 103
65 80 102
62 75 96
67 81 102
61 75 95
65 79 101
62 76 97
59 73 93
63 78 99
66 80 103
65 80 101
61 74 94
61 74 94
63 78 100
64 79 100
58 71 91
56 68 85
64 79 103
69 84 107
61 74 94
60 74 94
59 73 93
65 79 101
63 76 97
64 77 98
56 69 89
59 72 90
61 75 95
65 79 101
63 77 98
60 73 93
59 72 91
60 74 95
61 76 97
63 77 98
60 73 93
59 72 92
60 73 93
59 73 93
62 76 96
64 77 97
63 77 98
59 73 93
59 72 91
66 80 101
58 70 90
60 74 95
68 82 104
60 74 94
63 77 98
53 65 83
62 76 96
60 73 94
66 81 102
59 72 91
65 79 101
58 71 90
61 75 95
62 75 96
62 76 97
55 68 87
65 79 100
60 73 93
61 74 95
60 74 95
62 76 97
59 72 92
62 75 95
62 75 94
63 78 100
67 82 104
56 69 88
61 75 97
61 74 94
63 77 98
62 75 96
56 69 88
59 72 92
63 77 97
64 79 101
59 72 92
59 72 91
67 82 104
60 73 93
60 74 95
63 77 98
57 70 90
62 76 97
63 76 96
54 66 85
57 71 91
66 81 105
63 77 98
66 81 103
59 72 93
62 76 97
64 79 102
73 89 112
64 78 99
61 74 95
64 78 99
66 81 103
65 80 102
62 77 99
67 82 105
66 82 106
65 80 102
69 85 108
63 77 98
67 82 104
61 75 98
68 83 106
66 82 106
66 81 105
64 79 102
63 78 100
66 82 106
69 85 109
63 77 99
70 87 112
65 80 103
66 81 103
68 84 108
66 81 103
64 79 101
67 83 107
65 80 103
69 85 108
70 87 112
68 84 107
64 80 103
69 86 111
66 81 105
70 87 112
70 86 108
68 84 108
68 85 110
67 82 105
64 80 104
71 88 114
67 83 107
69 85 109
68 83 106
66 83 109
64 79 102
70 86 111
65 80 103
70 87 112
67 82 105
69 85 109
68 85 109
64 80 103
67 83 107
73 91 118
72 88 113
72 89 113
68 85 111
69 86 111
71 87 112
72 89 114
72 88 113
72 89 115
68 84 108
70 87 113
66 83 107
71 89 115
70 87 112
68 85 110
72 89 116
69 86 110
69 85 109
70 87 112
69 86 111
72 90 117
71 88 113
73 91 118
74 90 115
72 89 115
74 92 119
75 93 120
73 91 117
73 90 116
71 87 112
73 91 117
73 91 117
68 85 110
70 87 112
71 88 113
76 93 119
69 86 111
71 87 112
74 91 118
74 92 117
75 93 120
69 86 113
73 90 116
73 91 117
74 92 119
75 92 118
72 90 117
71 88 113
74 91 118
71 88 115
74 91 117
72 90 116
74 92 120
73 90 117
74 92 120
75 92 119
75 93 119
72 90 115
74 92 118
73 92 120
73 91 118
71 89 115
75 93 121
74 92 119
73 90 117
74 92 118
74 92 119
76 95 123
75 93 120
75 93 120
76 94 120
72 90 116
77 95 121
74 92 120
72 90 116
72 89 115
73 90 116
73 91 118
74 93 121
74 93 121
75 93 121
75 94 122
75 92 119
73 92 120
73 92 119
70 88 114
74 93 121
75 92 119
73 90 117
77 96 123
73 90 117
76 95 122
74 91 118
75 93 120
74 92 119
74 92 119
75 94 121
76 95 123
75 94 121
73 91 117
76 93 120
75 93 120
73 90 116
76 94 121
69 86 112
72 90 117
73 91 118
71 88 115
74 92 120
74 92 119
75 93 120
74 92 119
74 92 120
74 91 117
77 95 123
71 87 112
74 92 119
73 91 117
76 93 120
75 93 120
74 93 121
78 96 122
72 91 120
71 89 115
72 90 116
69 87 114
74 91 117
74 93 121
70 88 113
74 92 119
72 90 117
74 92 118
73 91 117
74 92 119
74 92 119
72 89 114
73 90 116
72 90 118
70 88 115
73 89 115
74 92 119
74 92 119
71 89 117
71 88 112
70 86 112
70 87 113
70 87 112
72 89 115
68 85 109
72 90 117
75 94 122
68 85 111
73 91 118
70 87 113
73 91 118
73 91 117
71 90 117
72 90 118
73 90 116
74 92 118
70 87 112
73 90 117
73 90 116
71 89 116
68 84 109
70 87 113
69 85 110
70 87 113
71 88 114
73 90 115
70 88 113
66 82 105
70 87 112
68 85 110
71 89 116
74 91 117
70 88 114
70 88 113
67 84 109
73 91 116
71 88 112
71 88 113
69 87 114
71 88 113
69 86 110
65 81 105
69 86 111
68 84 108
67 83 107
68 85 110
70 86 110
67 82 106
73 91 117
70 86 111
66 81 103
67 83 107
69 85 109
70 86 109
73 90 116
67 83 107
67 83 106
70 87 112
67 83 106
66 82 107
64 79 101
66 82 107
60 74 96
62 77 99
64 80 103
67 84 109
65 80 104
67 83 106
71 87 111
61 76 97
63 78 101
68 83 107
66 82 105
69 85 109
62 78 101
64 80 103
67 82 105
69 86 111
65 80 102
66 82 106
70 87 112
66 81 105
70 87 112
71 87 110
62 77 99
66 81 104
69 85 109
66 80 102
64 80 104
66 81 103
60 74 94
63 77 99
69 84 108
67 82 106
69 84 107
64 78 100
66 82 106
63 77 98
68 84 106
57 70 89
61 75 97
65 79 101
63 77 99
60 73 94
63 77 99
66 81 104
62 76 97
65 79 101
69 84 107
63 78 100
62 76 97
58 72 93
65 79 101
61 75 96
62 76 98
59 72 92
60 74 95
62 76 96
62 76 98
60 74 96
62 76 96
63 78 100
60 74 96
66 81 103
62 77 99
61 75 95
64 77 96
67 82 104
60 74 94
61 74 95
62 76 98
64 79 100
59 72 92
62 76 96
64 78 100
61 75 95
59 72 92
64 77 98
53 65 82
61 75 97
62 76 95
66 81 104
57 70 90
56 69 88
67 81 103
68 82 104
62 75 95
60 74 94
59 72 92
61 74 93
59 71 89
60 74 95
63 77 98
61 74 94
60 73 94
64 79 101
64 77 98
60 72 90
63 76 96
67 81 104
60 74 94
59 74 95
64 78 99
61 75 95
58 72 92
58 72 92
68 82 103
68 83 106
67 81 103
60 73 92
61 75 96
55 68 87
59 73 93
57 70 90
63 77 98
57 71 90
69 84 107
65 80 102
59 73 94
61 75 95
60 73 93
63 78 101
62 75 95
65 79 100
63 77 97
62 76 97
68 83 105
65 79 101
60 74 94
63 78 101
62 76 97
58 71 91
63 78 101
63 78 100
66 81 103
65 81 104
62 76 98
62 77 99
69 84 107
67 82 105
63 77 98
60 74 96
62 76 97
65 80 101
64 79 101
66 82 105
66 82 104
63 77 98
65 79 102
64 79 101
71 86 110
64 79 101
65 81 104
67 82 104
65 81 105
67 82 105
66 81 103
67 82 106
61 76 99
64 78 99
63 78 100
60 74 95
65 81 103
64 79 102
65 81 104
65 80 102
65 80 103
64 80 104
68 84 108
67 82 106
68 84 108
64 80 103
64 80 104
68 83 106
67 83 107
71 88 114
68 84 109
68 84 108
59 73 94
62 76 98
72 88 112
69 84 107
68 85 110
72 89 115
71 86 109
68 85 110
68 83 106
72 88 113
68 84 107
68 85 110
69 85 111
70 87 112
71 87 112
69 84 108
66 81 103
62 77 99
69 86 111
72 90 116
70 87 114
73 90 116
66 82 106
69 85 108
72 88 114
67 83 107
68 83 106
68 84 108
71 88 114
72 89 114
72 89 114
67 84 110
71 88 113
72 88 114
72 89 116
70 88 116
69 87 113
69 85 109
72 89 116
70 87 112
73 90 117
71 88 115
69 84 108
73 90 116
69 86 111
68 85 110
71 88 114
71 88 113
74 92 118
75 94 121
69 85 109
72 91 118
75 92 118
74 92 119
72 89 114
71 87 111
72 89 116
72 89 115
73 90 117
74 92 119
73 91 118
68 84 108
75 93 119
76 94 121
71 88 114
71 88 114
73 90 117
71 88 113
73 91 117
72 89 116
76 93 119
73 92 119
71 88 114
74 92 118
72 90 117
74 93 121
74 92 119
71 88 114
75 93 120
72 91 119
72 90 117
72 89 115
75 93 120
72 90 117
75 93 121
72 90 117
75 94 121
73 90 115
74 93 122
73 90 115
73 90 115
77 95 122
76 94 121
74 93 121
74 92 120
73 92 120
74 93 120
75 94 122
70 87 113
74 93 121
71 88 114
78 97 125
75 94 121
72 90 116
77 95 123
77 96 125
76 94 121
76 94 122
74 91 117
74 91 116
74 91 118
77 95 122
76 94 122
76 95 123
78 96 123
76 94 121
74 93 121
73 92 120
76 94 121
74 92 119
73 90 115
74 92 119
77 95 122
72 91 120
77 95 122
74 93 120
74 92 120
74 92 119
74 92 119
77 95 124
77 94 120
75 91 117
74 92 120
72 90 118
75 94 122
76 94 120
74 92 119
73 91 118
73 92 119
76 93 119
71 87 112
75 93 118
74 92 120
72 91 118
71 89 115
70 86 112
75 93 119
71 89 116
72 88 114
71 88 114
74 93 121
72 90 116
76 94 122
72 90 117
71 87 112
70 86 111
78 96 122
71 87 113
73 91 118
71 88 114
72 90 116
69 86 111
71 88 114
71 88 115
72 90 117
69 86 112
72 90 117
73 92 119
75 94 121
72 89 114
70 87 114
71 88 113
72 90 118
73 91 118
77 96 123
70 87 112
68 84 109
72 89 115
70 88 113
73 91 118
74 92 118
68 84 106
70 87 112
72 89 114
71 88 113
72 89 115
69 85 110
72 88 113
71 88 114
70 86 110
70 89 116
71 88 113
73 90 116
69 86 112
71 88 114
72 89 115
72 89 114
75 92 119
69 87 113
68 85 110
68 84 108
66 82 105
71 89 115
69 84 108
72 88 113
74 92 118
66 83 108
66 82 106
68 84 107
68 85 111
74 90 115
71 89 115
71 88 113
64 79 101
63 78 101
68 85 111
67 83 107
65 80 103
69 86 111
72 89 114
68 85 110
66 82 106
70 87 111
67 83 108
65 80 104
66 82 107
69 86 110
68 83 107
67 83 107
68 84 108
70 86 109
65 80 103
68 84 109
65 80 102
65 81 105
68 83 107
72 90 115
64 80 103
66 81 104
62 76 96
69 85 110
65 80 103
67 83 106
64 79 101
66 81 104
68 84 108
65 80 102
67 83 106
66 82 105
65 81 103
68 84 107
66 82 105
64 79 102
65 81 104
68 83 106
67 82 103
60 75 96
62 75 96
64 79 102
66 82 106
67 82 105
62 76 96
65 79 101
64 79 101
65 80 103
64 79 100
67 82 104
59 73 92
58 73 94
63 76 97
63 76 96
61 75 96
67 82 105
63 76 97
60 74 95
62 76 96
59 72 91
60 73 94
58 72 92
59 72 93
59 73 93
59 72 92
65 79 100
64 77 98
59 72 92
60 74 94
61 76 97
62 76 97
59 72 92
64 79 100
62 77 98
63 77 99
62 75 94
59 72 91
65 80 102
65 78 99
56 69 88
60 73 92
60 73 93
63 77 97
61 75 96
59 72 93
62 76 96
59 73 93
60 74 94
62 76 97
61 75 94
61 76 97
63 77 98
58 71 91
60 73 94
56 68 87
63 77 97
67 81 104
64 78 99
64 79 101
63 78 100
63 77 99
65 78 99
62 77 99
60 74 95
62 76 97
58 71 90
62 75 95
59 72 93
56 68 87
63 77 98
65 80 102
61 75 97
63 77 99
64 78 98
55 68 87
62 75 96
61 75 96
59 72 92
66 82 106
67 83 106
60 73 94
64 78 99
61 75 97
61 74 93
60 74 95
63 77 98
63 77 98
68 83 105
66 81 103
63 77 98
67 82 104
63 77 97
63 77 97
60 73 94
64 79 100
65 80 101
69 84 108
62 77 99
66 80 101
65 79 101
65 81 103
59 73 93
58 71 91
63 78 100
71 88 112
60 74 96
64 80 103
62 76 96
69 84 107
64 80 103
61 75 96
58 71 92
63 78 101
62 78 101
67 81 103
62 77 99
63 78 100
64 78 100
63 78 100
63 77 99
69 85 108
65 80 102
65 80 103
66 82 105
67 82 104
69 84 108
66 81 104
65 81 104
71 87 111
69 85 109
64 78 101
64 79 102
66 81 104
70 86 110
67 83 108
70 86 110
67 82 105
65 79 101
70 86 110
68 84 109
68 85 109
69 86 111
65 81 104
69 85 109
66 82 106
68 86 112
69 85 107
67 83 107
72 90 116
66 81 104
69 85 108
66 81 103
63 78 102
68 86 112
69 86 110
68 83 107
70 86 109
63 78 101
69 85 109
70 86 111
72 89 115
68 84 107
68 84 108
72 89 114
75 92 119
69 85 110
70 87 112
72 88 112
69 87 113
71 88 112
68 85 109
70 87 112
70 87 111
71 87 112
70 87 112
72 89 115
69 87 114
77 94 121
70 88 115
70 86 112
71 89 115
69 85 110
69 86 112
72 88 113
75 93 121
71 88 114
74 92 119
73 90 115
68 85 110
71 89 116
70 88 114
72 89 115
71 88 114
71 88 113
68 84 109
75 93 120
71 87 113
70 87 114
72 90 116
71 88 113
75 91 116
75 92 119
75 93 118
69 85 109
70 86 110
72 91 119
74 92 119
70 87 113
70 87 114
71 87 112
68 86 111
71 89 115
71 88 113
72 89 115
72 89 114
74 92 119
73 90 116
70 87 112
76 95 123
73 90 116
68 85 110
73 90 116
72 90 116
72 90 117
76 93 120
74 92 119
74 92 118
74 92 118
73 91 118
71 88 114
74 92 120
76 95 123
72 90 117
76 94 122
76 94 120
72 90 116
73 91 119
72 90 116
74 92 119
73 90 117
75 93 121
71 89 115
74 93 121
77 95 122
74 91 117
74 93 120
71 88 115
75 93 119
73 92 120
75 92 119
71 89 115
72 90 117
75 94 122
75 93 120
74 92 117
75 93 120
70 88 115
76 93 120
72 89 115
71 89 117
72 91 118
76 95 123
73 91 117
75 94 122
70 87 112
72 90 116
77 95 124
76 94 122
73 91 117
74 92 118
75 93 120
72 90 116
74 92 119
75 92 119
74 92 120
73 91 118
71 89 116
73 90 115
73 90 116
75 93 120
68 85 111
72 89 114
75 93 120
74 91 116
73 92 119
74 92 118
74 91 116
76 94 121
75 93 120
74 92 120
75 93 121
74 93 120
74 93 120
73 91 117
75 93 120
72 89 115
73 90 117
72 89 115
70 87 113
73 92 119
70 87 113
72 90 116
74 92 118
69 87 112
74 92 119
73 91 118
74 92 119
75 93 121
69 86 111
77 95 122
70 87 112
75 93 121
74 91 117
75 91 116
69 87 112
73 91 117
69 87 113
72 90 116
73 91 119
69 87 114
74 90 115
72 91 118
71 88 114
70 87 111
72 89 116
71 88 112
73 91 116
71 88 113
72 88 113
70 87 113
71 88 114
69 86 110
71 89 117
72 90 116
66 83 109
71 88 115
71 88 113
74 92 118
73 90 115
71 87 112
72 89 115
66 83 109
71 87 112
68 84 109
70 87 113
69 85 111
72 88 113
67 83 106
69 86 110
73 90 116
70 87 111
71 87 111
69 86 112
65 81 104
66 82 105
65 81 104
66 83 107
64 80 104
66 82 106
67 82 104
69 87 112
70 87 113
71 87 111
70 85 109
69 86 111
69 85 110
69 85 111
68 85 111
65 80 103
68 83 107
62 77 100
67 83 106
64 79 101
70 87 111
68 84 107
69 86 111
65 82 106
70 87 112
64 80 102
66 81 103
64 80 103
66 81 104
64 80 103
65 80 102
65 81 104
63 77 99
66 81 104
64 79 100
61 76 99
66 81 105
64 78 99
65 80 104
64 79 101
68 82 105
67 82 105
64 79 102
68 85 109
67 83 108
69 85 109
66 82 105
65 81 105
61 76 98
67 83 107
58 72 92
72 88 112
65 81 103
65 80 104
64 79 101
64 78 98
63 77 98
66 81 103
62 77 99
64 79 101
62 76 98
65 80 102
66 80 102
63 77 98
58 72 93
69 84 107
65 80 103
62 76 98
54 67 87
65 80 102
64 79 100
60 73 92
64 79 101
60 74 94
59 73 93
61 74 94
60 74 95
58 72 92
66 81 103
61 74 95
62 76 98
61 76 98
60 73 93
57 71 91
62 77 99
60 74 94
61 75 96
63 78 99
65 78 99
61 76 97
61 75 96
58 71 90
61 75 97
64 78 99
61 75 95
58 70 89
60 74 95
61 74 94
63 77 99
61 74 95
61 75 95
65 80 103
61 75 97
58 71 89
62 76 97
62 75 95
67 81 102
60 73 92
59 72 92
59 72 92
55 68 88
62 77 98
66 81 103
63 77 98
61 74 95
60 74 95
59 72 91
64 79 100
63 77 99
58 71 91
55 68 87
58 72 93
64 78 98
55 68 87
58 72 92
64 78 100
62 77 99
59 72 91
58 71 90
69 84 106
69 83 105
58 71 90
59 73 93
66 80 101
65 80 104
57 71 91
66 81 103
60 74 95
63 77 97
62 77 99
64 79 103
64 78 99
65 80 103
68 83 106
62 76 97
62 76 97
61 76 97
67 82 106
59 73 94
61 75 96
63 77 98
62 76 96
60 73 92
67 83 107
66 82 106
69 84 107
60 75 96
70 86 111
67 82 105
65 80 102
62 77 99
61 76 99
68 83 107
65 79 101
70 86 109
65 81 105
63 78 101
60 74 94
62 77 100
69 85 109
68 83 107
68 84 107
64 79 101
64 78 100
65 81 105
69 84 108
68 84 107
66 81 104
68 83 107
67 83 107
72 89 114
68 83 105
67 83 107
67 82 105
69 85 109
67 81 103
69 84 107
66 83 107
68 84 107
69 84 107
69 84 107
68 85 109
69 85 109
72 88 113
68 85 110
71 86 110
70 86 110
60 75 98
65 81 105
73 89 114
68 84 108
69 85 110
67 83 107
70 87 113
70 87 113
67 82 105
66 82 106
68 83 107
72 89 114
67 83 106
68 84 109
69 85 109
71 88 113
69 86 111
70 86 111
73 90 115
69 86 112
71 88 113
68 83 107
71 87 111
66 81 104
73 90 115
72 88 113
74 91 116
68 84 109
70 87 111
73 90 116
70 88 113
65 81 105
70 87 112
75 93 119
72 89 115
74 92 118
69 86 112
71 88 114
69 87 114
76 94 120
71 87 112
68 85 110
66 83 108
70 87 112
71 88 114
71 89 116
73 90 115
72 89 115
71 88 114
74 91 117
70 88 114
74 91 117
73 90 114
70 87 112
74 92 118
71 88 114
74 91 116
73 91 118
73 91 117
75 95 123
73 90 117
70 87 112
75 95 124
72 88 114
72 90 118
72 91 118
72 90 116
72 90 117
75 92 119
71 88 114
69 86 111
73 91 117
74 92 119
75 93 120
77 96 123
74 93 121
73 90 116
75 93 120
75 93 119
74 92 119
73 90 117
76 94 121
74 92 120
75 92 118
75 93 121
74 91 117
75 93 119
73 90 116
75 94 121
75 93 119
74 92 119
75 93 121
73 91 117
74 93 120
72 89 115
73 92 119
76 94 121
75 93 119
71 88 114
75 94 122
74 92 118
75 93 120
75 92 118
77 95 122
77 95 123
74 91 118
75 94 122
76 94 122
74 91 116
76 94 122
73 91 118
74 92 118
75 95 124
75 93 120
72 90 117
72 90 116
75 93 120
77 95 122
78 95 121
75 93 120
76 94 121
75 93 121
73 91 116
72 90 117
73 90 117
73 91 118
75 94 122
74 93 121
77 95 121
74 92 119
74 92 118
76 93 120
73 91 117
77 94 120
73 91 118
71 88 114
74 92 119
74 92 119
69 87 114
72 89 114
74 92 119
72 89 115
72 90 117
74 92 119
72 90 116
73 90 116
72 90 117
74 93 121
72 90 117
75 94 121
74 92 119
77 94 121
70 86 111
74 92 118
74 91 117
70 87 113
71 88 113
74 92 118
72 89 115
71 89 116
68 85 110
74 92 119
74 91 116
69 86 111
70 87 112
71 88 113
76 94 119
69 87 113
70 88 114
72 90 116
74 92 119
72 89 114
71 88 115
69 85 110
72 90 116
71 88 113
68 83 106
73 89 113
69 86 111
68 84 109
72 88 113
69 86 111
71 87 112
66 82 107
68 85 110
71 88 115
69 86 111
71 88 114
71 89 116
75 93 119
70 86 110
67 83 107
68 85 109
71 88 114
69 85 110
67 83 107
69 86 110
67 83 108
74 92 119
72 90 116
67 84 109
71 89 115
67 84 108
68 84 107
70 86 111
67 82 104
71 87 112
65 79 102
69 86 112
70 86 111
67 82 106
67 84 108
66 80 103
65 80 102
70 87 112
70 86 110
69 85 109
73 90 114
65 81 104
69 85 110
68 84 108
70 86 110
72 89 114
68 84 108
70 87 112
69 85 110
62 77 98
68 84 108
70 86 111
69 85 108
64 80 103
68 83 107
73 89 114
69 85 110
62 76 97
65 80 103
66 81 104
66 81 104
67 83 106
69 84 108
64 78 99
67 81 104
62 77 98
69 85 108
61 75 95
67 82 105
63 77 100
65 80 102
61 74 95
63 78 101
63 78 100
67 82 105
66 81 103
68 83 107
65 80 103
63 78 100
61 74 94
64 78 98
61 76 97
62 76 98
61 75 95
66 81 103
63 77 100
63 78 100
59 72 92
64 78 100
66 82 105
68 83 105
63 77 99
63 77 98
67 82 104
65 80 102
65 79 100
60 73 93
69 84 106
61 74 95
66 80 101
64 78 100
63 78 99
64 79 101
65 80 102
64 78 98
64 78 100
63 77 98
60 74 96
59 72 91
60 75 96
60 73 94
66 80 101
65 79 101
62 76 97
61 75 95
62 76 96
58 71 92
63 78 99
62 75 96
65 79 100
62 76 97
61 74 95
60 74 94
61 76 98
66 81 103
63 77 97
63 78 100
60 74 94
57 71 92
61 74 94
61 75 95
61 76 98
61 74 95
66 81 103
62 76 98
60 74 95
66 81 104
61 75 96
58 70 90
60 73 93
63 77 98
62 76 97
60 75 96
62 76 96
65 81 104
65 80 102
63 76 96
65 79 101
57 70 89
67 81 102
57 70 90
58 71 90
58 71 91
64 78 99
64 79 101
67 82 104
62 77 98
68 84 107
62 77 99
66 80 102
61 75 96
64 78 98
63 77 98
62 76 98
64 78 100
59 73 93
67 82 104
59 72 92
62 76 96
68 83 105
66 81 104
67 83 106
64 79 100
63 77 99
64 79 101
66 80 102
65 80 103
63 77 98
63 77 98
68 83 106
64 80 103
65 80 103
61 76 98
63 77 99
65 79 101
66 81 103
59 73 93
62 76 98
63 78 100
66 81 104
71 87 112
64 79 102
67 82 106
68 84 107
64 78 101
60 74 95
66 82 106
71 87 111
65 81 104
65 80 104
65 80 102
70 86 109
64 80 103
65 80 102
63 78 100
65 81 104
71 87 112
64 80 102
65 79 101
63 78 101
66 81 105
66 82 107
69 85 109
68 84 109
68 83 106
67 84 110
69 86 110
67 83 107
71 87 112
71 88 113
65 81 104
66 82 107
70 87 112
72 90 117
68 84 108
71 87 113
71 87 111
71 87 111
66 81 104
66 82 105
71 88 113
70 86 110
70 87 112
66 82 105
67 84 109
70 86 111
71 88 114
67 83 105
75 92 118
71 88 113
69 85 108
69 85 108
73 91 118
69 86 111
70 88 113
71 88 114
65 82 107
69 85 109
72 90 116
74 91 117
72 88 114
65 81 104
70 87 112
71 89 115
72 88 113
71 89 117
70 87 112
73 91 117
71 88 113
68 86 112
72 89 114
72 89 115
72 89 115
74 92 119
72 89 115
72 90 116
68 84 109
74 91 117
73 91 118
70 87 112
73 90 115
71 88 114
70 88 114
74 91 117
71 89 116
75 94 121
72 88 113
74 92 118
76 94 121
72 89 115
73 91 118
70 87 114
70 88 113
72 90 116
69 88 115
72 90 116
71 88 113
73 90 116
69 86 111
73 91 118
72 89 116
71 89 115
73 89 115
74 91 118
70 87 113
70 89 116
75 92 117
74 91 118
71 88 114
73 91 117
72 90 116
71 89 115
71 89 116
73 91 118
76 93 119
74 92 118
75 93 120
74 91 118
76 95 123
73 91 119
73 91 118
71 90 117
77 95 122
73 91 117
76 93 119
72 91 119
72 90 117
74 92 119
73 92 119
76 94 121
75 94 122
75 93 120
78 96 122
74 92 119
74 92 118
76 93 118
78 96 125
68 84 107
74 92 118
72 91 119
74 93 121
73 91 117
75 94 122
74 92 119
74 92 118
70 88 114
70 88 114
72 89 113
73 91 118
75 93 120
74 92 119
77 96 125
71 89 115
75 92 118
72 89 115
71 88 114
76 95 123
75 94 122
76 94 121
78 96 123
74 91 117
72 89 114
74 91 117
73 92 119
75 94 123
71 89 115
77 95 121
74 92 120
73 90 116
75 93 120
73 92 121
71 89 116
77 95 122
73 91 119
71 89 117
69 87 114
73 91 117
73 90 117
74 92 119
71 87 112
72 89 114
70 87 114
73 90 114
74 91 118
73 91 117
72 90 117
72 88 113
68 84 109
76 93 119
73 90 115
66 82 106
74 91 117
68 85 109
76 93 120
70 88 114
69 85 110
75 93 119
75 92 118
74 92 118
68 85 110
71 88 115
73 90 116
73 91 119
71 89 115
69 86 111
73 91 118
74 92 118
73 92 119
72 90 116
71 89 115
69 85 110
72 90 118
77 94 120
69 86 110
75 92 117
65 81 106
69 87 112
66 82 106
72 89 114
70 85 109
72 89 116
70 87 112
67 83 108
69 85 110
72 89 113
66 81 105
68 84 108
69 84 108
72 90 116
70 87 112
72 88 112
68 85 110
71 89 115
72 89 115
70 88 114
63 78 102
67 84 109
68 84 108
70 86 112
69 85 110
72 89 115
73 89 114
67 84 109
63 78 99
67 83 107
63 78 100
71 86 110
69 87 113
68 84 108
70 87 112
67 83 106
69 84 107
63 78 101
67 84 110
64 79 101
68 84 108
69 85 110
62 76 97
64 79 102
68 83 107
64 79 101
69 85 110
63 78 101
64 79 103
64 79 102
72 89 115
63 79 101
71 87 112
65 80 104
69 85 109
67 83 106
66 81 103
65 80 102
69 84 108
68 84 108
62 77 99
65 81 103
63 78 99
71 87 110
68 85 109
68 84 108
65 80 103
64 79 101
63 77 100
66 81 104
64 79 101
65 81 103
58 72 92
65 79 102
65 79 102
68 83 105
55 68 88
56 69 89
64 78 101
63 78 100
61 75 96
63 78 99
67 82 104
66 81 103
63 77 98
62 76 98
55 67 86
65 80 102
65 79 102
64 78 99
59 72 92
69 84 106
66 81 104
64 79 102
60 74 95
62 75 95
64 79 101
66 81 102
65 80 101
65 79 101
59 73 94
58 70 89
63 78 100
61 75 95
61 74 95
62 75 95
62 76 98
59 73 94
65 79 100
68 83 105
61 74 95
67 81 103
60 73 94
61 75 96
62 77 99
65 79 101
58 70 90
62 77 99
60 73 94
66 81 103
66 80 102
62 77 98
63 76 97
57 70 90
61 75 95
59 72 92
57 71 91
64 79 100
57 70 88
67 82 105
60 74 95
62 76 96
61 75 95
63 77 99
66 81 104
60 74 95
66 80 102
60 75 96
64 77 98
58 72 94
69 84 107
58 72 92
67 82 105
65 80 102
60 73 93
64 79 101
66 81 103
62 76 97
67 82 106
65 80 102
62 75 96
64 78 99
66 80 103
62 76 96
62 76 97
63 77 98
62 75 96
65 81 103
66 80 102
66 81 104
65 79 101
64 79 101
66 81 104
65 79 101
63 78 100
62 76 98
63 77 98
60 75 96
67 82 104
67 82 104
69 84 107
62 76 97
62 77 98
63 78 100
69 84 108
66 81 104
61 75 97
61 75 96
65 80 102
60 74 95
63 78 100
65 80 103
66 81 104
67 82 103
68 83 106
64 79 102
70 87 111
65 80 102
68 83 105
64 79 101
64 80 103
65 80 102
65 80 103
66 82 105
67 82 105
68 84 107
69 85 109
66 80 103
68 85 110
67 83 107
66 80 102
68 83 105
67 84 109
67 83 107
63 79 104
73 90 115
66 82 105
63 78 99
69 84 108
68 84 107
70 86 111
67 84 108
72 89 114
67 84 108
70 86 111
64 80 105
66 83 107
65 80 103
67 82 105
74 91 116
71 88 114
65 81 105
73 89 113
70 87 111
66 82 105
73 90 116
67 84 108
69 85 109
72 90 117
68 84 109
72 88 113
69 86 110
62 77 99
73 89 115
69 85 110
68 84 109
70 87 114
67 83 108
73 90 115
72 89 115
71 87 111
69 86 112
73 89 114
68 85 110
71 88 114
69 86 111
71 89 115
69 86 111
73 90 115
72 89 116
70 87 111
73 91 118
70 87 111
70 88 115
70 86 111
72 90 115
73 90 115
72 89 114
72 89 115
70 87 111
68 84 108
68 85 110
75 92 119
70 86 111
75 94 121
74 93 120
74 92 118
73 89 115
71 89 116
72 90 117
72 89 116
70 88 115
72 90 116
75 92 119
75 93 121
72 90 116
70 88 115
71 87 112
72 89 116
76 93 119
73 91 116
72 89 115
76 93 119
73 91 119
72 89 115
75 93 118
74 91 118
74 93 121
76 95 123
73 90 117
73 90 117
72 90 118
72 91 118
73 91 117
72 89 115
73 91 117
71 89 115
76 95 122
76 95 123
77 95 123
72 90 116
74 92 119
75 93 120
69 86 112
75 93 120
77 95 122
77 94 120
76 94 121
75 92 119
72 90 116
74 92 118
73 92 119
71 87 112
69 85 110
76 93 118
74 91 118
76 94 121
75 93 119
76 95 122
76 94 121
77 95 122
73 90 116
74 93 121
72 90 117
74 91 117
73 92 119
73 90 116
74 91 118
77 95 121
73 92 120
72 90 116
75 93 120
76 94 121
74 91 117
71 89 116
75 93 120
74 92 119
73 92 120
74 91 116
75 93 121
72 90 116
73 91 119
77 95 121
74 92 118
71 90 118
73 90 117
74 92 118
74 92 118
71 88 114
74 92 118
75 93 120
71 87 112
75 93 119
73 91 118
76 93 120
74 93 121
74 92 119
75 92 117
71 89 115
75 93 121
68 85 110
70 87 112
70 88 115
77 95 122
69 87 113
74 91 118
73 90 116
72 89 115
72 88 114
73 91 117
67 84 110
71 88 114
72 89 114
67 84 109
73 91 117
72 90 116
70 86 111
73 90 116
73 90 116
69 86 111
71 89 115
75 93 121
72 89 114
68 86 112
73 90 117
69 85 109
72 88 114
72 90 118
69 86 111
71 87 112
76 94 120
77 95 121
71 88 113
67 84 110
70 87 114
74 91 118
73 90 116
71 89 115
70 86 111
71 88 113
68 84 107
71 88 113
72 89 114
70 87 112
72 89 116
64 80 102
68 84 107
72 89 115
69 86 111
66 81 104
71 88 114
68 84 108
74 92 118
71 88 114
74 92 118
74 91 117
67 84 108
68 84 108
69 86 111
66 82 105
68 85 110
73 90 116
72 89 114
69 86 111
67 82 105
68 85 109
68 85 110
66 82 105
70 86 111
70 86 110
72 88 112
65 81 104
70 86 110
71 87 112
67 83 105
64 79 102
68 83 107
65 81 103
69 84 106
67 83 107
66 82 106
68 84 107
70 86 110
65 81 104
63 76 97
66 81 103
66 81 103
68 84 107
70 86 111
72 88 112
70 86 110
62 77 98
65 81 103
71 87 111
69 84 108
69 85 109
63 78 101
67 82 106
65 80 102
63 78 100
66 82 105
68 84 107
64 79 102
67 83 107
65 80 104
62 77 99
65 80 104
65 79 101
68 84 107
68 84 107
66 81 103
60 73 94
64 78 99
62 76 98
65 80 102
67 81 103
67 82 106
64 79 101
66 81 104
61 75 97
66 81 104
64 78 100
65 79 100
67 82 106
66 80 101
64 79 102
68 83 106
60 73 94
63 77 98
67 83 106
59 72 91
66 81 103
63 76 97
63 77 98
63 77 97
66 81 103
59 73 93
64 78 99
63 77 98
59 73 94
56 70 90
64 80 103
64 79 102
67 81 104
64 78 99
68 84 108
68 82 104
65 79 101
65 80 102
65 80 102
64 79 101
66 80 102
58 71 90
61 74 95
66 82 105
68 84 107
63 77 98
63 77 98
61 75 96
68 83 105
64 78 100
67 82 104
61 75 97
62 75 95
61 75 95
60 73 93
65 79 100
61 74 95
65 78 98
64 79 100
60 74 94
61 75 97
66 80 101
63 78 100
62 75 95
56 68 87
67 81 103
64 79 101
62 77 100
58 71 90
61 74 95
61 76 97
64 78 99
67 82 105
65 79 101
64 79 101
63 77 98
60 74 94
62 76 96
62 77 99
64 78 99
62 76 96
67 82 104
60 73 93
64 78 101
63 78 99
62 76 97
65 79 100
58 71 91
64 78 100
64 78 99
63 78 99
64 79 101
65 80 103
65 80 102
65 81 104
63 77 98
65 80 102
63 79 102
67 82 105
67 81 103
64 79 102
66 81 104
63 77 99
64 78 100
66 81 104
65 80 102
64 79 101
67 83 107
63 78 100
66 82 105
64 79 101
66 82 105
67 83 107
69 84 108
66 81 103
65 80 103
69 84 107
65 80 103
65 79 102
64 79 102
65 81 105
64 80 103
65 81 106
69 84 108
64 79 101
59 73 94
69 85 109
68 84 109
67 82 104
66 80 102
65 81 104
68 84 108
63 79 103
60 75 97
71 88 112
66 81 105
68 84 107
66 81 105
64 79 101
70 85 108
67 84 109
69 85 109
69 85 109
69 84 107
70 87 114
68 84 108
68 85 109
62 76 97
71 88 114
65 82 107
69 85 110
68 84 109
66 82 106
68 83 106
69 86 111
67 84 109
67 83 108
70 86 110
66 83 108
73 90 116
70 87 113
68 85 109
69 85 110
71 88 113
73 89 113
70 86 111
71 88 112
69 87 113
68 84 108
71 89 115
70 87 113
71 88 113
67 83 107
66 83 108
71 87 111
74 92 119
73 91 117
71 88 113
74 92 117
74 92 118
74 92 118
69 87 112
71 88 113
74 91 117
73 91 118
72 89 114
73 90 114
73 90 116
70 88 113
74 92 120
69 85 110
68 84 108
69 86 112
72 89 114
74 91 117
75 94 122
73 92 120
72 89 114
72 88 113
67 84 108
71 89 116
71 88 115
73 91 117
71 88 113
72 89 115
76 94 122
72 89 115
73 90 117
72 89 115
72 90 118
78 96 124
68 85 110
73 90 114
74 92 119
72 91 118
70 87 113
70 87 113
73 90 116
77 95 121
72 89 116
71 89 116
74 91 117
75 93 121
76 94 120
76 93 119
76 95 123
70 87 113
73 90 117
74 92 119
74 91 118
75 93 121
72 89 114
73 91 118
72 89 116
73 92 119
76 94 121
78 97 126
74 92 118
73 92 119
75 94 121
74 91 118
74 93 121
75 92 119
71 89 115
75 92 119
75 93 119
76 94 122
75 92 118
74 91 118
76 93 119
73 91 118
74 92 119
73 91 117
71 88 114
75 94 122
76 95 123
73 92 119
70 87 112
74 93 121
77 96 124
72 90 117
75 92 117
73 91 119
73 91 118
73 91 118
74 94 123
73 90 116
73 91 119
76 94 121
73 91 119
76 93 118
73 91 119
75 93 121
74 92 120
73 92 119
73 90 115
73 90 116
71 88 113
74 91 117
77 94 121
72 90 116
72 90 117
73 91 118
69 86 111
73 91 117
75 94 121
74 93 121
75 92 118
69 87 113
73 90 116
72 90 117
74 91 118
75 92 118
74 92 120
73 91 118
76 94 121
75 94 122
72 90 118
72 89 115
70 87 114
75 93 120
70 87 112
73 91 118
76 95 123
73 91 118
72 90 115
76 93 120
70 87 113
72 89 114
72 90 116
68 84 108
74 92 119
69 86 113
74 91 118
66 83 107
72 88 113
71 89 115
71 89 115
72 89 114
76 93 120
73 90 115
70 87 112
70 87 112
65 81 105
72 89 115
70 86 110
76 93 118
69 86 111
70 87 114
72 89 115
69 87 114
69 87 113
71 88 114
69 86 112
65 82 107
69 86 112
68 85 110
70 87 112
71 86 110
68 85 111
71 88 113
72 88 113
68 84 109
71 87 112
67 83 108
70 87 112
69 85 110
69 84 108
68 84 108
69 87 113
69 86 111
68 84 108
70 87 112
72 89 116
73 90 116
69 85 110
70 86 109
64 80 103
72 89 114
63 79 103
66 82 106
69 86 111
65 80 103
67 83 107
68 84 107
70 86 110
68 84 108
68 83 107
66 81 104
68 84 107
66 82 104
67 82 105
63 79 103
67 82 106
62 77 99
62 78 101
68 83 105
66 80 102
67 84 108
63 78 100
64 79 101
67 82 104
71 87 110
68 83 107
69 85 109
64 78 101
70 87 111
61 75 97
68 84 108
68 83 107
62 77 100
64 79 101
63 77 99
65 81 104
70 86 110
62 76 98
64 79 101
63 77 98
68 84 107
59 72 93
61 75 96
68 83 106
67 82 104
64 78 100
64 78 100
67 82 104
65 79 99
68 83 106
66 81 104
66 81 104
58 71 91
68 83 105
64 79 101
67 83 107
64 78 99
61 75 95
66 80 101
68 84 107
66 82 105
65 81 104
62 77 99
68 85 109
59 73 95
62 76 99
65 79 101
63 77 98
60 74 96
65 80 103
67 83 106
65 81 104
63 78 100
65 80 102
65 79 100
61 75 96
63 78 99
69 84 107
65 80 104
56 70 90
62 77 99
57 71 91
65 80 102
63 77 98
64 78 100
64 78 100
66 80 102
62 77 99
64 79 101
66 80 101
68 83 107
60 74 94
59 72 92
68 83 105
58 71 91
61 76 97
59 73 94
63 76 97
63 76 97
62 76 97
64 80 103
60 73 93
64 79 102
62 77 98
61 75 96
62 76 98
58 71 92
60 74 94
60 73 93
58 72 92
59 73 93
60 74 95
58 72 92
64 78 98
67 83 105
67 82 105
54 66 85
62 76 99
62 76 97
63 77 99
66 80 102
70 86 109
59 73 94
65 80 103
63 77 98
66 80 101
63 77 99
61 75 95
67 82 105
67 81 103
67 82 104
65 80 101
62 76 97
67 83 107
60 73 93
67 82 104
62 77 99
64 78 100
60 74 95
64 77 98
65 80 102
67 83 106
63 78 101
70 87 111
66 81 105
59 73 95
68 85 110
66 80 103
67 83 106
66 81 104
64 79 102
65 80 103
68 83 105
67 82 105
64 78 98
60 74 96
71 87 112
64 80 103
64 79 102
70 86 110
69 86 112
62 76 97
65 81 104
69 85 110
65 81 103
70 86 110
65 81 104
69 85 109
68 84 110
63 78 99
70 88 115
69 85 109
68 85 109
66 82 105
71 87 110
68 85 109
70 86 110
69 85 110
67 84 108
74 90 114
69 84 108
68 84 107
67 83 108
72 89 114
66 82 104
67 82 104
71 89 115
67 82 106
68 84 107
67 84 109
68 83 106
65 81 105
65 80 103
65 80 103
67 84 109
66 81 104
67 83 106
70 87 113
70 86 110
69 85 109
69 85 110
71 88 113
67 84 109
70 86 111
71 88 113
73 89 114
70 86 111
72 89 114
74 91 117
72 89 116
67 84 108
70 87 112
69 85 111
71 87 112
68 83 106
70 87 113
74 90 114
68 85 110
71 89 114
70 88 115
71 89 115
72 90 116
65 82 108
69 86 112
72 89 115
69 85 109
70 87 113
74 93 121
72 89 115
71 88 113
69 85 110
72 89 114
69 85 110
73 91 119
73 90 115
70 88 114
75 93 120
73 91 117
71 89 115
73 91 117
72 90 117
73 89 112
73 90 116
66 83 108
75 93 120
72 89 114
68 85 110
74 91 117
74 92 119
71 87 111
70 88 115
71 88 115
72 90 116
74 91 117
73 90 115
69 87 112
71 89 114
72 90 116
69 86 112
70 86 111
73 91 119
76 94 121
75 92 117
69 85 111
74 92 119
70 87 113
70 87 112
71 89 115
66 84 111
70 88 115
73 91 117
76 93 119
72 90 115
74 93 121
75 93 120
72 89 114
75 94 123
73 92 120
76 94 122
72 90 117
73 90 115
73 90 116
73 91 118
76 94 121
70 87 113
73 92 119
71 89 118
75 93 120
74 92 118
77 94 120
75 93 120
76 94 121
74 92 120
72 90 117
76 94 121
74 92 119
74 92 120
75 93 120
72 90 117
74 92 118
79 97 125
73 91 119
74 93 121
75 94 121
76 94 122
74 90 115
76 95 123
74 91 118
72 91 118
74 91 117
76 94 121
76 94 121
74 92 121
75 93 120
73 90 117
72 90 117
74 92 120
72 89 116
76 94 121
76 93 120
73 92 120
71 88 113
71 89 115
72 90 117
72 90 116
71 88 114
74 92 118
72 89 116
72 90 115
74 93 121
73 92 120
71 89 115
75 93 119
72 90 116
74 92 120
71 89 115
74 91 118
74 91 116
67 84 110
75 93 119
70 87 111
74 92 119
74 92 119
71 87 112
71 88 113
71 88 113
74 92 120
71 89 115
73 90 116
75 93 120
71 88 113
75 92 118
73 90 116
74 92 117
75 93 120
73 90 115
74 92 119
69 86 112
75 91 115
72 89 115
73 90 115
68 85 110
73 91 118
71 88 113
72 89 114
72 89 115
70 86 111
72 90 116
70 87 113
75 94 121
72 89 115
73 90 115
71 88 113
70 86 111
72 91 118
76 94 120
71 89 115
72 88 112
70 86 111
65 81 105
69 85 111
75 92 117
73 90 114
67 83 107
71 88 113
69 86 112
69 85 110
67 83 106
69 85 110
69 86 112
71 88 113
68 85 111
68 85 110
69 86 112
67 83 108
65 80 103
76 93 118
67 82 105
67 82 105
69 86 111
73 90 115
71 87 111
69 86 111
68 84 109
68 84 108
71 88 113
69 84 107
68 84 108
66 83 108
65 79 101
64 78 100
69 85 111
68 83 107
70 86 110
70 86 111
68 84 108
70 87 112
68 83 106
67 83 107
66 81 105
68 83 105
69 84 106
64 79 102
65 81 103
68 83 107
66 81 104
68 84 109
69 85 109
64 78 100
65 79 101
67 82 105
70 86 110
63 78 101
71 88 112
70 86 111
61 75 96
68 84 108
66 80 103
64 79 102
65 79 101
65 79 101
65 80 103
68 83 106
65 80 102
67 81 104
65 79 100
65 80 102
64 79 101
70 86 109
62 76 97
63 78 100
65 80 103
59 73 94
61 76 99
64 77 97
68 82 104
62 76 97
65 79 101
64 78 99
69 84 108
62 78 102
61 75 94
65 79 99
58 72 93
62 76 97
56 69 88
65 80 102
67 82 104
70 87 111
62 76 97
67 82 105
63 78 100
64 79 102
65 79 101
58 71 92
64 78 100
61 75 96
62 75 96
61 74 94
62 76 97
60 73 94
64 79 103
64 78 100
60 72 91
67 82 105
67 81 102
59 73 94
65 80 101
63 78 100
60 74 96
66 81 103
66 81 103
68 83 106
65 80 101
63 78 100
58 71 91
65 80 102
63 79 102
63 78 100
65 80 103
62 76 97
62 76 97
62 77 99
67 82 105
61 76 98
63 78 100
59 73 94
62 76 97
65 81 105
65 80 102
63 77 99
65 78 99
60 75 97
62 76 98
64 78 99
62 76 96
68 83 107
59 72 93
63 77 99
69 85 108
61 77 99
61 76 97
63 76 96
64 79 100
61 75 96
63 77 99
67 82 104
67 82 104
65 80 102
63 78 100
58 71 91
65 80 102
66 81 104
63 78 101
65 79 101
70 85 108
65 79 101
62 77 100
67 81 103
66 81 103
61 75 96
68 84 108
58 72 92
67 82 105
66 81 103
65 79 101
62 77 99
65 80 103
66 81 103
59 73 94
59 73 93
71 88 114
64 79 101
63 78 100
66 82 106
64 78 99
65 81 104
67 82 105
65 80 103
67 83 106
67 82 105
63 78 100
68 83 105
68 84 108
67 83 107
69 85 110
71 87 111
66 81 103
72 88 113
70 86 111
67 83 107
66 81 103
66 81 105
65 81 105
65 80 103
66 81 104
67 83 107
69 86 110
67 85 111
65 81 104
69 86 111
66 81 104
70 87 113
69 86 110
70 87 112
70 87 111
70 86 111
68 84 109
68 85 110
65 80 103
71 87 112
66 82 107
71 87 111
66 82 105
72 89 115
69 85 109
68 84 107
69 85 110
70 86 111
66 82 106
71 87 112
71 87 112
70 88 115
69 86 112
70 86 110
69 84 108
73 91 117
73 91 117
74 92 118
70 86 112
72 89 115
71 88 113
73 90 117
75 92 119
72 89 114
71 88 112
71 87 112
65 81 105
67 83 106
72 89 114
71 88 114
73 91 117
73 91 117
70 87 111
66 82 107
71 88 114
69 85 109
71 89 116
74 92 118
69 86 112
69 87 113
76 94 120
68 84 109
72 89 114
71 88 115
72 88 113
71 88 114
70 86 110
73 90 117
72 90 116
72 90 116
71 88 114
75 92 119
74 92 119
71 88 114
72 89 114
75 93 120
70 87 113
72 89 114
70 87 111
73 90 116
75 93 120
73 89 114
71 88 114
70 87 113
72 89 116
71 88 114
70 87 114
74 92 119
71 88 113
73 90 116
71 88 113
73 91 118
76 93 120
73 90 115
74 92 118
74 91 116
73 91 119
73 90 116
74 93 120
77 95 121
76 94 122
73 90 116
68 85 110
73 90 116
72 90 116
71 89 116
71 88 114
70 88 114
73 91 118
77 96 124
73 91 117
75 94 121
77 94 120
75 94 121
73 91 118
75 93 119
75 92 118
70 89 117
72 89 114
71 88 114
78 97 125
76 93 119
74 93 121
74 92 119
76 95 122
74 93 121
75 94 123
73 90 115
76 94 122
75 94 123
72 90 117
74 91 117
75 93 121
72 89 116
75 93 119
75 93 120
75 94 122
74 93 121
72 89 116
75 93 120
71 89 116
77 96 123
74 91 117
72 91 118
75 93 121
75 94 122
73 91 119
72 90 116
74 91 117
73 91 118
76 93 119
75 94 123
73 90 115
72 90 117
73 92 119
73 91 117
77 94 121
73 90 115
73 91 118
74 92 119
72 89 115
73 90 116
71 89 116
76 94 120
72 89 115
72 89 115
72 90 117
71 88 113
71 89 116
74 91 116
68 84 108
73 91 117
68 85 111
72 89 116
70 87 112
71 89 115
74 92 118
73 91 118
68 84 108
70 88 114
72 90 117
73 91 117
73 91 118
74 92 118
72 90 117
72 90 118
71 88 114
74 91 117
70 86 111
70 86 111
71 89 116
70 87 113
72 89 115
73 90 116
69 85 111
74 93 121
74 92 119
70 88 115
68 84 109
73 90 115
69 85 110
72 89 114
69 86 111
74 90 116
68 83 105
68 85 111
71 87 112
71 88 114
68 85 109
70 87 112
67 85 112
72 89 115
67 82 104
74 91 117
73 90 116
68 84 109
66 82 106
69 86 110
66 82 106
69 86 111
70 87 111
69 85 108
69 86 111
67 83 107
68 84 108
70 87 112
71 88 114
73 90 116
66 82 105
62 78 101
63 77 98
66 81 104
72 88 113
69 85 110
70 87 113
69 85 109
68 84 108
68 84 108
66 82 106
70 86 109
64 79 101
67 82 105
65 80 104
61 75 98
65 80 102
70 87 112
66 80 102
66 81 104
67 82 105
66 82 105
67 83 108
66 81 103
65 80 102
69 86 112
67 83 106
68 84 109
66 80 102
67 83 106
62 77 99
62 78 102
64 79 101
66 80 102
72 88 113
68 84 107
67 82 105
65 79 101
67 82 104
63 78 100
69 85 110
64 78 100
67 83 105
63 78 100
64 79 102
66 82 105
70 85 108
64 78 99
69 84 107
63 79 102
66 80 102
61 74 94
66 81 103
67 82 104
62 76 99
67 82 105
64 79 101
67 82 106
60 73 94
65 81 104
62 76 98
63 77 98
61 74 94
63 78 100
62 77 98
66 81 104
59 72 92
65 80 101
67 82 105
64 80 104
67 82 104
66 80 101
58 71 90
64 79 102
63 78 100
63 77 97
65 79 101
63 76 96
61 74 94
65 80 101
67 82 104
63 78 100
69 86 110
65 80 103
63 77 98
65 79 101
65 80 103
60 74 95
67 81 103
63 77 98
61 75 97
67 81 104
63 77 99
64 79 102
66 81 103
64 79 101
62 77 98
63 77 97
63 79 102
65 80 102
58 72 92
62 77 100
63 77 99
60 74 94
62 76 98
61 75 97
65 80 102
63 77 98
62 77 99
65 79 100
65 79 102
64 79 102
66 81 103
59 73 93
62 76 97
61 76 99
60 73 93
67 82 105
53 66 84
58 72 93
61 75 96
62 78 100
61 75 96
63 77 97
70 85 108
62 75 95
67 82 104
60 75 96
69 85 109
63 78 100
65 79 102
65 81 104
69 85 109
69 85 108
65 80 102
62 77 100
60 74 94
67 83 106
68 82 104
60 74 95
65 79 101
66 81 104
63 78 101
67 82 105
66 81 103
65 80 103
65 80 102
60 74 95
64 78 99
67 83 106
62 77 100
61 76 98
62 76 97
65 80 104
62 76 98
59 72 92
66 82 106
67 82 103
63 79 102
66 80 102
68 84 108
65 80 103
66 81 103
63 77 99
66 82 105
69 86 111
68 85 109
67 82 106
66 83 107
71 88 113
71 86 109
68 84 108
68 84 109
65 81 105
64 79 103
67 82 105
71 87 110
69 86 110
66 82 106
69 85 109
70 86 111
69 84 107
66 81 105
64 78 100
66 82 105
70 86 111
67 83 108
69 85 110
64 80 103
68 84 108
69 86 110
72 89 113
67 84 109
69 85 110
72 88 114
68 84 109
72 89 114
68 84 108
70 86 111
74 90 113
69 85 109
73 89 114
67 84 108
71 87 113
70 87 113
66 82 105
72 88 113
69 87 113
70 87 112
69 86 111
71 88 114
69 86 112
68 85 109
68 85 111
68 84 108
74 92 119
70 86 111
67 83 107
69 85 110
66 81 105
73 91 117
71 88 113
70 86 110
70 87 112
67 84 109
71 87 112
68 85 110
73 91 117
71 90 117
71 90 118
74 92 119
69 86 113
71 88 113
71 89 115
72 89 114
72 89 115
71 88 112
72 90 116
71 88 114
70 88 114
74 92 119
76 94 121
71 88 114
75 93 119
74 92 118
73 89 115
71 89 116
75 93 120
71 88 114
75 94 122
70 88 113
71 88 114
72 89 115
72 90 116
71 89 117
73 92 121
75 93 121
77 95 123
74 91 117
73 91 118
69 85 109
73 90 117
72 90 117
71 90 118
72 90 117
75 94 121
72 89 115
75 92 117
73 91 118
73 90 117
73 90 117
72 89 116
76 94 121
70 88 115
75 93 121
74 91 118
73 90 116
77 95 123
74 93 120
68 85 111
73 91 117
74 91 118
75 94 122
73 92 120
74 92 119
71 89 115
73 91 117
72 88 114
72 90 118
73 91 118
77 95 122
72 90 117
77 95 122
74 92 119
74 92 119
76 95 123
74 92 119
73 90 115
76 94 120
75 93 121
76 94 122
75 93 120
72 89 115
75 92 119
77 96 124
72 90 117
74 93 120
72 90 118
79 98 125
77 95 122
75 92 119
72 89 115
74 92 119
74 93 121
73 91 118
77 94 121
75 92 119
71 89 115
73 91 117
74 91 117
72 90 117
72 89 114
75 93 120
74 92 119
73 90 116
75 93 121
76 93 119
72 91 119
77 96 124
70 88 114
70 88 114
72 91 118
70 88 114
73 91 119
68 84 109
72 90 117
72 89 116
74 92 119
70 87 113
68 85 110
73 90 115
71 88 113
72 90 115
75 92 119
77 96 124
75 92 118
74 91 117
73 90 117
76 94 120
75 94 122
73 90 115
73 91 117
75 93 120
73 91 118
74 91 117
74 90 116
73 90 117
73 90 117
71 89 115
69 85 110
67 84 109
69 87 114
73 90 117
65 81 106
73 90 116
71 89 114
72 90 116
74 92 118
71 88 113
70 87 114
69 85 109
72 89 115
72 90 115
69 87 113
68 84 110
65 82 106
69 86 110
70 87 111
70 86 111
67 84 108
72 88 112
73 90 115
67 83 108
66 81 104
73 90 115
68 84 108
71 88 112
67 83 107
71 88 114
71 88 114
71 88 113
70 86 110
74 91 116
70 87 112
72 88 112
72 89 116
72 89 113
65 82 107
71 87 111
66 83 108
68 84 108
71 87 111
68 85 109
72 89 115
69 85 109
66 82 106
67 82 105
60 74 96
66 81 105
73 89 114
67 83 108
65 80 102
69 86 110
61 76 98
66 82 104
67 83 107
66 82 105
67 82 105
67 83 108
65 81 105
65 81 104
66 81 104
61 76 99
73 90 116
64 80 102
64 80 103
67 82 106
65 80 104
73 89 113
68 84 107
64 79 102
65 81 105
64 79 100
73 90 116
66 82 107
66 82 106
63 78 100
65 79 102
68 84 108
62 77 99
67 84 108
65 79 101
66 82 105
64 79 101
63 79 102
70 86 110
62 75 96
63 78 100
68 84 108
67 83 106
65 80 102
67 83 106
59 74 95
68 83 107
65 80 103
58 73 95
65 81 104
67 82 104
64 79 102
64 78 100
60 75 97
62 76 97
68 83 106
64 80 104
70 86 109
61 75 96
61 75 96
65 80 102
64 79 101
62 77 99
66 81 104
66 81 104
61 76 97
59 73 96
62 75 95
62 76 97
64 79 100
66 81 104
62 76 96
62 76 97
60 74 93
61 74 94
63 78 101
63 77 97
60 73 93
58 72 92
65 80 102
61 76 98
65 80 103
64 78 99
61 73 93
64 78 100
64 80 102
63 77 98
62 75 94
68 83 105
63 77 98
66 81 103
58 71 91
64 79 101
68 84 107
64 79 101
61 74 95
64 79 101
63 77 99
64 79 101
66 80 101
61 76 97
62 77 100
67 82 104
64 78 99
65 80 102
62 76 97
62 76 98
63 78 101
61 75 96
62 76 97
61 76 97
60 74 95
65 80 103
63 77 98
61 75 96
58 72 92
64 78 100
60 74 96
67 82 105
61 75 96
61 75 97
66 81 102
67 82 104
67 82 105
60 73 93
62 77 100
62 76 97
65 81 104
65 80 102
63 77 100
64 80 104
63 77 98
68 83 106
68 84 108
71 86 108
62 75 95
62 76 97
63 77 99
68 83 105
68 84 108
67 82 105
65 80 102
67 81 103
69 84 108
68 83 106
63 77 98
68 84 108
67 81 103
67 83 106
62 77 99
64 79 101
64 78 100
63 78 100
64 78 99
68 84 109
65 80 103
68 84 108
67 83 105
65 81 104
63 78 100
66 81 104
69 85 108
69 85 108
66 82 105
62 77 99
68 85 110
68 84 109
64 79 101
66 81 104
65 80 104
72 88 114
65 80 103
71 87 110
65 80 103
60 75 97
69 85 110
74 90 114
65 81 105
69 86 111
69 85 110
66 80 102
73 91 117
68 86 111
67 83 107
70 86 111
74 92 119
69 86 112
69 86 110
65 81 105
68 84 108
65 82 107
71 88 113
68 84 109
71 88 113
67 83 108
67 83 107
72 89 113
66 82 106
71 89 116
72 89 114
72 88 112
72 89 115
71 87 112
71 89 115
70 86 110
69 87 112
71 88 114
70 86 110
68 85 111
71 88 113
71 87 112
71 89 114
72 89 114
72 89 114
68 83 106
71 88 112
69 85 109
65 81 105
73 89 114
72 89 115
67 83 108
70 87 113
72 90 116
72 89 115
70 87 111
71 88 114
72 89 114
75 92 119
66 82 106
72 89 114
74 92 119
75 93 120
70 87 112
73 90 116
70 87 112
73 91 117
73 90 115
69 86 112
74 92 118
74 91 117
72 89 115
71 88 114
72 90 118
69 85 110
74 92 119
72 90 118
71 88 115
68 85 110
70 86 110
71 88 114
73 90 115
76 95 123
74 91 117
73 90 116
72 90 117
69 86 111
73 90 116
74 92 118
72 90 116
71 88 114
72 90 116
74 93 120
70 88 114
76 94 121
72 89 116
73 90 115
73 91 116
74 93 120
74 92 119
72 90 115
73 91 119
71 89 117
75 93 121
75 94 123
73 92 119
73 92 120
73 90 116
74 91 118
74 92 118
75 93 120
74 92 119
76 93 119
74 93 120
75 93 121
78 97 125
73 91 118
74 93 120
73 90 116
74 92 120
75 93 121
76 95 123
75 93 121
73 91 118
70 88 115
76 94 122
72 90 118
74 92 120
74 92 119
70 88 115
73 91 118
72 89 115
75 93 121
76 94 121
76 95 122
74 91 118
72 90 116
76 95 123
72 90 116
73 90 117
74 91 117
74 91 116
74 92 119
70 88 114
74 92 120
75 92 118
77 96 123
72 90 117
73 92 120
70 88 115
70 87 113
71 89 116
71 89 115
68 85 110
73 91 117
74 91 118
73 91 117
74 92 119
72 88 113
71 89 114
70 87 112
73 90 116
72 89 115
67 83 108
72 90 117
72 90 117
73 91 117
71 88 114
75 93 121
73 91 117
71 89 115
72 90 117
72 90 116
71 89 116
72 89 116
70 87 113
74 92 119
69 86 111
72 90 117
72 90 117
71 88 114
69 85 110
70 87 113
73 91 118
73 90 115
70 87 113
73 90 115
67 84 110
70 87 112
73 90 115
74 91 116
70 87 113
71 87 111
70 86 111
69 86 112
69 86 110
69 85 109
72 90 116
70 88 115
73 90 116
71 88 114
70 87 111
67 83 108
72 89 115
71 88 114
70 87 113
70 87 113
73 90 116
71 88 113
70 88 113
69 85 110
69 86 111
71 87 111
69 86 111
69 86 111
69 85 109
72 87 111
68 83 107
69 85 108
71 87 112
68 85 110
69 85 109
68 84 108
64 80 102
72 88 113
69 85 110
71 89 114
66 82 106
70 86 111
66 82 105
64 80 103
66 83 108
66 83 108
64 79 103
70 87 111
63 78 100
70 86 110
68 84 109
69 85 108
66 82 106
71 87 112
65 82 106
69 85 108
69 83 105
68 84 107
70 87 112
64 79 100
59 73 93
65 81 104
62 77 100
72 88 113
63 78 99
67 83 107
66 81 103
66 82 104
63 77 98
67 81 104
64 78 100
68 84 107
65 79 101
62 76 98
62 78 101
65 81 104
66 81 104
66 81 104
68 84 109
67 83 105
67 82 105
66 81 104
65 80 102
66 81 103
62 76 96
64 79 101
62 77 100
66 82 105
62 77 99
71 86 109
64 78 99
62 77 100
62 77 99
63 79 101
64 79 102
63 77 98
59 72 93
62 76 98
64 79 101
61 75 96
60 74 96
67 82 106
67 83 108
66 80 101
65 79 100
69 83 106
59 72 92
61 75 95
64 79 102
66 81 104
65 80 102
57 71 91
65 80 102
61 75 96
63 78 101
64 78 99
65 79 101
67 82 104
64 79 101
60 75 96
65 80 103
68 83 107
67 83 106
65 79 101
69 85 109
55 67 85
60 74 95
61 75 96
66 81 103
60 74 95
62 76 98
66 81 103
63 77 98
56 69 87
59 73 93
64 77 97
60 74 95
67 82 105
61 75 96
65 79 101
57 70 90
63 77 98
66 80 102
62 76 98
60 74 95
64 79 101
60 74 95
62 77 99
61 75 95
63 76 95
65 80 103
66 81 102
65 80 102
61 75 96
61 76 97
63 77 98
62 77 99
64 78 100
62 76 98
65 79 100
67 83 107
63 77 98
65 79 100
63 78 100
64 79 101
63 78 100
67 83 106
63 78 99
62 76 96
62 77 98
64 79 102
67 82 105
67 81 104
65 80 102
66 82 106
64 79 102
63 78 99
67 82 105
63 77 98
68 84 107
68 83 105
67 83 106
62 77 99
63 77 99
68 84 107
64 78 99
63 77 98
64 79 102
69 85 109
64 78 99
64 79 101
63 78 100
65 81 103
64 79 101
69 85 109
67 83 107
65 81 104
66 81 104
66 80 102
66 82 105
68 83 105
64 80 103
69 86 110
66 82 106
69 84 108
70 87 112
66 80 101
63 78 100
68 83 105
69 85 109
66 82 105
69 85 109
70 86 111
64 78 100
74 92 119
70 86 111
68 84 108
70 86 111
66 82 105
66 81 105
70 87 112
67 83 108
67 83 107
67 83 108
70 86 111
67 83 108
69 86 112
72 89 114
68 84 109
65 80 104
68 85 111
67 82 105
69 86 110
67 84 108
68 86 112
68 85 110
68 85 111
73 91 117
72 89 115
63 79 102
67 83 107
71 88 113
70 87 112
70 87 111
71 87 112
64 79 101
65 81 105
70 87 113
74 92 118
64 80 104
70 86 110
72 90 116
69 86 112
74 91 118
72 89 114
73 90 115
69 86 110
73 90 115
70 86 111
74 91 117
67 84 109
69 86 111
71 88 113
65 82 107
67 82 105
72 90 116
66 82 107
76 94 121
72 89 114
72 90 116
71 87 112
73 91 117
75 92 119
72 90 117
72 89 115
68 85 110
71 88 114
69 85 111
74 91 117
72 91 119
74 91 118
70 87 113
73 90 116
71 89 114
71 89 115
69 85 110
74 91 116
73 91 117
68 84 109
72 90 118
71 88 114
71 88 114
72 90 117
71 89 115
74 90 114
75 93 120
68 86 111
75 94 122
71 88 113
71 87 112
73 90 115
71 88 113
71 90 118
73 91 118
66 83 109
71 88 113
72 90 117
74 93 121
72 90 116
71 88 114
70 87 112
76 94 121
72 90 117
75 93 120
73 90 116
75 93 119
71 88 112
76 94 122
76 94 120
74 93 121
74 92 120
73 90 117
73 91 119
73 91 117
73 91 118
75 93 119
74 93 120
75 93 120
73 91 118
73 92 119
77 95 122
78 96 122
74 92 119
75 93 121
74 92 120
74 93 120
77 95 122
74 93 120
75 94 123
75 94 122
75 93 121
74 92 119
76 93 120
74 91 117
68 85 111
74 92 117
73 90 115
77 95 123
70 87 112
76 94 122
68 85 111
76 95 122
76 94 122
73 91 118
72 89 115
67 84 109
75 93 120
73 91 118
72 90 117
74 92 119
73 90 115
72 89 114
75 93 119
74 92 119
72 90 116
72 90 117
73 92 119
72 89 114
77 94 120
74 93 121
72 90 117
75 92 117
70 88 113
72 90 117
73 90 117
73 91 117
72 90 116
73 90 116
73 92 120
71 88 114
70 87 113
73 91 118
74 91 116
71 88 113
72 89 115
72 88 113
72 89 115
73 92 119
70 88 114
68 85 111
73 90 115
72 89 114
70 88 114
72 90 116
71 88 115
69 86 112
67 83 107
70 87 113
69 86 111
74 91 116
74 92 118
71 88 114
72 89 114
73 91 116
68 84 108
69 86 112
72 89 114
70 87 112
74 92 118
71 88 113
73 91 118
72 89 115
73 91 117
65 82 106
74 91 115
69 86 111
74 91 116
69 85 110
69 85 110
67 83 108
72 88 113
71 87 112
69 85 109
73 90 115
71 87 111
71 88 113
70 86 110
68 85 110
63 79 103
68 84 108
73 90 116
69 87 113
67 83 106
69 85 110
68 83 107
63 78 101
66 81 103
67 83 108
69 85 110
71 88 113
69 84 107
66 82 105
71 88 114
66 80 103
66 82 106
70 85 109
68 84 109
70 86 111
72 88 112
70 86 111
60 75 97
66 82 105
67 83 107
70 85 109
69 85 109
68 83 106
60 74 96
65 80 103
67 83 107
67 82 105
65 81 104
67 83 107
70 85 108
66 82 105
66 81 104
64 79 102
68 83 105
64 79 102
67 82 106
69 86 111
65 81 104
64 79 102
69 84 108
66 81 104
65 80 101
63 79 101
66 82 105
65 80 103
64 80 104
69 85 109
64 79 102
66 81 103
68 84 108
66 81 105
64 79 101
60 74 94
64 79 102
62 76 98
66 81 103
64 78 99
59 73 93
64 79 102
66 82 105
67 81 103
67 83 107
63 77 98
67 81 103
67 82 105
63 77 98
60 74 94
67 82 105
66 82 106
64 78 99
64 78 100
62 77 99
61 75 95
63 77 99
66 81 103
66 82 106
64 77 97
66 82 105
67 81 104
68 83 106
66 81 103
61 76 97
63 77 98
63 78 100
63 77 99
63 78 99
65 80 103
66 81 102
63 78 99
59 73 94
64 79 101
66 81 103
63 76 97
60 74 94
59 73 93
64 79 100
64 78 99
68 84 107
68 83 105
63 78 99
61 74 94
62 76 97
61 76 97
67 82 104
69 84 107
58 70 88
65 80 103
59 72 92
63 78 101
62 77 99
61 76 97
65 79 99
66 80 102
66 82 106
63 77 98
63 78 101
61 75 95
68 83 105
62 76 98
65 80 103
61 75 95
64 79 102
61 74 94
64 77 97
67 84 109
62 77 98
62 76 97
68 83 105
64 79 102
65 81 104
61 75 96
66 81 103
65 79 101
64 78 99
63 78 100
68 83 106
67 83 107
66 81 103
63 77 98
71 86 109
63 77 98
64 78 100
64 80 103
66 81 104
67 82 105
69 84 108
68 83 106
62 77 98
68 83 106
67 82 105
65 80 102
66 82 104
65 80 101
67 81 103
67 82 104
67 83 107
64 78 100
70 86 111
64 78 100
68 84 107
62 77 98
69 86 111
69 85 110
63 78 101
67 83 107
70 86 110
67 82 105
65 80 103
65 81 105
68 84 107
61 76 98
71 87 112
66 82 106
68 84 106
68 83 105
62 77 100
70 86 111
69 85 109
67 83 107
65 79 101
66 82 106
65 80 103
65 81 104
72 88 113
73 90 116
68 85 110
65 81 104
67 83 107
69 85 109
71 87 112
67 83 107
70 86 110
73 90 116
66 81 104
70 87 113
70 86 111
67 82 104
65 80 104
68 84 108
69 86 111
73 89 115
73 90 115
69 86 112
71 88 114
71 86 109
69 85 110
71 87 112
70 85 109
71 88 114
71 88 113
72 89 113
70 88 114
66 82 106
66 82 105
70 87 112
72 90 116
72 88 112
71 88 114
74 91 116
72 90 116
71 88 115
68 85 111
72 90 116
67 83 107
67 83 107
74 92 119
71 87 112
73 90 116
68 83 106
71 88 112
70 87 112
68 85 110
70 87 112
68 84 108
72 89 114
70 86 111
71 88 113
71 88 114
70 86 111
74 92 119
66 82 106
71 88 113
70 87 112
72 89 116
69 86 112
71 89 116
68 85 110
73 90 116
72 88 113
73 91 117
72 89 115
71 89 115
74 92 118
72 90 116
71 89 114
72 90 116
72 89 114
72 90 117
72 89 115
73 91 118
72 89 116
73 91 119
75 92 118
70 86 110
70 87 112
73 90 115
73 91 117
70 87 113
69 85 110
73 92 119
72 89 116
74 92 119
76 95 123
75 92 119
69 86 112
74 92 118
76 94 122
75 94 122
78 97 125
70 86 110
72 90 117
70 87 113
76 93 120
73 91 117
74 92 119
76 95 124
67 83 107
70 87 114
75 92 119
74 92 119
74 92 118
74 92 120
73 91 118
74 91 118
73 91 119
74 92 118
73 91 118
73 90 117
75 94 122
76 94 122
75 93 121
73 91 119
75 95 124
76 95 123
75 93 120
77 96 123
74 92 118
76 95 122
76 94 122
73 91 117
76 93 120
74 92 119
76 94 122
74 92 120
75 93 120
73 90 116
73 91 117
75 92 119
71 88 114
75 93 119
75 93 119
74 92 120
77 95 123
74 92 120
72 89 115
75 93 120
75 93 120
75 93 118
77 95 121
74 92 119
72 90 117
72 90 116
72 90 118
72 89 115
75 92 117
70 87 114
73 91 117
71 89 115
74 92 119
69 86 112
74 92 118
74 91 118
70 87 113
67 83 108
74 91 118
72 89 114
70 88 114
74 92 118
70 87 111
73 90 115
72 90 117
71 88 114
73 91 117
71 88 114
69 86 112
71 87 111
71 88 114
71 88 114
68 85 110
76 93 119
71 88 114
65 81 106
72 89 114
72 88 112
70 87 113
71 87 112
72 89 114
73 91 116
71 88 114
71 89 114
67 83 108
73 90 115
70 87 113
72 90 117
68 84 108
67 83 107
68 84 108
71 88 114
66 82 107
73 91 117
73 91 117
67 83 106
66 82 106
65 82 106
72 89 115
71 88 113
67 84 108
72 89 116
70 86 110
71 88 114
69 84 108
68 85 109
65 81 104
67 83 106
69 86 110
68 83 107
71 87 111
70 87 113
71 88 113
64 79 102
70 87 112
71 88 114
71 87 112
69 85 109
74 92 119
67 84 109
69 85 111
63 79 103
71 88 113
69 86 110
67 83 107
70 86 109
72 88 111
69 84 107
68 84 109
66 81 104
71 87 110
70 86 110
68 84 107
68 83 105
64 79 102
68 84 108
65 81 104
68 85 110
69 86 111
67 83 107
67 83 107
63 77 98
69 85 110
63 79 102
71 86 109
64 79 102
67 83 106
69 85 109
68 83 106
64 80 103
68 84 109
64 79 102
68 84 107
65 80 103
64 79 101
66 81 103
65 81 103
71 86 109
58 72 93
66 82 105
67 82 105
59 73 93
67 82 104
64 79 101
63 77 99
66 80 101
62 77 98
62 76 97
66 81 103
66 82 105
63 78 100
69 84 108
67 83 107
62 77 100
59 73 94
68 84 109
64 79 101
66 81 104
66 81 103
66 81 105
65 80 102
67 82 103
67 82 105
63 77 98
63 77 99
63 79 102
65 81 103
62 77 99
68 83 106
66 80 102
65 80 103
62 77 99
66 81 103
66 82 105
64 78 99
60 74 96
61 75 96
65 80 102
65 80 102
58 71 91
67 81 103
63 78 100
65 80 103
60 75 97
60 74 95
66 81 104
65 79 101
64 78 99
64 78 100
64 78 99
69 85 110
64 78 99
62 76 96
63 78 101
64 78 99
62 76 97
61 74 94
59 73 94
63 77 98
66 80 102
63 78 101
66 81 103
61 74 95
64 79 102
62 77 99
67 82 105
60 73 94
64 78 98
64 79 101
63 78 100
62 75 96
60 74 95
67 83 106
66 82 105
67 83 106
63 78 101
64 79 101
62 76 98
68 83 106
68 83 106
63 77 98
65 80 103
63 77 99
61 75 95
63 77 99
67 83 106
65 79 102
68 83 106
62 77 99
61 75 96
59 73 95
63 77 99
62 77 99
70 86 109
68 83 105
67 82 105
69 84 107
67 83 106
63 78 100
69 84 107
68 83 106
67 83 106
66 81 104
67 82 106
70 85 108
71 86 110
63 78 99
62 75 94
63 77 98
66 82 105
67 82 106
67 83 106
71 87 111
71 87 111
64 79 102
64 79 100
62 77 99
64 79 101
71 86 110
68 83 106
67 82 104
67 82 106
63 79 102
68 84 108
67 83 107
65 80 102
69 86 111
68 84 108
67 83 108
64 80 103
68 85 110
68 84 109
68 82 104
65 81 105
69 85 108
69 86 111
62 78 102
67 82 105
68 84 108
68 84 108
68 85 110
70 87 112
70 88 114
66 83 109
69 85 110
67 83 107
71 86 109
68 84 108
68 84 108
68 84 107
69 86 110
68 84 108
70 86 111
70 87 113
70 86 112
67 82 105
67 83 107
68 83 107
68 83 106
69 86 111
70 87 111
74 90 116
70 86 111
66 82 107
69 85 109
65 82 106
70 86 110
70 87 112
69 86 112
70 86 111
72 88 114
69 86 110
68 84 109
70 87 114
69 85 110
69 85 109
69 86 112
68 85 110
66 81 104
70 87 113
73 90 115
71 87 110
74 90 115
71 88 113
69 85 110
74 91 117
71 88 114
71 88 114
72 88 113
76 93 119
74 91 117
71 88 114
73 90 117
72 89 115
72 89 114
70 87 111
66 82 106
71 88 113
75 93 120
74 92 119
70 88 113
73 91 118
71 87 113
74 92 118
76 94 121
73 90 114
72 90 116
69 87 114
72 90 117
74 92 120
69 86 112
70 87 112
72 90 118
73 90 116
74 92 119
74 92 118
72 89 116
71 87 112
76 94 122
70 87 113
74 93 121
73 90 116
74 92 120
72 89 115
71 88 114
72 90 117
70 87 113
70 87 113
74 91 117
77 95 123
70 88 115
74 91 117
77 94 121
74 91 116
71 89 116
73 89 114
76 94 121
76 94 120
73 91 118
74 92 119
72 89 116
74 91 117
74 91 118
73 91 117
78 96 124
72 90 118
71 88 114
75 93 119
74 93 121
75 93 120
73 91 119
73 91 117
74 92 120
74 93 121
74 92 119
71 88 114
77 95 122
75 93 120
73 90 116
76 94 121
77 94 120
77 97 126
72 90 118
75 93 120
73 91 118
74 92 119
74 91 117
74 92 118
75 92 118
68 86 113
72 89 114
76 93 119
76 94 120
74 91 118
72 90 117
74 91 117
71 87 112
70 87 111
74 92 119
69 87 113
74 92 119
74 92 118
74 92 119
72 90 116
74 91 117
74 91 117
70 87 113
76 94 121
70 88 115
71 89 116
67 84 109
73 90 116
73 90 117
73 91 117
68 85 111
71 88 115
75 93 120
72 90 118
73 91 119
75 93 120
73 90 116
74 92 119
71 88 113
71 89 116
73 90 117
72 89 114
73 89 115
70 87 112
69 86 112
72 89 115
74 92 118
71 87 113
67 84 109
72 89 116
73 91 118
68 84 109
71 87 112
71 88 112
71 88 113
69 86 111
69 86 110
70 88 113
71 88 113
71 87 113
70 88 113
70 86 111
70 86 111
72 89 114
70 88 114
74 92 119
70 86 111
66 81 104
73 91 118
64 80 104
73 90 115
71 87 112
71 87 110
73 90 116
69 85 110
70 87 112
70 87 113
68 84 108
68 84 108
75 92 119
68 85 111
73 90 115
70 86 110
70 87 114
66 81 103
71 88 113
69 85 109
68 85 109
68 84 108
71 87 113
71 88 113
69 85 109
66 82 105
69 86 112
70 87 113
68 85 110
71 87 111
67 84 110
68 85 109
67 82 105
68 84 109
68 84 108
69 85 109
72 88 113
64 80 103
67 83 107
70 86 111
65 80 103
67 82 106
68 83 106
67 82 105
69 85 110
65 80 103
68 84 107
71 86 110
68 84 108
73 90 117
64 80 103
69 85 110
68 84 107
61 76 97
66 80 103
63 76 96
63 79 102
70 86 110
65 80 102
64 79 101
65 80 102
67 82 104
65 80 102
67 83 107
63 78 100
64 79 100
65 81 104
68 85 109
68 84 109
61 76 99
67 82 105
60 73 93
64 78 101
66 80 102
63 78 100
69 85 109
66 81 103
63 78 100
67 83 106
69 86 111
64 80 104
66 81 103
64 79 101
66 82 106
64 79 103
65 79 102
68 84 108
62 77 98
65 81 105
63 77 99
65 81 104
64 79 101
61 75 96
65 81 104
66 82 105
66 82 106
63 77 99
65 80 102
66 80 102
64 80 103
68 84 108
62 76 97
66 80 101
61 76 98
64 79 101
65 79 101
66 81 104
64 78 100
69 85 108
68 82 104
65 79 102
66 81 104
64 79 100
66 81 104
65 81 104
59 72 92
63 77 99
66 82 105
61 76 98
65 80 102
64 78 100
68 84 107
68 83 106
69 84 108
64 79 100
67 82 104
53 66 86
65 80 102
62 75 96
60 74 95
59 73 94
63 78 100
66 81 103
64 79 101
60 74 95
67 82 106
64 79 101
64 79 102
67 83 106
61 75 95
65 80 103
63 77 98
68 83 106
65 80 102
65 80 102
65 79 101
67 82 105
64 79 102
65 79 100
66 82 104
68 83 106
62 76 97
59 73 93
65 80 102
66 80 103
69 84 107
67 82 105
64 79 102
64 80 102
69 84 107
67 82 105
66 82 105
66 82 105
62 76 97
57 71 91
63 78 100
61 76 98
65 79 101
69 84 107
68 83 106
62 77 99
62 77 99
63 78 100
65 80 104
61 76 99
64 78 100
65 81 105
64 79 101
60 75 96
64 79 102
66 81 103
69 85 108
71 88 113
66 82 106
67 82 104
65 81 105
66 81 105
64 79 102
71 87 111
64 80 103
68 84 108
69 85 109
65 80 103
66 82 105
62 76 98
70 86 111
70 86 111
71 87 112
71 87 111
65 81 104
69 84 108
67 82 104
74 91 118
63 78 100
70 86 111
69 84 107
61 76 98
66 82 107
63 78 101
71 88 113
69 86 112
69 85 109
68 83 106
68 84 108
67 83 106
69 85 109
68 83 106
67 83 106
66 81 104
66 83 107
69 85 110
67 83 107
70 86 112
67 82 105
67 83 107
71 88 113
72 88 112
67 83 107
64 80 104
70 87 112
65 80 103
71 88 112
70 87 114
73 90 115
69 85 109
68 85 110
71 87 112
74 91 116
70 87 112
73 90 115
71 88 113
71 87 112
72 89 115
69 87 112
69 86 112
67 83 106
66 81 105
68 84 109
74 91 116
71 89 115
71 88 115
74 91 117
72 90 116
71 89 116
69 87 113
72 89 114
67 84 108
72 90 115
67 84 109
69 86 112
75 92 118
69 86 110
70 87 113
74 91 117
69 87 112
70 87 112
72 90 117
73 91 117
69 87 114
70 86 111
70 88 113
70 87 113
74 91 117
73 92 120
66 82 105
73 90 115
75 94 122
71 89 116
73 90 116
70 87 113
70 88 114
77 94 120
70 87 113
71 88 113
71 88 113
72 90 116
75 94 121
71 88 114
72 88 113
71 89 115
74 92 119
73 91 118
72 89 115
74 93 121
74 92 119
74 92 118
69 86 111
72 90 117
74 91 117
72 88 113
73 91 116
76 94 120
71 89 115
70 86 111
71 89 116
73 91 117
75 92 119
75 94 122
77 95 122
72 89 116
76 95 123
73 90 115
73 90 116
71 88 113
74 92 118
77 94 120
69 86 112
72 91 119
75 94 121
75 95 124
73 91 117
75 93 119
74 92 118
